(Exported by FreeCAD)
(Post Processor: KineticNCBeamicon2_post)
(Output Time:2024-09-07 12:16:53.102596)
(begin preamble)
%
G17 G21 G40 G49 G80 G90
M08
G21
(begin operation: Fixture)
(machine: not set, mm/min)
G54
(finish operation: Fixture)
(begin operation: 3.1)
(machine: not set, mm/min)
(3.1)
M05
M09M6 T1
M3 S25000
(finish operation: 3.1)
(begin operation: Holes)
(machine: not set, mm/min)
(Holes)
(Compensated Tool Path. Diameter: 3.1)
G0 Z20.000
G0 X-9.332 Y10.668
G0 Z18.000
G1 X-9.332 Y10.668 Z12.500 F24000.000
G2 X-9.677 Y9.113 Z12.500 I-0.668 J-0.668 F30000.000
G2 X-10.887 Y9.677 Z12.500 I-0.323 J0.887 F30000.000
G2 X-10.323 Y10.887 Z12.500 I0.887 J0.323 F30000.000
G2 X-9.332 Y10.668 Z12.500 I0.323 J-0.887 F30000.000
G1 X-9.332 Y10.668 Z12.000 F24000.000
G2 X-9.677 Y9.113 Z12.000 I-0.668 J-0.668 F30000.000
G2 X-10.887 Y9.677 Z12.000 I-0.323 J0.887 F30000.000
G2 X-10.323 Y10.887 Z12.000 I0.887 J0.323 F30000.000
G2 X-9.332 Y10.668 Z12.000 I0.323 J-0.887 F30000.000
G1 X-9.332 Y10.668 Z11.500 F24000.000
G2 X-9.677 Y9.113 Z11.500 I-0.668 J-0.668 F30000.000
G2 X-10.887 Y9.677 Z11.500 I-0.323 J0.887 F30000.000
G2 X-10.323 Y10.887 Z11.500 I0.887 J0.323 F30000.000
G2 X-9.332 Y10.668 Z11.500 I0.323 J-0.887 F30000.000
G1 X-9.332 Y10.668 Z11.000 F24000.000
G2 X-9.677 Y9.113 Z11.000 I-0.668 J-0.668 F30000.000
G2 X-10.887 Y9.677 Z11.000 I-0.323 J0.887 F30000.000
G2 X-10.323 Y10.887 Z11.000 I0.887 J0.323 F30000.000
G2 X-9.332 Y10.668 Z11.000 I0.323 J-0.887 F30000.000
G1 X-9.332 Y10.668 Z10.500 F24000.000
G2 X-9.677 Y9.113 Z10.500 I-0.668 J-0.668 F30000.000
G2 X-10.887 Y9.677 Z10.500 I-0.323 J0.887 F30000.000
G2 X-10.323 Y10.887 Z10.500 I0.887 J0.323 F30000.000
G2 X-9.332 Y10.668 Z10.500 I0.323 J-0.887 F30000.000
G1 X-9.332 Y10.668 Z10.000 F24000.000
G2 X-9.677 Y9.113 Z10.000 I-0.668 J-0.668 F30000.000
G2 X-10.887 Y9.677 Z10.000 I-0.323 J0.887 F30000.000
G2 X-10.323 Y10.887 Z10.000 I0.887 J0.323 F30000.000
G2 X-9.332 Y10.668 Z10.000 I0.323 J-0.887 F30000.000
G1 X-9.332 Y10.668 Z9.500 F24000.000
G2 X-9.677 Y9.113 Z9.500 I-0.668 J-0.668 F30000.000
G2 X-10.887 Y9.677 Z9.500 I-0.323 J0.887 F30000.000
G2 X-10.323 Y10.887 Z9.500 I0.887 J0.323 F30000.000
G2 X-9.332 Y10.668 Z9.500 I0.323 J-0.887 F30000.000
G1 X-9.332 Y10.668 Z9.000 F24000.000
G2 X-9.677 Y9.113 Z9.000 I-0.668 J-0.668 F30000.000
G2 X-10.887 Y9.677 Z9.000 I-0.323 J0.887 F30000.000
G2 X-10.323 Y10.887 Z9.000 I0.887 J0.323 F30000.000
G2 X-9.332 Y10.668 Z9.000 I0.323 J-0.887 F30000.000
G1 X-9.332 Y10.668 Z8.500 F24000.000
G2 X-9.677 Y9.113 Z8.500 I-0.668 J-0.668 F30000.000
G2 X-10.887 Y9.677 Z8.500 I-0.323 J0.887 F30000.000
G2 X-10.323 Y10.887 Z8.500 I0.887 J0.323 F30000.000
G2 X-9.332 Y10.668 Z8.500 I0.323 J-0.887 F30000.000
G1 X-9.332 Y10.668 Z8.000 F24000.000
G2 X-9.677 Y9.113 Z8.000 I-0.668 J-0.668 F30000.000
G2 X-10.887 Y9.677 Z8.000 I-0.323 J0.887 F30000.000
G2 X-10.323 Y10.887 Z8.000 I0.887 J0.323 F30000.000
G2 X-9.332 Y10.668 Z8.000 I0.323 J-0.887 F30000.000
G1 X-9.332 Y10.668 Z7.500 F24000.000
G2 X-9.677 Y9.113 Z7.500 I-0.668 J-0.668 F30000.000
G2 X-10.887 Y9.677 Z7.500 I-0.323 J0.887 F30000.000
G2 X-10.323 Y10.887 Z7.500 I0.887 J0.323 F30000.000
G2 X-9.332 Y10.668 Z7.500 I0.323 J-0.887 F30000.000
G1 X-9.332 Y10.668 Z7.000 F24000.000
G2 X-9.677 Y9.113 Z7.000 I-0.668 J-0.668 F30000.000
G2 X-10.887 Y9.677 Z7.000 I-0.323 J0.887 F30000.000
G2 X-10.323 Y10.887 Z7.000 I0.887 J0.323 F30000.000
G2 X-9.332 Y10.668 Z7.000 I0.323 J-0.887 F30000.000
G1 X-9.332 Y10.668 Z6.500 F24000.000
G2 X-9.677 Y9.113 Z6.500 I-0.668 J-0.668 F30000.000
G2 X-10.887 Y9.677 Z6.500 I-0.323 J0.887 F30000.000
G2 X-10.323 Y10.887 Z6.500 I0.887 J0.323 F30000.000
G2 X-9.332 Y10.668 Z6.500 I0.323 J-0.887 F30000.000
G1 X-9.332 Y10.668 Z6.000 F24000.000
G2 X-9.677 Y9.113 Z6.000 I-0.668 J-0.668 F30000.000
G2 X-10.887 Y9.677 Z6.000 I-0.323 J0.887 F30000.000
G2 X-10.323 Y10.887 Z6.000 I0.887 J0.323 F30000.000
G2 X-9.332 Y10.668 Z6.000 I0.323 J-0.887 F30000.000
G1 X-9.332 Y10.668 Z5.500 F24000.000
G2 X-9.677 Y9.113 Z5.500 I-0.668 J-0.668 F30000.000
G2 X-10.887 Y9.677 Z5.500 I-0.323 J0.887 F30000.000
G2 X-10.323 Y10.887 Z5.500 I0.887 J0.323 F30000.000
G2 X-9.332 Y10.668 Z5.500 I0.323 J-0.887 F30000.000
G1 X-9.332 Y10.668 Z5.000 F24000.000
G2 X-9.677 Y9.113 Z5.000 I-0.668 J-0.668 F30000.000
G2 X-10.887 Y9.677 Z5.000 I-0.323 J0.887 F30000.000
G2 X-10.323 Y10.887 Z5.000 I0.887 J0.323 F30000.000
G2 X-9.332 Y10.668 Z5.000 I0.323 J-0.887 F30000.000
G1 X-9.332 Y10.668 Z4.500 F24000.000
G2 X-9.677 Y9.113 Z4.500 I-0.668 J-0.668 F30000.000
G2 X-10.887 Y9.677 Z4.500 I-0.323 J0.887 F30000.000
G2 X-10.323 Y10.887 Z4.500 I0.887 J0.323 F30000.000
G2 X-9.332 Y10.668 Z4.500 I0.323 J-0.887 F30000.000
G1 X-9.332 Y10.668 Z4.000 F24000.000
G2 X-9.677 Y9.113 Z4.000 I-0.668 J-0.668 F30000.000
G2 X-10.887 Y9.677 Z4.000 I-0.323 J0.887 F30000.000
G2 X-10.323 Y10.887 Z4.000 I0.887 J0.323 F30000.000
G2 X-9.332 Y10.668 Z4.000 I0.323 J-0.887 F30000.000
G1 X-9.332 Y10.668 Z3.500 F24000.000
G2 X-9.677 Y9.113 Z3.500 I-0.668 J-0.668 F30000.000
G2 X-10.887 Y9.677 Z3.500 I-0.323 J0.887 F30000.000
G2 X-10.323 Y10.887 Z3.500 I0.887 J0.323 F30000.000
G2 X-9.332 Y10.668 Z3.500 I0.323 J-0.887 F30000.000
G1 X-9.332 Y10.668 Z3.000 F24000.000
G2 X-9.677 Y9.113 Z3.000 I-0.668 J-0.668 F30000.000
G2 X-10.887 Y9.677 Z3.000 I-0.323 J0.887 F30000.000
G2 X-10.323 Y10.887 Z3.000 I0.887 J0.323 F30000.000
G2 X-9.332 Y10.668 Z3.000 I0.323 J-0.887 F30000.000
G1 X-9.332 Y10.668 Z2.500 F24000.000
G2 X-9.677 Y9.113 Z2.500 I-0.668 J-0.668 F30000.000
G2 X-10.887 Y9.677 Z2.500 I-0.323 J0.887 F30000.000
G2 X-10.323 Y10.887 Z2.500 I0.887 J0.323 F30000.000
G2 X-9.332 Y10.668 Z2.500 I0.323 J-0.887 F30000.000
G1 X-9.332 Y10.668 Z2.000 F24000.000
G2 X-9.677 Y9.113 Z2.000 I-0.668 J-0.668 F30000.000
G2 X-10.887 Y9.677 Z2.000 I-0.323 J0.887 F30000.000
G2 X-10.323 Y10.887 Z2.000 I0.887 J0.323 F30000.000
G2 X-9.332 Y10.668 Z2.000 I0.323 J-0.887 F30000.000
G1 X-9.332 Y10.668 Z1.500 F24000.000
G2 X-9.677 Y9.113 Z1.500 I-0.668 J-0.668 F30000.000
G2 X-10.887 Y9.677 Z1.500 I-0.323 J0.887 F30000.000
G2 X-10.323 Y10.887 Z1.500 I0.887 J0.323 F30000.000
G2 X-9.332 Y10.668 Z1.500 I0.323 J-0.887 F30000.000
G1 X-9.332 Y10.668 Z1.000 F24000.000
G2 X-9.677 Y9.113 Z1.000 I-0.668 J-0.668 F30000.000
G2 X-10.887 Y9.677 Z1.000 I-0.323 J0.887 F30000.000
G2 X-10.323 Y10.887 Z1.000 I0.887 J0.323 F30000.000
G2 X-9.332 Y10.668 Z1.000 I0.323 J-0.887 F30000.000
G1 X-9.332 Y10.668 Z0.500 F24000.000
G2 X-9.677 Y9.113 Z0.500 I-0.668 J-0.668 F30000.000
G2 X-10.887 Y9.677 Z0.500 I-0.323 J0.887 F30000.000
G2 X-10.323 Y10.887 Z0.500 I0.887 J0.323 F30000.000
G2 X-9.332 Y10.668 Z0.500 I0.323 J-0.887 F30000.000
G1 X-9.332 Y10.668 Z0.000 F24000.000
G2 X-9.677 Y9.113 Z0.000 I-0.668 J-0.668 F30000.000
G2 X-10.887 Y9.677 Z0.000 I-0.323 J0.887 F30000.000
G2 X-10.323 Y10.887 Z0.000 I0.887 J0.323 F30000.000
G2 X-9.332 Y10.668 Z0.000 I0.323 J-0.887 F30000.000
G1 X-9.332 Y10.668 Z-0.250 F24000.000
G2 X-9.677 Y9.113 Z-0.250 I-0.668 J-0.668 F30000.000
G2 X-10.887 Y9.677 Z-0.250 I-0.323 J0.887 F30000.000
G2 X-10.323 Y10.887 Z-0.250 I0.887 J0.323 F30000.000
G2 X-9.332 Y10.668 Z-0.250 I0.323 J-0.887 F30000.000
G0 Z20.000
G0 Z20.000
G0 X-9.332 Y10.668
G0 X9.056 Y10.033
G0 X9.056 Y10.033 Z18.000
G1 X9.056 Y10.033 Z12.500 F24000.000
G2 X9.677 Y10.887 Z12.500 I0.944 J-0.033 F30000.000
G2 X10.887 Y10.323 Z12.500 I0.323 J-0.887 F30000.000
G2 X10.323 Y9.113 Z12.500 I-0.887 J-0.323 F30000.000
G2 X9.056 Y10.033 Z12.500 I-0.323 J0.887 F30000.000
G1 X9.056 Y10.033 Z12.000 F24000.000
G2 X9.677 Y10.887 Z12.000 I0.944 J-0.033 F30000.000
G2 X10.887 Y10.323 Z12.000 I0.323 J-0.887 F30000.000
G2 X10.323 Y9.113 Z12.000 I-0.887 J-0.323 F30000.000
G2 X9.056 Y10.033 Z12.000 I-0.323 J0.887 F30000.000
G1 X9.056 Y10.033 Z11.500 F24000.000
G2 X9.677 Y10.887 Z11.500 I0.944 J-0.033 F30000.000
G2 X10.887 Y10.323 Z11.500 I0.323 J-0.887 F30000.000
G2 X10.323 Y9.113 Z11.500 I-0.887 J-0.323 F30000.000
G2 X9.056 Y10.033 Z11.500 I-0.323 J0.887 F30000.000
G1 X9.056 Y10.033 Z11.000 F24000.000
G2 X9.677 Y10.887 Z11.000 I0.944 J-0.033 F30000.000
G2 X10.887 Y10.323 Z11.000 I0.323 J-0.887 F30000.000
G2 X10.323 Y9.113 Z11.000 I-0.887 J-0.323 F30000.000
G2 X9.056 Y10.033 Z11.000 I-0.323 J0.887 F30000.000
G1 X9.056 Y10.033 Z10.500 F24000.000
G2 X9.677 Y10.887 Z10.500 I0.944 J-0.033 F30000.000
G2 X10.887 Y10.323 Z10.500 I0.323 J-0.887 F30000.000
G2 X10.323 Y9.113 Z10.500 I-0.887 J-0.323 F30000.000
G2 X9.056 Y10.033 Z10.500 I-0.323 J0.887 F30000.000
G1 X9.056 Y10.033 Z10.000 F24000.000
G2 X9.677 Y10.887 Z10.000 I0.944 J-0.033 F30000.000
G2 X10.887 Y10.323 Z10.000 I0.323 J-0.887 F30000.000
G2 X10.323 Y9.113 Z10.000 I-0.887 J-0.323 F30000.000
G2 X9.056 Y10.033 Z10.000 I-0.323 J0.887 F30000.000
G1 X9.056 Y10.033 Z9.500 F24000.000
G2 X9.677 Y10.887 Z9.500 I0.944 J-0.033 F30000.000
G2 X10.887 Y10.323 Z9.500 I0.323 J-0.887 F30000.000
G2 X10.323 Y9.113 Z9.500 I-0.887 J-0.323 F30000.000
G2 X9.056 Y10.033 Z9.500 I-0.323 J0.887 F30000.000
G1 X9.056 Y10.033 Z9.000 F24000.000
G2 X9.677 Y10.887 Z9.000 I0.944 J-0.033 F30000.000
G2 X10.887 Y10.323 Z9.000 I0.323 J-0.887 F30000.000
G2 X10.323 Y9.113 Z9.000 I-0.887 J-0.323 F30000.000
G2 X9.056 Y10.033 Z9.000 I-0.323 J0.887 F30000.000
G1 X9.056 Y10.033 Z8.500 F24000.000
G2 X9.677 Y10.887 Z8.500 I0.944 J-0.033 F30000.000
G2 X10.887 Y10.323 Z8.500 I0.323 J-0.887 F30000.000
G2 X10.323 Y9.113 Z8.500 I-0.887 J-0.323 F30000.000
G2 X9.056 Y10.033 Z8.500 I-0.323 J0.887 F30000.000
G1 X9.056 Y10.033 Z8.000 F24000.000
G2 X9.677 Y10.887 Z8.000 I0.944 J-0.033 F30000.000
G2 X10.887 Y10.323 Z8.000 I0.323 J-0.887 F30000.000
G2 X10.323 Y9.113 Z8.000 I-0.887 J-0.323 F30000.000
G2 X9.056 Y10.033 Z8.000 I-0.323 J0.887 F30000.000
G1 X9.056 Y10.033 Z7.500 F24000.000
G2 X9.677 Y10.887 Z7.500 I0.944 J-0.033 F30000.000
G2 X10.887 Y10.323 Z7.500 I0.323 J-0.887 F30000.000
G2 X10.323 Y9.113 Z7.500 I-0.887 J-0.323 F30000.000
G2 X9.056 Y10.033 Z7.500 I-0.323 J0.887 F30000.000
G1 X9.056 Y10.033 Z7.000 F24000.000
G2 X9.677 Y10.887 Z7.000 I0.944 J-0.033 F30000.000
G2 X10.887 Y10.323 Z7.000 I0.323 J-0.887 F30000.000
G2 X10.323 Y9.113 Z7.000 I-0.887 J-0.323 F30000.000
G2 X9.056 Y10.033 Z7.000 I-0.323 J0.887 F30000.000
G1 X9.056 Y10.033 Z6.500 F24000.000
G2 X9.677 Y10.887 Z6.500 I0.944 J-0.033 F30000.000
G2 X10.887 Y10.323 Z6.500 I0.323 J-0.887 F30000.000
G2 X10.323 Y9.113 Z6.500 I-0.887 J-0.323 F30000.000
G2 X9.056 Y10.033 Z6.500 I-0.323 J0.887 F30000.000
G1 X9.056 Y10.033 Z6.000 F24000.000
G2 X9.677 Y10.887 Z6.000 I0.944 J-0.033 F30000.000
G2 X10.887 Y10.323 Z6.000 I0.323 J-0.887 F30000.000
G2 X10.323 Y9.113 Z6.000 I-0.887 J-0.323 F30000.000
G2 X9.056 Y10.033 Z6.000 I-0.323 J0.887 F30000.000
G1 X9.056 Y10.033 Z5.500 F24000.000
G2 X9.677 Y10.887 Z5.500 I0.944 J-0.033 F30000.000
G2 X10.887 Y10.323 Z5.500 I0.323 J-0.887 F30000.000
G2 X10.323 Y9.113 Z5.500 I-0.887 J-0.323 F30000.000
G2 X9.056 Y10.033 Z5.500 I-0.323 J0.887 F30000.000
G1 X9.056 Y10.033 Z5.000 F24000.000
G2 X9.677 Y10.887 Z5.000 I0.944 J-0.033 F30000.000
G2 X10.887 Y10.323 Z5.000 I0.323 J-0.887 F30000.000
G2 X10.323 Y9.113 Z5.000 I-0.887 J-0.323 F30000.000
G2 X9.056 Y10.033 Z5.000 I-0.323 J0.887 F30000.000
G1 X9.056 Y10.033 Z4.500 F24000.000
G2 X9.677 Y10.887 Z4.500 I0.944 J-0.033 F30000.000
G2 X10.887 Y10.323 Z4.500 I0.323 J-0.887 F30000.000
G2 X10.323 Y9.113 Z4.500 I-0.887 J-0.323 F30000.000
G2 X9.056 Y10.033 Z4.500 I-0.323 J0.887 F30000.000
G1 X9.056 Y10.033 Z4.000 F24000.000
G2 X9.677 Y10.887 Z4.000 I0.944 J-0.033 F30000.000
G2 X10.887 Y10.323 Z4.000 I0.323 J-0.887 F30000.000
G2 X10.323 Y9.113 Z4.000 I-0.887 J-0.323 F30000.000
G2 X9.056 Y10.033 Z4.000 I-0.323 J0.887 F30000.000
G1 X9.056 Y10.033 Z3.500 F24000.000
G2 X9.677 Y10.887 Z3.500 I0.944 J-0.033 F30000.000
G2 X10.887 Y10.323 Z3.500 I0.323 J-0.887 F30000.000
G2 X10.323 Y9.113 Z3.500 I-0.887 J-0.323 F30000.000
G2 X9.056 Y10.033 Z3.500 I-0.323 J0.887 F30000.000
G1 X9.056 Y10.033 Z3.000 F24000.000
G2 X9.677 Y10.887 Z3.000 I0.944 J-0.033 F30000.000
G2 X10.887 Y10.323 Z3.000 I0.323 J-0.887 F30000.000
G2 X10.323 Y9.113 Z3.000 I-0.887 J-0.323 F30000.000
G2 X9.056 Y10.033 Z3.000 I-0.323 J0.887 F30000.000
G1 X9.056 Y10.033 Z2.500 F24000.000
G2 X9.677 Y10.887 Z2.500 I0.944 J-0.033 F30000.000
G2 X10.887 Y10.323 Z2.500 I0.323 J-0.887 F30000.000
G2 X10.323 Y9.113 Z2.500 I-0.887 J-0.323 F30000.000
G2 X9.056 Y10.033 Z2.500 I-0.323 J0.887 F30000.000
G1 X9.056 Y10.033 Z2.000 F24000.000
G2 X9.677 Y10.887 Z2.000 I0.944 J-0.033 F30000.000
G2 X10.887 Y10.323 Z2.000 I0.323 J-0.887 F30000.000
G2 X10.323 Y9.113 Z2.000 I-0.887 J-0.323 F30000.000
G2 X9.056 Y10.033 Z2.000 I-0.323 J0.887 F30000.000
G1 X9.056 Y10.033 Z1.500 F24000.000
G2 X9.677 Y10.887 Z1.500 I0.944 J-0.033 F30000.000
G2 X10.887 Y10.323 Z1.500 I0.323 J-0.887 F30000.000
G2 X10.323 Y9.113 Z1.500 I-0.887 J-0.323 F30000.000
G2 X9.056 Y10.033 Z1.500 I-0.323 J0.887 F30000.000
G1 X9.056 Y10.033 Z1.000 F24000.000
G2 X9.677 Y10.887 Z1.000 I0.944 J-0.033 F30000.000
G2 X10.887 Y10.323 Z1.000 I0.323 J-0.887 F30000.000
G2 X10.323 Y9.113 Z1.000 I-0.887 J-0.323 F30000.000
G2 X9.056 Y10.033 Z1.000 I-0.323 J0.887 F30000.000
G1 X9.056 Y10.033 Z0.500 F24000.000
G2 X9.677 Y10.887 Z0.500 I0.944 J-0.033 F30000.000
G2 X10.887 Y10.323 Z0.500 I0.323 J-0.887 F30000.000
G2 X10.323 Y9.113 Z0.500 I-0.887 J-0.323 F30000.000
G2 X9.056 Y10.033 Z0.500 I-0.323 J0.887 F30000.000
G1 X9.056 Y10.033 Z0.000 F24000.000
G2 X9.677 Y10.887 Z0.000 I0.944 J-0.033 F30000.000
G2 X10.887 Y10.323 Z0.000 I0.323 J-0.887 F30000.000
G2 X10.323 Y9.113 Z0.000 I-0.887 J-0.323 F30000.000
G2 X9.056 Y10.033 Z0.000 I-0.323 J0.887 F30000.000
G1 X9.056 Y10.033 Z-0.250 F24000.000
G2 X9.677 Y10.887 Z-0.250 I0.944 J-0.033 F30000.000
G2 X10.887 Y10.323 Z-0.250 I0.323 J-0.887 F30000.000
G2 X10.323 Y9.113 Z-0.250 I-0.887 J-0.323 F30000.000
G2 X9.056 Y10.033 Z-0.250 I-0.323 J0.887 F30000.000
G0 Z20.000
G0 Z20.000
(finish operation: Holes)
(begin operation: DressupTag)
(machine: not set, mm/min)
G0 Z20.000
G0 X17.361 Y33.362 Z20.000
G0 X17.361 Y33.362 Z18.000
G1 X17.361 Y33.362 Z12.500 F24000.000
G3 X14.500 Y34.550 Z12.500 I-2.867 J-2.865 F30000.000
G1 X-14.635 Y34.544 Z12.500 F30000.000
G3 X-18.550 Y30.500 Z12.500 I0.138 J-4.051 F30000.000
G1 X-18.544 Y2.365 Z12.500 F30000.000
G3 X-14.500 Y-1.550 Z12.500 I4.051 J0.138 F30000.000
G1 X14.635 Y-1.544 Z12.500 F30000.000
G3 X18.550 Y2.500 Z12.500 I-0.138 J4.051 F30000.000
G1 X18.544 Y30.635 Z12.500 F30000.000
G3 X17.361 Y33.362 Z12.500 I-4.051 J-0.138 F30000.000
G1 X17.361 Y33.362 Z12.000 F24000.000
G3 X14.500 Y34.550 Z12.000 I-2.867 J-2.865 F30000.000
G1 X-14.635 Y34.544 Z12.000 F30000.000
G3 X-18.550 Y30.500 Z12.000 I0.138 J-4.051 F30000.000
G1 X-18.544 Y2.365 Z12.000 F30000.000
G3 X-14.500 Y-1.550 Z12.000 I4.051 J0.138 F30000.000
G1 X14.635 Y-1.544 Z12.000 F30000.000
G3 X18.550 Y2.500 Z12.000 I-0.138 J4.051 F30000.000
G1 X18.544 Y30.635 Z12.000 F30000.000
G3 X17.361 Y33.362 Z12.000 I-4.051 J-0.138 F30000.000
G1 X17.361 Y33.362 Z11.500 F24000.000
G3 X14.500 Y34.550 Z11.500 I-2.867 J-2.865 F30000.000
G1 X-14.635 Y34.544 Z11.500 F30000.000
G3 X-18.550 Y30.500 Z11.500 I0.138 J-4.051 F30000.000
G1 X-18.544 Y2.365 Z11.500 F30000.000
G3 X-14.500 Y-1.550 Z11.500 I4.051 J0.138 F30000.000
G1 X14.635 Y-1.544 Z11.500 F30000.000
G3 X18.550 Y2.500 Z11.500 I-0.138 J4.051 F30000.000
G1 X18.544 Y30.635 Z11.500 F30000.000
G3 X17.361 Y33.362 Z11.500 I-4.051 J-0.138 F30000.000
G1 X17.361 Y33.362 Z11.000 F24000.000
G3 X14.500 Y34.550 Z11.000 I-2.867 J-2.865 F30000.000
G1 X-14.635 Y34.544 Z11.000 F30000.000
G3 X-18.550 Y30.500 Z11.000 I0.138 J-4.051 F30000.000
G1 X-18.544 Y2.365 Z11.000 F30000.000
G3 X-14.500 Y-1.550 Z11.000 I4.051 J0.138 F30000.000
G1 X14.635 Y-1.544 Z11.000 F30000.000
G3 X18.550 Y2.500 Z11.000 I-0.138 J4.051 F30000.000
G1 X18.544 Y30.635 Z11.000 F30000.000
G3 X17.361 Y33.362 Z11.000 I-4.051 J-0.138 F30000.000
G1 X17.361 Y33.362 Z10.500 F24000.000
G3 X14.500 Y34.550 Z10.500 I-2.867 J-2.865 F30000.000
G1 X-14.635 Y34.544 Z10.500 F30000.000
G3 X-18.550 Y30.500 Z10.500 I0.138 J-4.051 F30000.000
G1 X-18.544 Y2.365 Z10.500 F30000.000
G3 X-14.500 Y-1.550 Z10.500 I4.051 J0.138 F30000.000
G1 X14.635 Y-1.544 Z10.500 F30000.000
G3 X18.550 Y2.500 Z10.500 I-0.138 J4.051 F30000.000
G1 X18.544 Y30.635 Z10.500 F30000.000
G3 X17.361 Y33.362 Z10.500 I-4.051 J-0.138 F30000.000
G1 X17.361 Y33.362 Z10.000 F24000.000
G3 X14.500 Y34.550 Z10.000 I-2.867 J-2.865 F30000.000
G1 X-14.635 Y34.544 Z10.000 F30000.000
G3 X-18.550 Y30.500 Z10.000 I0.138 J-4.051 F30000.000
G1 X-18.544 Y2.365 Z10.000 F30000.000
G3 X-14.500 Y-1.550 Z10.000 I4.051 J0.138 F30000.000
G1 X14.635 Y-1.544 Z10.000 F30000.000
G3 X18.550 Y2.500 Z10.000 I-0.138 J4.051 F30000.000
G1 X18.544 Y30.635 Z10.000 F30000.000
G3 X17.361 Y33.362 Z10.000 I-4.051 J-0.138 F30000.000
G1 X17.361 Y33.362 Z9.500 F24000.000
G3 X14.500 Y34.550 Z9.500 I-2.867 J-2.865 F30000.000
G1 X-14.635 Y34.544 Z9.500 F30000.000
G3 X-18.550 Y30.500 Z9.500 I0.138 J-4.051 F30000.000
G1 X-18.544 Y2.365 Z9.500 F30000.000
G3 X-14.500 Y-1.550 Z9.500 I4.051 J0.138 F30000.000
G1 X14.635 Y-1.544 Z9.500 F30000.000
G3 X18.550 Y2.500 Z9.500 I-0.138 J4.051 F30000.000
G1 X18.544 Y30.635 Z9.500 F30000.000
G3 X17.361 Y33.362 Z9.500 I-4.051 J-0.138 F30000.000
G1 X17.361 Y33.362 Z9.000 F24000.000
G3 X14.500 Y34.550 Z9.000 I-2.867 J-2.865 F30000.000
G1 X-14.635 Y34.544 Z9.000 F30000.000
G3 X-18.550 Y30.500 Z9.000 I0.138 J-4.051 F30000.000
G1 X-18.544 Y2.365 Z9.000 F30000.000
G3 X-14.500 Y-1.550 Z9.000 I4.051 J0.138 F30000.000
G1 X14.635 Y-1.544 Z9.000 F30000.000
G3 X18.550 Y2.500 Z9.000 I-0.138 J4.051 F30000.000
G1 X18.544 Y30.635 Z9.000 F30000.000
G3 X17.361 Y33.362 Z9.000 I-4.051 J-0.138 F30000.000
G1 X17.361 Y33.362 Z8.500 F24000.000
G3 X14.500 Y34.550 Z8.500 I-2.867 J-2.865 F30000.000
G1 X-14.635 Y34.544 Z8.500 F30000.000
G3 X-18.550 Y30.500 Z8.500 I0.138 J-4.051 F30000.000
G1 X-18.544 Y2.365 Z8.500 F30000.000
G3 X-14.500 Y-1.550 Z8.500 I4.051 J0.138 F30000.000
G1 X14.635 Y-1.544 Z8.500 F30000.000
G3 X18.550 Y2.500 Z8.500 I-0.138 J4.051 F30000.000
G1 X18.544 Y30.635 Z8.500 F30000.000
G3 X17.361 Y33.362 Z8.500 I-4.051 J-0.138 F30000.000
G1 X17.361 Y33.362 Z8.000 F24000.000
G3 X14.500 Y34.550 Z8.000 I-2.867 J-2.865 F30000.000
G1 X-14.635 Y34.544 Z8.000 F30000.000
G3 X-18.550 Y30.500 Z8.000 I0.138 J-4.051 F30000.000
G1 X-18.544 Y2.365 Z8.000 F30000.000
G3 X-14.500 Y-1.550 Z8.000 I4.051 J0.138 F30000.000
G1 X14.635 Y-1.544 Z8.000 F30000.000
G3 X18.550 Y2.500 Z8.000 I-0.138 J4.051 F30000.000
G1 X18.544 Y30.635 Z8.000 F30000.000
G3 X17.361 Y33.362 Z8.000 I-4.051 J-0.138 F30000.000
G1 X17.361 Y33.362 Z7.500 F24000.000
G3 X14.500 Y34.550 Z7.500 I-2.867 J-2.865 F30000.000
G1 X-14.635 Y34.544 Z7.500 F30000.000
G3 X-18.550 Y30.500 Z7.500 I0.138 J-4.051 F30000.000
G1 X-18.544 Y2.365 Z7.500 F30000.000
G3 X-14.500 Y-1.550 Z7.500 I4.051 J0.138 F30000.000
G1 X14.635 Y-1.544 Z7.500 F30000.000
G3 X18.550 Y2.500 Z7.500 I-0.138 J4.051 F30000.000
G1 X18.544 Y30.635 Z7.500 F30000.000
G3 X17.361 Y33.362 Z7.500 I-4.051 J-0.138 F30000.000
G1 X17.361 Y33.362 Z7.000 F24000.000
G3 X14.500 Y34.550 Z7.000 I-2.867 J-2.865 F30000.000
G1 X-14.635 Y34.544 Z7.000 F30000.000
G3 X-18.550 Y30.500 Z7.000 I0.138 J-4.051 F30000.000
G1 X-18.544 Y2.365 Z7.000 F30000.000
G3 X-14.500 Y-1.550 Z7.000 I4.051 J0.138 F30000.000
G1 X14.635 Y-1.544 Z7.000 F30000.000
G3 X18.550 Y2.500 Z7.000 I-0.138 J4.051 F30000.000
G1 X18.544 Y30.635 Z7.000 F30000.000
G3 X17.361 Y33.362 Z7.000 I-4.051 J-0.138 F30000.000
G1 X17.361 Y33.362 Z6.500 F24000.000
G3 X14.500 Y34.550 Z6.500 I-2.867 J-2.865 F30000.000
G1 X-14.635 Y34.544 Z6.500 F30000.000
G3 X-18.550 Y30.500 Z6.500 I0.138 J-4.051 F30000.000
G1 X-18.544 Y2.365 Z6.500 F30000.000
G3 X-14.500 Y-1.550 Z6.500 I4.051 J0.138 F30000.000
G1 X14.635 Y-1.544 Z6.500 F30000.000
G3 X18.550 Y2.500 Z6.500 I-0.138 J4.051 F30000.000
G1 X18.544 Y30.635 Z6.500 F30000.000
G3 X17.361 Y33.362 Z6.500 I-4.051 J-0.138 F30000.000
G1 X17.361 Y33.362 Z6.000 F24000.000
G3 X14.500 Y34.550 Z6.000 I-2.867 J-2.865 F30000.000
G1 X-14.635 Y34.544 Z6.000 F30000.000
G3 X-18.550 Y30.500 Z6.000 I0.138 J-4.051 F30000.000
G1 X-18.544 Y2.365 Z6.000 F30000.000
G3 X-14.500 Y-1.550 Z6.000 I4.051 J0.138 F30000.000
G1 X14.635 Y-1.544 Z6.000 F30000.000
G3 X18.550 Y2.500 Z6.000 I-0.138 J4.051 F30000.000
G1 X18.544 Y30.635 Z6.000 F30000.000
G3 X17.361 Y33.362 Z6.000 I-4.051 J-0.138 F30000.000
G1 X17.361 Y33.362 Z5.500 F24000.000
G3 X14.500 Y34.550 Z5.500 I-2.867 J-2.865 F30000.000
G1 X-14.635 Y34.544 Z5.500 F30000.000
G3 X-18.550 Y30.500 Z5.500 I0.138 J-4.051 F30000.000
G1 X-18.544 Y2.365 Z5.500 F30000.000
G3 X-14.500 Y-1.550 Z5.500 I4.051 J0.138 F30000.000
G1 X14.635 Y-1.544 Z5.500 F30000.000
G3 X18.550 Y2.500 Z5.500 I-0.138 J4.051 F30000.000
G1 X18.544 Y30.635 Z5.500 F30000.000
G3 X17.361 Y33.362 Z5.500 I-4.051 J-0.138 F30000.000
G1 X17.361 Y33.362 Z5.000 F24000.000
G3 X14.500 Y34.550 Z5.000 I-2.867 J-2.865 F30000.000
G1 X-14.635 Y34.544 Z5.000 F30000.000
G3 X-18.550 Y30.500 Z5.000 I0.138 J-4.051 F30000.000
G1 X-18.544 Y2.365 Z5.000 F30000.000
G3 X-14.500 Y-1.550 Z5.000 I4.051 J0.138 F30000.000
G1 X14.635 Y-1.544 Z5.000 F30000.000
G3 X18.550 Y2.500 Z5.000 I-0.138 J4.051 F30000.000
G1 X18.544 Y30.635 Z5.000 F30000.000
G3 X17.361 Y33.362 Z5.000 I-4.051 J-0.138 F30000.000
G1 X17.361 Y33.362 Z4.500 F24000.000
G3 X14.500 Y34.550 Z4.500 I-2.867 J-2.865 F30000.000
G1 X-14.635 Y34.544 Z4.500 F30000.000
G3 X-18.550 Y30.500 Z4.500 I0.138 J-4.051 F30000.000
G1 X-18.544 Y2.365 Z4.500 F30000.000
G3 X-14.500 Y-1.550 Z4.500 I4.051 J0.138 F30000.000
G1 X14.635 Y-1.544 Z4.500 F30000.000
G3 X18.550 Y2.500 Z4.500 I-0.138 J4.051 F30000.000
G1 X18.544 Y30.635 Z4.500 F30000.000
G3 X17.361 Y33.362 Z4.500 I-4.051 J-0.138 F30000.000
G1 X17.361 Y33.362 Z4.000 F24000.000
G3 X14.500 Y34.550 Z4.000 I-2.867 J-2.865 F30000.000
G1 X-14.635 Y34.544 Z4.000 F30000.000
G3 X-18.550 Y30.500 Z4.000 I0.138 J-4.051 F30000.000
G1 X-18.544 Y2.365 Z4.000 F30000.000
G3 X-14.500 Y-1.550 Z4.000 I4.051 J0.138 F30000.000
G1 X14.635 Y-1.544 Z4.000 F30000.000
G3 X18.550 Y2.500 Z4.000 I-0.138 J4.051 F30000.000
G1 X18.544 Y30.635 Z4.000 F30000.000
G3 X17.361 Y33.362 Z4.000 I-4.051 J-0.138 F30000.000
G1 X17.361 Y33.362 Z3.500 F24000.000
G3 X14.500 Y34.550 Z3.500 I-2.867 J-2.865 F30000.000
G1 X-14.635 Y34.544 Z3.500 F30000.000
G3 X-18.550 Y30.500 Z3.500 I0.138 J-4.051 F30000.000
G1 X-18.544 Y2.365 Z3.500 F30000.000
G3 X-14.500 Y-1.550 Z3.500 I4.051 J0.138 F30000.000
G1 X14.635 Y-1.544 Z3.500 F30000.000
G3 X18.550 Y2.500 Z3.500 I-0.138 J4.051 F30000.000
G1 X18.544 Y30.635 Z3.500 F30000.000
G3 X17.361 Y33.362 Z3.500 I-4.051 J-0.138 F30000.000
G1 X17.361 Y33.362 Z3.000 F24000.000
G3 X14.500 Y34.550 Z3.000 I-2.867 J-2.865 F30000.000
G1 X-14.635 Y34.544 Z3.000 F30000.000
G3 X-18.550 Y30.500 Z3.000 I0.138 J-4.051 F30000.000
G1 X-18.544 Y2.365 Z3.000 F30000.000
G3 X-14.500 Y-1.550 Z3.000 I4.051 J0.138 F30000.000
G1 X14.635 Y-1.544 Z3.000 F30000.000
G3 X18.550 Y2.500 Z3.000 I-0.138 J4.051 F30000.000
G1 X18.544 Y30.635 Z3.000 F30000.000
G3 X17.361 Y33.362 Z3.000 I-4.051 J-0.138 F30000.000
G1 X17.361 Y33.362 Z2.500 F24000.000
G3 X14.500 Y34.550 Z2.500 I-2.867 J-2.865 F30000.000
G1 X0.185 Y34.547 Z2.500 F30000.000
G1 X-0.068 Y34.547 Z2.755 F26980.997
G1 X-0.320 Y34.547 Z2.500 F26980.997
G1 X-14.635 Y34.544 Z2.500 F30000.000
G3 X-18.550 Y30.500 Z2.500 I0.138 J-4.051 F30000.000
G1 X-18.547 Y16.685 Z2.500 F30000.000
G1 X-18.547 Y16.432 Z2.755 F26980.997
G1 X-18.547 Y16.180 Z2.500 F26980.997
G1 X-18.544 Y2.365 Z2.500 F30000.000
G3 X-14.500 Y-1.550 Z2.500 I4.051 J0.138 F30000.000
G1 X-0.185 Y-1.547 Z2.500 F30000.000
G1 X0.068 Y-1.547 Z2.755 F26980.997
G1 X0.320 Y-1.547 Z2.500 F26980.997
G1 X14.635 Y-1.544 Z2.500 F30000.000
G3 X18.550 Y2.500 Z2.500 I-0.138 J4.051 F30000.000
G1 X18.547 Y16.315 Z2.500 F30000.000
G1 X18.547 Y16.568 Z2.755 F26980.997
G1 X18.547 Y16.820 Z2.500 F26980.997
G1 X18.544 Y30.635 Z2.500 F30000.000
G3 X17.361 Y33.362 Z2.500 I-4.051 J-0.138 F30000.000
G1 X17.361 Y33.362 Z2.000 F24000.000
G3 X14.500 Y34.550 Z2.000 I-2.867 J-2.865 F30000.000
G1 X0.680 Y34.547 Z2.000 F30000.000
G1 X-0.068 Y34.547 Z2.755 F26980.997
G1 X-0.815 Y34.547 Z2.000 F26980.997
G1 X-14.635 Y34.544 Z2.000 F30000.000
G3 X-18.550 Y30.500 Z2.000 I0.138 J-4.051 F30000.000
G1 X-18.547 Y17.180 Z2.000 F30000.000
G1 X-18.547 Y16.432 Z2.755 F26980.997
G1 X-18.547 Y15.685 Z2.000 F26980.997
G1 X-18.544 Y2.365 Z2.000 F30000.000
G3 X-14.500 Y-1.550 Z2.000 I4.051 J0.138 F30000.000
G1 X-0.680 Y-1.547 Z2.000 F30000.000
G1 X0.068 Y-1.547 Z2.755 F26980.997
G1 X0.815 Y-1.547 Z2.000 F26980.997
G1 X14.635 Y-1.544 Z2.000 F30000.000
G3 X18.550 Y2.500 Z2.000 I-0.138 J4.051 F30000.000
G1 X18.547 Y15.820 Z2.000 F30000.000
G1 X18.547 Y16.568 Z2.755 F26980.997
G1 X18.547 Y17.315 Z2.000 F26980.997
G1 X18.544 Y30.635 Z2.000 F30000.000
G3 X17.361 Y33.362 Z2.000 I-4.051 J-0.138 F30000.000
G1 X17.361 Y33.362 Z1.500 F24000.000
G3 X14.500 Y34.550 Z1.500 I-2.867 J-2.865 F30000.000
G1 X1.175 Y34.547 Z1.500 F30000.000
G1 X-0.068 Y34.547 Z2.755 F26980.997
G1 X-1.310 Y34.547 Z1.500 F26980.997
G1 X-14.635 Y34.544 Z1.500 F30000.000
G3 X-18.550 Y30.500 Z1.500 I0.138 J-4.051 F30000.000
G1 X-18.547 Y17.675 Z1.500 F30000.000
G1 X-18.547 Y16.432 Z2.755 F26980.997
G1 X-18.547 Y15.190 Z1.500 F26980.997
G1 X-18.544 Y2.365 Z1.500 F30000.000
G3 X-14.500 Y-1.550 Z1.500 I4.051 J0.138 F30000.000
G1 X-1.175 Y-1.547 Z1.500 F30000.000
G1 X0.068 Y-1.547 Z2.755 F26980.997
G1 X1.310 Y-1.547 Z1.500 F26980.997
G1 X14.635 Y-1.544 Z1.500 F30000.000
G3 X18.550 Y2.500 Z1.500 I-0.138 J4.051 F30000.000
G1 X18.547 Y15.325 Z1.500 F30000.000
G1 X18.547 Y16.568 Z2.755 F26980.997
G1 X18.547 Y17.810 Z1.500 F26980.997
G1 X18.544 Y30.635 Z1.500 F30000.000
G3 X17.361 Y33.362 Z1.500 I-4.051 J-0.138 F30000.000
G1 X17.361 Y33.362 Z1.000 F24000.000
G3 X14.500 Y34.550 Z1.000 I-2.867 J-2.865 F30000.000
G1 X1.670 Y34.547 Z1.000 F30000.000
G1 X-0.068 Y34.547 Z2.755 F26980.997
G1 X-1.805 Y34.547 Z1.000 F26980.997
G1 X-14.635 Y34.544 Z1.000 F30000.000
G3 X-18.550 Y30.500 Z1.000 I0.138 J-4.051 F30000.000
G1 X-18.547 Y18.170 Z1.000 F30000.000
G1 X-18.547 Y16.432 Z2.755 F26980.997
G1 X-18.547 Y14.695 Z1.000 F26980.997
G1 X-18.544 Y2.365 Z1.000 F30000.000
G3 X-14.500 Y-1.550 Z1.000 I4.051 J0.138 F30000.000
G1 X-1.670 Y-1.547 Z1.000 F30000.000
G1 X0.068 Y-1.547 Z2.755 F26980.997
G1 X1.805 Y-1.547 Z1.000 F26980.997
G1 X14.635 Y-1.544 Z1.000 F30000.000
G3 X18.550 Y2.500 Z1.000 I-0.138 J4.051 F30000.000
G1 X18.547 Y14.830 Z1.000 F30000.000
G1 X18.547 Y16.568 Z2.755 F26980.997
G1 X18.547 Y18.305 Z1.000 F26980.997
G1 X18.544 Y30.635 Z1.000 F30000.000
G3 X17.361 Y33.362 Z1.000 I-4.051 J-0.138 F30000.000
G1 X17.361 Y33.362 Z0.500 F24000.000
G3 X14.500 Y34.550 Z0.500 I-2.867 J-2.865 F30000.000
G1 X2.165 Y34.548 Z0.500 F30000.000
G1 X-0.068 Y34.547 Z2.755 F26980.997
G1 X-2.300 Y34.547 Z0.500 F26980.997
G1 X-14.635 Y34.544 Z0.500 F30000.000
G3 X-18.550 Y30.500 Z0.500 I0.138 J-4.051 F30000.000
G1 X-18.548 Y18.665 Z0.500 F30000.000
G1 X-18.547 Y16.432 Z2.755 F26980.997
G1 X-18.547 Y14.200 Z0.500 F26980.997
G1 X-18.544 Y2.365 Z0.500 F30000.000
G3 X-14.500 Y-1.550 Z0.500 I4.051 J0.138 F30000.000
G1 X-2.165 Y-1.548 Z0.500 F30000.000
G1 X0.068 Y-1.547 Z2.755 F26980.997
G1 X2.300 Y-1.547 Z0.500 F26980.997
G1 X14.635 Y-1.544 Z0.500 F30000.000
G3 X18.550 Y2.500 Z0.500 I-0.138 J4.051 F30000.000
G1 X18.548 Y14.335 Z0.500 F30000.000
G1 X18.547 Y16.568 Z2.755 F26980.997
G1 X18.547 Y18.800 Z0.500 F26980.997
G1 X18.544 Y30.635 Z0.500 F30000.000
G3 X17.361 Y33.362 Z0.500 I-4.051 J-0.138 F30000.000
G1 X17.361 Y33.362 Z0.000 F24000.000
G3 X14.500 Y34.550 Z0.000 I-2.867 J-2.865 F30000.000
G1 X2.660 Y34.548 Z0.000 F30000.000
G1 X-0.068 Y34.547 Z2.755 F26980.997
G1 X-2.795 Y34.546 Z0.000 F26980.997
G1 X-14.635 Y34.544 Z0.000 F30000.000
G3 X-18.550 Y30.500 Z0.000 I0.138 J-4.051 F30000.000
G1 X-18.548 Y19.160 Z0.000 F30000.000
G1 X-18.547 Y16.432 Z2.755 F26980.997
G1 X-18.546 Y13.705 Z-0.000 F26980.997
G1 X-18.544 Y2.365 Z0.000 F30000.000
G3 X-14.500 Y-1.550 Z0.000 I4.051 J0.138 F30000.000
G1 X-2.660 Y-1.548 Z0.000 F30000.000
G1 X0.068 Y-1.547 Z2.755 F26980.997
G1 X2.795 Y-1.546 Z0.000 F26980.997
G1 X14.635 Y-1.544 Z0.000 F30000.000
G3 X18.550 Y2.500 Z0.000 I-0.138 J4.051 F30000.000
G1 X18.548 Y13.840 Z0.000 F30000.000
G1 X18.547 Y16.568 Z2.755 F26980.997
G1 X18.546 Y19.295 Z0.000 F26980.997
G1 X18.544 Y30.635 Z0.000 F30000.000
G3 X17.361 Y33.362 Z0.000 I-4.051 J-0.138 F30000.000
G1 X17.361 Y33.362 Z-0.250 F24000.000
G3 X14.500 Y34.550 Z-0.250 I-2.867 J-2.865 F30000.000
G1 X2.907 Y34.548 Z-0.250 F30000.000
G1 X-0.068 Y34.547 Z2.755 F26980.997
G1 X-3.042 Y34.546 Z-0.250 F26980.997
G1 X-14.635 Y34.544 Z-0.250 F30000.000
G3 X-18.550 Y30.500 Z-0.250 I0.138 J-4.051 F30000.000
G1 X-18.548 Y19.407 Z-0.250 F30000.000
G1 X-18.547 Y16.432 Z2.755 F26980.997
G1 X-18.546 Y13.458 Z-0.250 F26980.997
G1 X-18.544 Y2.365 Z-0.250 F30000.000
G3 X-14.500 Y-1.550 Z-0.250 I4.051 J0.138 F30000.000
G1 X-2.907 Y-1.548 Z-0.250 F30000.000
G1 X0.068 Y-1.547 Z2.755 F26980.997
G1 X3.042 Y-1.546 Z-0.250 F26980.997
G1 X14.635 Y-1.544 Z-0.250 F30000.000
G3 X18.550 Y2.500 Z-0.250 I-0.138 J4.051 F30000.000
G1 X18.548 Y13.593 Z-0.250 F30000.000
G1 X18.547 Y16.568 Z2.755 F26980.997
G1 X18.546 Y19.542 Z-0.250 F26980.997
G1 X18.544 Y30.635 Z-0.250 F30000.000
G3 X17.361 Y33.362 Z-0.250 I-4.051 J-0.138 F30000.000
G0 X17.361 Y33.362 Z20.000
(finish operation: DressupTag)
(begin postamble)
M05 M09
G17 G90 G80 G40
M30
