(Exported by FreeCAD)
(Post Processor: KineticNCBeamicon2_post)
(Output Time:2024-09-03 17:19:24.391969)
(begin preamble)
%
G17 G21 G40 G49 G80 G90
M08
G21
(begin operation: Fixture)
(machine: not set, mm/min)
G54
(finish operation: Fixture)
(begin operation: 3.002)
(machine: not set, mm/min)
(3.002)
M05
M09M6 T1
M3 S25000
(finish operation: 3.002)
(begin operation: TopHoles)
(machine: not set, mm/min)
(Profile002)
(Compensated Tool Path. Diameter: 3.1)
G0 Z20.000
G0 X7.388 Y7.388
G0 Z18.000
G1 X7.388 Y7.388 Z12.500 F24000.000
G2 X1.239 Y-10.375 Z12.500 I-7.388 J-7.388 F30000.000
G2 X-10.375 Y-1.239 Z12.500 I-1.239 J10.375 F30000.000
G2 X-1.239 Y10.375 Z12.500 I10.375 J1.239 F30000.000
G2 X7.388 Y7.388 Z12.500 I1.239 J-10.375 F30000.000
G1 X7.388 Y7.388 Z12.000 F24000.000
G2 X1.239 Y-10.375 Z12.000 I-7.388 J-7.388 F30000.000
G2 X-10.375 Y-1.239 Z12.000 I-1.239 J10.375 F30000.000
G2 X-1.239 Y10.375 Z12.000 I10.375 J1.239 F30000.000
G2 X7.388 Y7.388 Z12.000 I1.239 J-10.375 F30000.000
G1 X7.388 Y7.388 Z11.500 F24000.000
G2 X1.239 Y-10.375 Z11.500 I-7.388 J-7.388 F30000.000
G2 X-10.375 Y-1.239 Z11.500 I-1.239 J10.375 F30000.000
G2 X-1.239 Y10.375 Z11.500 I10.375 J1.239 F30000.000
G2 X7.388 Y7.388 Z11.500 I1.239 J-10.375 F30000.000
G1 X7.388 Y7.388 Z11.000 F24000.000
G2 X1.239 Y-10.375 Z11.000 I-7.388 J-7.388 F30000.000
G2 X-10.375 Y-1.239 Z11.000 I-1.239 J10.375 F30000.000
G2 X-1.239 Y10.375 Z11.000 I10.375 J1.239 F30000.000
G2 X7.388 Y7.388 Z11.000 I1.239 J-10.375 F30000.000
G1 X7.388 Y7.388 Z10.500 F24000.000
G2 X1.239 Y-10.375 Z10.500 I-7.388 J-7.388 F30000.000
G2 X-10.375 Y-1.239 Z10.500 I-1.239 J10.375 F30000.000
G2 X-1.239 Y10.375 Z10.500 I10.375 J1.239 F30000.000
G2 X7.388 Y7.388 Z10.500 I1.239 J-10.375 F30000.000
G1 X7.388 Y7.388 Z10.000 F24000.000
G2 X1.239 Y-10.375 Z10.000 I-7.388 J-7.388 F30000.000
G2 X-10.375 Y-1.239 Z10.000 I-1.239 J10.375 F30000.000
G2 X-1.239 Y10.375 Z10.000 I10.375 J1.239 F30000.000
G2 X7.388 Y7.388 Z10.000 I1.239 J-10.375 F30000.000
G1 X7.388 Y7.388 Z9.500 F24000.000
G2 X1.239 Y-10.375 Z9.500 I-7.388 J-7.388 F30000.000
G2 X-10.375 Y-1.239 Z9.500 I-1.239 J10.375 F30000.000
G2 X-1.239 Y10.375 Z9.500 I10.375 J1.239 F30000.000
G2 X7.388 Y7.388 Z9.500 I1.239 J-10.375 F30000.000
G1 X7.388 Y7.388 Z9.000 F24000.000
G2 X1.239 Y-10.375 Z9.000 I-7.388 J-7.388 F30000.000
G2 X-10.375 Y-1.239 Z9.000 I-1.239 J10.375 F30000.000
G2 X-1.239 Y10.375 Z9.000 I10.375 J1.239 F30000.000
G2 X7.388 Y7.388 Z9.000 I1.239 J-10.375 F30000.000
G1 X7.388 Y7.388 Z8.500 F24000.000
G2 X1.239 Y-10.375 Z8.500 I-7.388 J-7.388 F30000.000
G2 X-10.375 Y-1.239 Z8.500 I-1.239 J10.375 F30000.000
G2 X-1.239 Y10.375 Z8.500 I10.375 J1.239 F30000.000
G2 X7.388 Y7.388 Z8.500 I1.239 J-10.375 F30000.000
G1 X7.388 Y7.388 Z8.000 F24000.000
G2 X1.239 Y-10.375 Z8.000 I-7.388 J-7.388 F30000.000
G2 X-10.375 Y-1.239 Z8.000 I-1.239 J10.375 F30000.000
G2 X-1.239 Y10.375 Z8.000 I10.375 J1.239 F30000.000
G2 X7.388 Y7.388 Z8.000 I1.239 J-10.375 F30000.000
G1 X7.388 Y7.388 Z7.500 F24000.000
G2 X1.239 Y-10.375 Z7.500 I-7.388 J-7.388 F30000.000
G2 X-10.375 Y-1.239 Z7.500 I-1.239 J10.375 F30000.000
G2 X-1.239 Y10.375 Z7.500 I10.375 J1.239 F30000.000
G2 X7.388 Y7.388 Z7.500 I1.239 J-10.375 F30000.000
G1 X7.388 Y7.388 Z7.000 F24000.000
G2 X1.239 Y-10.375 Z7.000 I-7.388 J-7.388 F30000.000
G2 X-10.375 Y-1.239 Z7.000 I-1.239 J10.375 F30000.000
G2 X-1.239 Y10.375 Z7.000 I10.375 J1.239 F30000.000
G2 X7.388 Y7.388 Z7.000 I1.239 J-10.375 F30000.000
G1 X7.388 Y7.388 Z6.500 F24000.000
G2 X1.239 Y-10.375 Z6.500 I-7.388 J-7.388 F30000.000
G2 X-10.375 Y-1.239 Z6.500 I-1.239 J10.375 F30000.000
G2 X-1.239 Y10.375 Z6.500 I10.375 J1.239 F30000.000
G2 X7.388 Y7.388 Z6.500 I1.239 J-10.375 F30000.000
G1 X7.388 Y7.388 Z6.000 F24000.000
G2 X1.239 Y-10.375 Z6.000 I-7.388 J-7.388 F30000.000
G2 X-10.375 Y-1.239 Z6.000 I-1.239 J10.375 F30000.000
G2 X-1.239 Y10.375 Z6.000 I10.375 J1.239 F30000.000
G2 X7.388 Y7.388 Z6.000 I1.239 J-10.375 F30000.000
G1 X7.388 Y7.388 Z5.500 F24000.000
G2 X1.239 Y-10.375 Z5.500 I-7.388 J-7.388 F30000.000
G2 X-10.375 Y-1.239 Z5.500 I-1.239 J10.375 F30000.000
G2 X-1.239 Y10.375 Z5.500 I10.375 J1.239 F30000.000
G2 X7.388 Y7.388 Z5.500 I1.239 J-10.375 F30000.000
G1 X7.388 Y7.388 Z5.000 F24000.000
G2 X1.239 Y-10.375 Z5.000 I-7.388 J-7.388 F30000.000
G2 X-10.375 Y-1.239 Z5.000 I-1.239 J10.375 F30000.000
G2 X-1.239 Y10.375 Z5.000 I10.375 J1.239 F30000.000
G2 X7.388 Y7.388 Z5.000 I1.239 J-10.375 F30000.000
G1 X7.388 Y7.388 Z4.500 F24000.000
G2 X1.239 Y-10.375 Z4.500 I-7.388 J-7.388 F30000.000
G2 X-10.375 Y-1.239 Z4.500 I-1.239 J10.375 F30000.000
G2 X-1.239 Y10.375 Z4.500 I10.375 J1.239 F30000.000
G2 X7.388 Y7.388 Z4.500 I1.239 J-10.375 F30000.000
G1 X7.388 Y7.388 Z4.000 F24000.000
G2 X1.239 Y-10.375 Z4.000 I-7.388 J-7.388 F30000.000
G2 X-10.375 Y-1.239 Z4.000 I-1.239 J10.375 F30000.000
G2 X-1.239 Y10.375 Z4.000 I10.375 J1.239 F30000.000
G2 X7.388 Y7.388 Z4.000 I1.239 J-10.375 F30000.000
G1 X7.388 Y7.388 Z3.500 F24000.000
G2 X1.239 Y-10.375 Z3.500 I-7.388 J-7.388 F30000.000
G2 X-10.375 Y-1.239 Z3.500 I-1.239 J10.375 F30000.000
G2 X-1.239 Y10.375 Z3.500 I10.375 J1.239 F30000.000
G2 X7.388 Y7.388 Z3.500 I1.239 J-10.375 F30000.000
G1 X7.388 Y7.388 Z3.000 F24000.000
G2 X1.239 Y-10.375 Z3.000 I-7.388 J-7.388 F30000.000
G2 X-10.375 Y-1.239 Z3.000 I-1.239 J10.375 F30000.000
G2 X-1.239 Y10.375 Z3.000 I10.375 J1.239 F30000.000
G2 X7.388 Y7.388 Z3.000 I1.239 J-10.375 F30000.000
G1 X7.388 Y7.388 Z2.500 F24000.000
G2 X1.239 Y-10.375 Z2.500 I-7.388 J-7.388 F30000.000
G2 X-10.375 Y-1.239 Z2.500 I-1.239 J10.375 F30000.000
G2 X-1.239 Y10.375 Z2.500 I10.375 J1.239 F30000.000
G2 X7.388 Y7.388 Z2.500 I1.239 J-10.375 F30000.000
G1 X7.388 Y7.388 Z2.000 F24000.000
G2 X1.239 Y-10.375 Z2.000 I-7.388 J-7.388 F30000.000
G2 X-10.375 Y-1.239 Z2.000 I-1.239 J10.375 F30000.000
G2 X-1.239 Y10.375 Z2.000 I10.375 J1.239 F30000.000
G2 X7.388 Y7.388 Z2.000 I1.239 J-10.375 F30000.000
G1 X7.388 Y7.388 Z1.500 F24000.000
G2 X1.239 Y-10.375 Z1.500 I-7.388 J-7.388 F30000.000
G2 X-10.375 Y-1.239 Z1.500 I-1.239 J10.375 F30000.000
G2 X-1.239 Y10.375 Z1.500 I10.375 J1.239 F30000.000
G2 X7.388 Y7.388 Z1.500 I1.239 J-10.375 F30000.000
G1 X7.388 Y7.388 Z1.000 F24000.000
G2 X1.239 Y-10.375 Z1.000 I-7.388 J-7.388 F30000.000
G2 X-10.375 Y-1.239 Z1.000 I-1.239 J10.375 F30000.000
G2 X-1.239 Y10.375 Z1.000 I10.375 J1.239 F30000.000
G2 X7.388 Y7.388 Z1.000 I1.239 J-10.375 F30000.000
G1 X7.388 Y7.388 Z0.500 F24000.000
G2 X1.239 Y-10.375 Z0.500 I-7.388 J-7.388 F30000.000
G2 X-10.375 Y-1.239 Z0.500 I-1.239 J10.375 F30000.000
G2 X-1.239 Y10.375 Z0.500 I10.375 J1.239 F30000.000
G2 X7.388 Y7.388 Z0.500 I1.239 J-10.375 F30000.000
G1 X7.388 Y7.388 Z0.000 F24000.000
G2 X1.239 Y-10.375 Z0.000 I-7.388 J-7.388 F30000.000
G2 X-10.375 Y-1.239 Z0.000 I-1.239 J10.375 F30000.000
G2 X-1.239 Y10.375 Z0.000 I10.375 J1.239 F30000.000
G2 X7.388 Y7.388 Z0.000 I1.239 J-10.375 F30000.000
G1 X7.388 Y7.388 Z-0.250 F24000.000
G2 X1.239 Y-10.375 Z-0.250 I-7.388 J-7.388 F30000.000
G2 X-10.375 Y-1.239 Z-0.250 I-1.239 J10.375 F30000.000
G2 X-1.239 Y10.375 Z-0.250 I10.375 J1.239 F30000.000
G2 X7.388 Y7.388 Z-0.250 I1.239 J-10.375 F30000.000
G0 Z20.000
G0 Z20.000
G0 X7.388 Y7.388
G0 X15.470 Y15.470
G0 X15.470 Y15.470 Z18.000
G1 X15.470 Y15.470 Z12.500 F24000.000
G2 X15.487 Y15.541 Z12.500 I0.030 J0.030 F30000.000
G2 X15.541 Y15.513 Z12.500 I0.013 J-0.041 F30000.000
G2 X15.513 Y15.459 Z12.500 I-0.041 J-0.013 F30000.000
G2 X15.470 Y15.470 Z12.500 I-0.013 J0.041 F30000.000
G1 X15.470 Y15.470 Z12.000 F24000.000
G2 X15.487 Y15.541 Z12.000 I0.030 J0.030 F30000.000
G2 X15.541 Y15.513 Z12.000 I0.013 J-0.041 F30000.000
G2 X15.513 Y15.459 Z12.000 I-0.041 J-0.013 F30000.000
G2 X15.470 Y15.470 Z12.000 I-0.013 J0.041 F30000.000
G1 X15.470 Y15.470 Z11.500 F24000.000
G2 X15.487 Y15.541 Z11.500 I0.030 J0.030 F30000.000
G2 X15.541 Y15.513 Z11.500 I0.013 J-0.041 F30000.000
G2 X15.513 Y15.459 Z11.500 I-0.041 J-0.013 F30000.000
G2 X15.470 Y15.470 Z11.500 I-0.013 J0.041 F30000.000
G1 X15.470 Y15.470 Z11.000 F24000.000
G2 X15.487 Y15.541 Z11.000 I0.030 J0.030 F30000.000
G2 X15.541 Y15.513 Z11.000 I0.013 J-0.041 F30000.000
G2 X15.513 Y15.459 Z11.000 I-0.041 J-0.013 F30000.000
G2 X15.470 Y15.470 Z11.000 I-0.013 J0.041 F30000.000
G1 X15.470 Y15.470 Z10.500 F24000.000
G2 X15.487 Y15.541 Z10.500 I0.030 J0.030 F30000.000
G2 X15.541 Y15.513 Z10.500 I0.013 J-0.041 F30000.000
G2 X15.513 Y15.459 Z10.500 I-0.041 J-0.013 F30000.000
G2 X15.470 Y15.470 Z10.500 I-0.013 J0.041 F30000.000
G1 X15.470 Y15.470 Z10.000 F24000.000
G2 X15.487 Y15.541 Z10.000 I0.030 J0.030 F30000.000
G2 X15.541 Y15.513 Z10.000 I0.013 J-0.041 F30000.000
G2 X15.513 Y15.459 Z10.000 I-0.041 J-0.013 F30000.000
G2 X15.470 Y15.470 Z10.000 I-0.013 J0.041 F30000.000
G1 X15.470 Y15.470 Z9.500 F24000.000
G2 X15.487 Y15.541 Z9.500 I0.030 J0.030 F30000.000
G2 X15.541 Y15.513 Z9.500 I0.013 J-0.041 F30000.000
G2 X15.513 Y15.459 Z9.500 I-0.041 J-0.013 F30000.000
G2 X15.470 Y15.470 Z9.500 I-0.013 J0.041 F30000.000
G1 X15.470 Y15.470 Z9.000 F24000.000
G2 X15.487 Y15.541 Z9.000 I0.030 J0.030 F30000.000
G2 X15.541 Y15.513 Z9.000 I0.013 J-0.041 F30000.000
G2 X15.513 Y15.459 Z9.000 I-0.041 J-0.013 F30000.000
G2 X15.470 Y15.470 Z9.000 I-0.013 J0.041 F30000.000
G1 X15.470 Y15.470 Z8.500 F24000.000
G2 X15.487 Y15.541 Z8.500 I0.030 J0.030 F30000.000
G2 X15.541 Y15.513 Z8.500 I0.013 J-0.041 F30000.000
G2 X15.513 Y15.459 Z8.500 I-0.041 J-0.013 F30000.000
G2 X15.470 Y15.470 Z8.500 I-0.013 J0.041 F30000.000
G1 X15.470 Y15.470 Z8.000 F24000.000
G2 X15.487 Y15.541 Z8.000 I0.030 J0.030 F30000.000
G2 X15.541 Y15.513 Z8.000 I0.013 J-0.041 F30000.000
G2 X15.513 Y15.459 Z8.000 I-0.041 J-0.013 F30000.000
G2 X15.470 Y15.470 Z8.000 I-0.013 J0.041 F30000.000
G1 X15.470 Y15.470 Z7.500 F24000.000
G2 X15.487 Y15.541 Z7.500 I0.030 J0.030 F30000.000
G2 X15.541 Y15.513 Z7.500 I0.013 J-0.041 F30000.000
G2 X15.513 Y15.459 Z7.500 I-0.041 J-0.013 F30000.000
G2 X15.470 Y15.470 Z7.500 I-0.013 J0.041 F30000.000
G1 X15.470 Y15.470 Z7.000 F24000.000
G2 X15.487 Y15.541 Z7.000 I0.030 J0.030 F30000.000
G2 X15.541 Y15.513 Z7.000 I0.013 J-0.041 F30000.000
G2 X15.513 Y15.459 Z7.000 I-0.041 J-0.013 F30000.000
G2 X15.470 Y15.470 Z7.000 I-0.013 J0.041 F30000.000
G1 X15.470 Y15.470 Z6.500 F24000.000
G2 X15.487 Y15.541 Z6.500 I0.030 J0.030 F30000.000
G2 X15.541 Y15.513 Z6.500 I0.013 J-0.041 F30000.000
G2 X15.513 Y15.459 Z6.500 I-0.041 J-0.013 F30000.000
G2 X15.470 Y15.470 Z6.500 I-0.013 J0.041 F30000.000
G1 X15.470 Y15.470 Z6.000 F24000.000
G2 X15.487 Y15.541 Z6.000 I0.030 J0.030 F30000.000
G2 X15.541 Y15.513 Z6.000 I0.013 J-0.041 F30000.000
G2 X15.513 Y15.459 Z6.000 I-0.041 J-0.013 F30000.000
G2 X15.470 Y15.470 Z6.000 I-0.013 J0.041 F30000.000
G1 X15.470 Y15.470 Z5.500 F24000.000
G2 X15.487 Y15.541 Z5.500 I0.030 J0.030 F30000.000
G2 X15.541 Y15.513 Z5.500 I0.013 J-0.041 F30000.000
G2 X15.513 Y15.459 Z5.500 I-0.041 J-0.013 F30000.000
G2 X15.470 Y15.470 Z5.500 I-0.013 J0.041 F30000.000
G1 X15.470 Y15.470 Z5.000 F24000.000
G2 X15.487 Y15.541 Z5.000 I0.030 J0.030 F30000.000
G2 X15.541 Y15.513 Z5.000 I0.013 J-0.041 F30000.000
G2 X15.513 Y15.459 Z5.000 I-0.041 J-0.013 F30000.000
G2 X15.470 Y15.470 Z5.000 I-0.013 J0.041 F30000.000
G1 X15.470 Y15.470 Z4.500 F24000.000
G2 X15.487 Y15.541 Z4.500 I0.030 J0.030 F30000.000
G2 X15.541 Y15.513 Z4.500 I0.013 J-0.041 F30000.000
G2 X15.513 Y15.459 Z4.500 I-0.041 J-0.013 F30000.000
G2 X15.470 Y15.470 Z4.500 I-0.013 J0.041 F30000.000
G1 X15.470 Y15.470 Z4.000 F24000.000
G2 X15.487 Y15.541 Z4.000 I0.030 J0.030 F30000.000
G2 X15.541 Y15.513 Z4.000 I0.013 J-0.041 F30000.000
G2 X15.513 Y15.459 Z4.000 I-0.041 J-0.013 F30000.000
G2 X15.470 Y15.470 Z4.000 I-0.013 J0.041 F30000.000
G1 X15.470 Y15.470 Z3.500 F24000.000
G2 X15.487 Y15.541 Z3.500 I0.030 J0.030 F30000.000
G2 X15.541 Y15.513 Z3.500 I0.013 J-0.041 F30000.000
G2 X15.513 Y15.459 Z3.500 I-0.041 J-0.013 F30000.000
G2 X15.470 Y15.470 Z3.500 I-0.013 J0.041 F30000.000
G1 X15.470 Y15.470 Z3.000 F24000.000
G2 X15.487 Y15.541 Z3.000 I0.030 J0.030 F30000.000
G2 X15.541 Y15.513 Z3.000 I0.013 J-0.041 F30000.000
G2 X15.513 Y15.459 Z3.000 I-0.041 J-0.013 F30000.000
G2 X15.470 Y15.470 Z3.000 I-0.013 J0.041 F30000.000
G1 X15.470 Y15.470 Z2.500 F24000.000
G2 X15.487 Y15.541 Z2.500 I0.030 J0.030 F30000.000
G2 X15.541 Y15.513 Z2.500 I0.013 J-0.041 F30000.000
G2 X15.513 Y15.459 Z2.500 I-0.041 J-0.013 F30000.000
G2 X15.470 Y15.470 Z2.500 I-0.013 J0.041 F30000.000
G1 X15.470 Y15.470 Z2.000 F24000.000
G2 X15.487 Y15.541 Z2.000 I0.030 J0.030 F30000.000
G2 X15.541 Y15.513 Z2.000 I0.013 J-0.041 F30000.000
G2 X15.513 Y15.459 Z2.000 I-0.041 J-0.013 F30000.000
G2 X15.470 Y15.470 Z2.000 I-0.013 J0.041 F30000.000
G1 X15.470 Y15.470 Z1.500 F24000.000
G2 X15.487 Y15.541 Z1.500 I0.030 J0.030 F30000.000
G2 X15.541 Y15.513 Z1.500 I0.013 J-0.041 F30000.000
G2 X15.513 Y15.459 Z1.500 I-0.041 J-0.013 F30000.000
G2 X15.470 Y15.470 Z1.500 I-0.013 J0.041 F30000.000
G1 X15.470 Y15.470 Z1.000 F24000.000
G2 X15.487 Y15.541 Z1.000 I0.030 J0.030 F30000.000
G2 X15.541 Y15.513 Z1.000 I0.013 J-0.041 F30000.000
G2 X15.513 Y15.459 Z1.000 I-0.041 J-0.013 F30000.000
G2 X15.470 Y15.470 Z1.000 I-0.013 J0.041 F30000.000
G1 X15.470 Y15.470 Z0.500 F24000.000
G2 X15.487 Y15.541 Z0.500 I0.030 J0.030 F30000.000
G2 X15.541 Y15.513 Z0.500 I0.013 J-0.041 F30000.000
G2 X15.513 Y15.459 Z0.500 I-0.041 J-0.013 F30000.000
G2 X15.470 Y15.470 Z0.500 I-0.013 J0.041 F30000.000
G1 X15.470 Y15.470 Z0.000 F24000.000
G2 X15.487 Y15.541 Z0.000 I0.030 J0.030 F30000.000
G2 X15.541 Y15.513 Z0.000 I0.013 J-0.041 F30000.000
G2 X15.513 Y15.459 Z0.000 I-0.041 J-0.013 F30000.000
G2 X15.470 Y15.470 Z0.000 I-0.013 J0.041 F30000.000
G1 X15.470 Y15.470 Z-0.250 F24000.000
G2 X15.487 Y15.541 Z-0.250 I0.030 J0.030 F30000.000
G2 X15.541 Y15.513 Z-0.250 I0.013 J-0.041 F30000.000
G2 X15.513 Y15.459 Z-0.250 I-0.041 J-0.013 F30000.000
G2 X15.470 Y15.470 Z-0.250 I-0.013 J0.041 F30000.000
G0 Z20.000
G0 Z20.000
G0 X15.470 Y15.470
G0 X-15.457 Y15.500
G0 X-15.457 Y15.500 Z18.000
G1 X-15.457 Y15.500 Z12.500 F24000.000
G2 X-15.487 Y15.459 Z12.500 I-0.043 J0.000 F30000.000
G2 X-15.541 Y15.487 Z12.500 I-0.013 J0.041 F30000.000
G2 X-15.513 Y15.541 Z12.500 I0.041 J0.013 F30000.000
G2 X-15.457 Y15.500 Z12.500 I0.013 J-0.041 F30000.000
G1 X-15.457 Y15.500 Z12.000 F24000.000
G2 X-15.487 Y15.459 Z12.000 I-0.043 J0.000 F30000.000
G2 X-15.541 Y15.487 Z12.000 I-0.013 J0.041 F30000.000
G2 X-15.513 Y15.541 Z12.000 I0.041 J0.013 F30000.000
G2 X-15.457 Y15.500 Z12.000 I0.013 J-0.041 F30000.000
G1 X-15.457 Y15.500 Z11.500 F24000.000
G2 X-15.487 Y15.459 Z11.500 I-0.043 J0.000 F30000.000
G2 X-15.541 Y15.487 Z11.500 I-0.013 J0.041 F30000.000
G2 X-15.513 Y15.541 Z11.500 I0.041 J0.013 F30000.000
G2 X-15.457 Y15.500 Z11.500 I0.013 J-0.041 F30000.000
G1 X-15.457 Y15.500 Z11.000 F24000.000
G2 X-15.487 Y15.459 Z11.000 I-0.043 J0.000 F30000.000
G2 X-15.541 Y15.487 Z11.000 I-0.013 J0.041 F30000.000
G2 X-15.513 Y15.541 Z11.000 I0.041 J0.013 F30000.000
G2 X-15.457 Y15.500 Z11.000 I0.013 J-0.041 F30000.000
G1 X-15.457 Y15.500 Z10.500 F24000.000
G2 X-15.487 Y15.459 Z10.500 I-0.043 J0.000 F30000.000
G2 X-15.541 Y15.487 Z10.500 I-0.013 J0.041 F30000.000
G2 X-15.513 Y15.541 Z10.500 I0.041 J0.013 F30000.000
G2 X-15.457 Y15.500 Z10.500 I0.013 J-0.041 F30000.000
G1 X-15.457 Y15.500 Z10.000 F24000.000
G2 X-15.487 Y15.459 Z10.000 I-0.043 J0.000 F30000.000
G2 X-15.541 Y15.487 Z10.000 I-0.013 J0.041 F30000.000
G2 X-15.513 Y15.541 Z10.000 I0.041 J0.013 F30000.000
G2 X-15.457 Y15.500 Z10.000 I0.013 J-0.041 F30000.000
G1 X-15.457 Y15.500 Z9.500 F24000.000
G2 X-15.487 Y15.459 Z9.500 I-0.043 J0.000 F30000.000
G2 X-15.541 Y15.487 Z9.500 I-0.013 J0.041 F30000.000
G2 X-15.513 Y15.541 Z9.500 I0.041 J0.013 F30000.000
G2 X-15.457 Y15.500 Z9.500 I0.013 J-0.041 F30000.000
G1 X-15.457 Y15.500 Z9.000 F24000.000
G2 X-15.487 Y15.459 Z9.000 I-0.043 J0.000 F30000.000
G2 X-15.541 Y15.487 Z9.000 I-0.013 J0.041 F30000.000
G2 X-15.513 Y15.541 Z9.000 I0.041 J0.013 F30000.000
G2 X-15.457 Y15.500 Z9.000 I0.013 J-0.041 F30000.000
G1 X-15.457 Y15.500 Z8.500 F24000.000
G2 X-15.487 Y15.459 Z8.500 I-0.043 J0.000 F30000.000
G2 X-15.541 Y15.487 Z8.500 I-0.013 J0.041 F30000.000
G2 X-15.513 Y15.541 Z8.500 I0.041 J0.013 F30000.000
G2 X-15.457 Y15.500 Z8.500 I0.013 J-0.041 F30000.000
G1 X-15.457 Y15.500 Z8.000 F24000.000
G2 X-15.487 Y15.459 Z8.000 I-0.043 J0.000 F30000.000
G2 X-15.541 Y15.487 Z8.000 I-0.013 J0.041 F30000.000
G2 X-15.513 Y15.541 Z8.000 I0.041 J0.013 F30000.000
G2 X-15.457 Y15.500 Z8.000 I0.013 J-0.041 F30000.000
G1 X-15.457 Y15.500 Z7.500 F24000.000
G2 X-15.487 Y15.459 Z7.500 I-0.043 J0.000 F30000.000
G2 X-15.541 Y15.487 Z7.500 I-0.013 J0.041 F30000.000
G2 X-15.513 Y15.541 Z7.500 I0.041 J0.013 F30000.000
G2 X-15.457 Y15.500 Z7.500 I0.013 J-0.041 F30000.000
G1 X-15.457 Y15.500 Z7.000 F24000.000
G2 X-15.487 Y15.459 Z7.000 I-0.043 J0.000 F30000.000
G2 X-15.541 Y15.487 Z7.000 I-0.013 J0.041 F30000.000
G2 X-15.513 Y15.541 Z7.000 I0.041 J0.013 F30000.000
G2 X-15.457 Y15.500 Z7.000 I0.013 J-0.041 F30000.000
G1 X-15.457 Y15.500 Z6.500 F24000.000
G2 X-15.487 Y15.459 Z6.500 I-0.043 J0.000 F30000.000
G2 X-15.541 Y15.487 Z6.500 I-0.013 J0.041 F30000.000
G2 X-15.513 Y15.541 Z6.500 I0.041 J0.013 F30000.000
G2 X-15.457 Y15.500 Z6.500 I0.013 J-0.041 F30000.000
G1 X-15.457 Y15.500 Z6.000 F24000.000
G2 X-15.487 Y15.459 Z6.000 I-0.043 J0.000 F30000.000
G2 X-15.541 Y15.487 Z6.000 I-0.013 J0.041 F30000.000
G2 X-15.513 Y15.541 Z6.000 I0.041 J0.013 F30000.000
G2 X-15.457 Y15.500 Z6.000 I0.013 J-0.041 F30000.000
G1 X-15.457 Y15.500 Z5.500 F24000.000
G2 X-15.487 Y15.459 Z5.500 I-0.043 J0.000 F30000.000
G2 X-15.541 Y15.487 Z5.500 I-0.013 J0.041 F30000.000
G2 X-15.513 Y15.541 Z5.500 I0.041 J0.013 F30000.000
G2 X-15.457 Y15.500 Z5.500 I0.013 J-0.041 F30000.000
G1 X-15.457 Y15.500 Z5.000 F24000.000
G2 X-15.487 Y15.459 Z5.000 I-0.043 J0.000 F30000.000
G2 X-15.541 Y15.487 Z5.000 I-0.013 J0.041 F30000.000
G2 X-15.513 Y15.541 Z5.000 I0.041 J0.013 F30000.000
G2 X-15.457 Y15.500 Z5.000 I0.013 J-0.041 F30000.000
G1 X-15.457 Y15.500 Z4.500 F24000.000
G2 X-15.487 Y15.459 Z4.500 I-0.043 J0.000 F30000.000
G2 X-15.541 Y15.487 Z4.500 I-0.013 J0.041 F30000.000
G2 X-15.513 Y15.541 Z4.500 I0.041 J0.013 F30000.000
G2 X-15.457 Y15.500 Z4.500 I0.013 J-0.041 F30000.000
G1 X-15.457 Y15.500 Z4.000 F24000.000
G2 X-15.487 Y15.459 Z4.000 I-0.043 J0.000 F30000.000
G2 X-15.541 Y15.487 Z4.000 I-0.013 J0.041 F30000.000
G2 X-15.513 Y15.541 Z4.000 I0.041 J0.013 F30000.000
G2 X-15.457 Y15.500 Z4.000 I0.013 J-0.041 F30000.000
G1 X-15.457 Y15.500 Z3.500 F24000.000
G2 X-15.487 Y15.459 Z3.500 I-0.043 J0.000 F30000.000
G2 X-15.541 Y15.487 Z3.500 I-0.013 J0.041 F30000.000
G2 X-15.513 Y15.541 Z3.500 I0.041 J0.013 F30000.000
G2 X-15.457 Y15.500 Z3.500 I0.013 J-0.041 F30000.000
G1 X-15.457 Y15.500 Z3.000 F24000.000
G2 X-15.487 Y15.459 Z3.000 I-0.043 J0.000 F30000.000
G2 X-15.541 Y15.487 Z3.000 I-0.013 J0.041 F30000.000
G2 X-15.513 Y15.541 Z3.000 I0.041 J0.013 F30000.000
G2 X-15.457 Y15.500 Z3.000 I0.013 J-0.041 F30000.000
G1 X-15.457 Y15.500 Z2.500 F24000.000
G2 X-15.487 Y15.459 Z2.500 I-0.043 J0.000 F30000.000
G2 X-15.541 Y15.487 Z2.500 I-0.013 J0.041 F30000.000
G2 X-15.513 Y15.541 Z2.500 I0.041 J0.013 F30000.000
G2 X-15.457 Y15.500 Z2.500 I0.013 J-0.041 F30000.000
G1 X-15.457 Y15.500 Z2.000 F24000.000
G2 X-15.487 Y15.459 Z2.000 I-0.043 J0.000 F30000.000
G2 X-15.541 Y15.487 Z2.000 I-0.013 J0.041 F30000.000
G2 X-15.513 Y15.541 Z2.000 I0.041 J0.013 F30000.000
G2 X-15.457 Y15.500 Z2.000 I0.013 J-0.041 F30000.000
G1 X-15.457 Y15.500 Z1.500 F24000.000
G2 X-15.487 Y15.459 Z1.500 I-0.043 J0.000 F30000.000
G2 X-15.541 Y15.487 Z1.500 I-0.013 J0.041 F30000.000
G2 X-15.513 Y15.541 Z1.500 I0.041 J0.013 F30000.000
G2 X-15.457 Y15.500 Z1.500 I0.013 J-0.041 F30000.000
G1 X-15.457 Y15.500 Z1.000 F24000.000
G2 X-15.487 Y15.459 Z1.000 I-0.043 J0.000 F30000.000
G2 X-15.541 Y15.487 Z1.000 I-0.013 J0.041 F30000.000
G2 X-15.513 Y15.541 Z1.000 I0.041 J0.013 F30000.000
G2 X-15.457 Y15.500 Z1.000 I0.013 J-0.041 F30000.000
G1 X-15.457 Y15.500 Z0.500 F24000.000
G2 X-15.487 Y15.459 Z0.500 I-0.043 J0.000 F30000.000
G2 X-15.541 Y15.487 Z0.500 I-0.013 J0.041 F30000.000
G2 X-15.513 Y15.541 Z0.500 I0.041 J0.013 F30000.000
G2 X-15.457 Y15.500 Z0.500 I0.013 J-0.041 F30000.000
G1 X-15.457 Y15.500 Z0.000 F24000.000
G2 X-15.487 Y15.459 Z0.000 I-0.043 J0.000 F30000.000
G2 X-15.541 Y15.487 Z0.000 I-0.013 J0.041 F30000.000
G2 X-15.513 Y15.541 Z0.000 I0.041 J0.013 F30000.000
G2 X-15.457 Y15.500 Z0.000 I0.013 J-0.041 F30000.000
G1 X-15.457 Y15.500 Z-0.250 F24000.000
G2 X-15.487 Y15.459 Z-0.250 I-0.043 J0.000 F30000.000
G2 X-15.541 Y15.487 Z-0.250 I-0.013 J0.041 F30000.000
G2 X-15.513 Y15.541 Z-0.250 I0.041 J0.013 F30000.000
G2 X-15.457 Y15.500 Z-0.250 I0.013 J-0.041 F30000.000
G0 Z20.000
G0 Z20.000
G0 X-15.457 Y15.500
G0 X-15.501 Y-15.458
G0 X-15.501 Y-15.458 Z18.000
G1 X-15.501 Y-15.458 Z12.500 F24000.000
G2 X-15.487 Y-15.539 Z12.500 I-0.000 J-0.042 F30000.000
G1 X-15.501 Y-15.542 Z12.500 F30000.000
G2 X-15.513 Y-15.459 Z12.500 I0.001 J0.042 F30000.000
G2 X-15.501 Y-15.458 Z12.500 I0.012 J-0.040 F30000.000
G1 X-15.501 Y-15.458 Z12.000 F24000.000
G2 X-15.487 Y-15.539 Z12.000 I-0.000 J-0.042 F30000.000
G1 X-15.501 Y-15.542 Z12.000 F30000.000
G2 X-15.513 Y-15.459 Z12.000 I0.001 J0.042 F30000.000
G2 X-15.501 Y-15.458 Z12.000 I0.012 J-0.040 F30000.000
G1 X-15.501 Y-15.458 Z11.500 F24000.000
G2 X-15.487 Y-15.539 Z11.500 I-0.000 J-0.042 F30000.000
G1 X-15.501 Y-15.542 Z11.500 F30000.000
G2 X-15.513 Y-15.459 Z11.500 I0.001 J0.042 F30000.000
G2 X-15.501 Y-15.458 Z11.500 I0.012 J-0.040 F30000.000
G1 X-15.501 Y-15.458 Z11.000 F24000.000
G2 X-15.487 Y-15.539 Z11.000 I-0.000 J-0.042 F30000.000
G1 X-15.501 Y-15.542 Z11.000 F30000.000
G2 X-15.513 Y-15.459 Z11.000 I0.001 J0.042 F30000.000
G2 X-15.501 Y-15.458 Z11.000 I0.012 J-0.040 F30000.000
G1 X-15.501 Y-15.458 Z10.500 F24000.000
G2 X-15.487 Y-15.539 Z10.500 I-0.000 J-0.042 F30000.000
G1 X-15.501 Y-15.542 Z10.500 F30000.000
G2 X-15.513 Y-15.459 Z10.500 I0.001 J0.042 F30000.000
G2 X-15.501 Y-15.458 Z10.500 I0.012 J-0.040 F30000.000
G1 X-15.501 Y-15.458 Z10.000 F24000.000
G2 X-15.487 Y-15.539 Z10.000 I-0.000 J-0.042 F30000.000
G1 X-15.501 Y-15.542 Z10.000 F30000.000
G2 X-15.513 Y-15.459 Z10.000 I0.001 J0.042 F30000.000
G2 X-15.501 Y-15.458 Z10.000 I0.012 J-0.040 F30000.000
G1 X-15.501 Y-15.458 Z9.500 F24000.000
G2 X-15.487 Y-15.539 Z9.500 I-0.000 J-0.042 F30000.000
G1 X-15.501 Y-15.542 Z9.500 F30000.000
G2 X-15.513 Y-15.459 Z9.500 I0.001 J0.042 F30000.000
G2 X-15.501 Y-15.458 Z9.500 I0.012 J-0.040 F30000.000
G1 X-15.501 Y-15.458 Z9.000 F24000.000
G2 X-15.487 Y-15.539 Z9.000 I-0.000 J-0.042 F30000.000
G1 X-15.501 Y-15.542 Z9.000 F30000.000
G2 X-15.513 Y-15.459 Z9.000 I0.001 J0.042 F30000.000
G2 X-15.501 Y-15.458 Z9.000 I0.012 J-0.040 F30000.000
G1 X-15.501 Y-15.458 Z8.500 F24000.000
G2 X-15.487 Y-15.539 Z8.500 I-0.000 J-0.042 F30000.000
G1 X-15.501 Y-15.542 Z8.500 F30000.000
G2 X-15.513 Y-15.459 Z8.500 I0.001 J0.042 F30000.000
G2 X-15.501 Y-15.458 Z8.500 I0.012 J-0.040 F30000.000
G1 X-15.501 Y-15.458 Z8.000 F24000.000
G2 X-15.487 Y-15.539 Z8.000 I-0.000 J-0.042 F30000.000
G1 X-15.501 Y-15.542 Z8.000 F30000.000
G2 X-15.513 Y-15.459 Z8.000 I0.001 J0.042 F30000.000
G2 X-15.501 Y-15.458 Z8.000 I0.012 J-0.040 F30000.000
G1 X-15.501 Y-15.458 Z7.500 F24000.000
G2 X-15.487 Y-15.539 Z7.500 I-0.000 J-0.042 F30000.000
G1 X-15.501 Y-15.542 Z7.500 F30000.000
G2 X-15.513 Y-15.459 Z7.500 I0.001 J0.042 F30000.000
G2 X-15.501 Y-15.458 Z7.500 I0.012 J-0.040 F30000.000
G1 X-15.501 Y-15.458 Z7.000 F24000.000
G2 X-15.487 Y-15.539 Z7.000 I-0.000 J-0.042 F30000.000
G1 X-15.501 Y-15.542 Z7.000 F30000.000
G2 X-15.513 Y-15.459 Z7.000 I0.001 J0.042 F30000.000
G2 X-15.501 Y-15.458 Z7.000 I0.012 J-0.040 F30000.000
G1 X-15.501 Y-15.458 Z6.500 F24000.000
G2 X-15.487 Y-15.539 Z6.500 I-0.000 J-0.042 F30000.000
G1 X-15.501 Y-15.542 Z6.500 F30000.000
G2 X-15.513 Y-15.459 Z6.500 I0.001 J0.042 F30000.000
G2 X-15.501 Y-15.458 Z6.500 I0.012 J-0.040 F30000.000
G1 X-15.501 Y-15.458 Z6.000 F24000.000
G2 X-15.487 Y-15.539 Z6.000 I-0.000 J-0.042 F30000.000
G1 X-15.501 Y-15.542 Z6.000 F30000.000
G2 X-15.513 Y-15.459 Z6.000 I0.001 J0.042 F30000.000
G2 X-15.501 Y-15.458 Z6.000 I0.012 J-0.040 F30000.000
G1 X-15.501 Y-15.458 Z5.500 F24000.000
G2 X-15.487 Y-15.539 Z5.500 I-0.000 J-0.042 F30000.000
G1 X-15.501 Y-15.542 Z5.500 F30000.000
G2 X-15.513 Y-15.459 Z5.500 I0.001 J0.042 F30000.000
G2 X-15.501 Y-15.458 Z5.500 I0.012 J-0.040 F30000.000
G1 X-15.501 Y-15.458 Z5.000 F24000.000
G2 X-15.487 Y-15.539 Z5.000 I-0.000 J-0.042 F30000.000
G1 X-15.501 Y-15.542 Z5.000 F30000.000
G2 X-15.513 Y-15.459 Z5.000 I0.001 J0.042 F30000.000
G2 X-15.501 Y-15.458 Z5.000 I0.012 J-0.040 F30000.000
G1 X-15.501 Y-15.458 Z4.500 F24000.000
G2 X-15.487 Y-15.539 Z4.500 I-0.000 J-0.042 F30000.000
G1 X-15.501 Y-15.542 Z4.500 F30000.000
G2 X-15.513 Y-15.459 Z4.500 I0.001 J0.042 F30000.000
G2 X-15.501 Y-15.458 Z4.500 I0.012 J-0.040 F30000.000
G1 X-15.501 Y-15.458 Z4.000 F24000.000
G2 X-15.487 Y-15.539 Z4.000 I-0.000 J-0.042 F30000.000
G1 X-15.501 Y-15.542 Z4.000 F30000.000
G2 X-15.513 Y-15.459 Z4.000 I0.001 J0.042 F30000.000
G2 X-15.501 Y-15.458 Z4.000 I0.012 J-0.040 F30000.000
G1 X-15.501 Y-15.458 Z3.500 F24000.000
G2 X-15.487 Y-15.539 Z3.500 I-0.000 J-0.042 F30000.000
G1 X-15.501 Y-15.542 Z3.500 F30000.000
G2 X-15.513 Y-15.459 Z3.500 I0.001 J0.042 F30000.000
G2 X-15.501 Y-15.458 Z3.500 I0.012 J-0.040 F30000.000
G1 X-15.501 Y-15.458 Z3.000 F24000.000
G2 X-15.487 Y-15.539 Z3.000 I-0.000 J-0.042 F30000.000
G1 X-15.501 Y-15.542 Z3.000 F30000.000
G2 X-15.513 Y-15.459 Z3.000 I0.001 J0.042 F30000.000
G2 X-15.501 Y-15.458 Z3.000 I0.012 J-0.040 F30000.000
G1 X-15.501 Y-15.458 Z2.500 F24000.000
G2 X-15.487 Y-15.539 Z2.500 I-0.000 J-0.042 F30000.000
G1 X-15.501 Y-15.542 Z2.500 F30000.000
G2 X-15.513 Y-15.459 Z2.500 I0.001 J0.042 F30000.000
G2 X-15.501 Y-15.458 Z2.500 I0.012 J-0.040 F30000.000
G1 X-15.501 Y-15.458 Z2.000 F24000.000
G2 X-15.487 Y-15.539 Z2.000 I-0.000 J-0.042 F30000.000
G1 X-15.501 Y-15.542 Z2.000 F30000.000
G2 X-15.513 Y-15.459 Z2.000 I0.001 J0.042 F30000.000
G2 X-15.501 Y-15.458 Z2.000 I0.012 J-0.040 F30000.000
G1 X-15.501 Y-15.458 Z1.500 F24000.000
G2 X-15.487 Y-15.539 Z1.500 I-0.000 J-0.042 F30000.000
G1 X-15.501 Y-15.542 Z1.500 F30000.000
G2 X-15.513 Y-15.459 Z1.500 I0.001 J0.042 F30000.000
G2 X-15.501 Y-15.458 Z1.500 I0.012 J-0.040 F30000.000
G1 X-15.501 Y-15.458 Z1.000 F24000.000
G2 X-15.487 Y-15.539 Z1.000 I-0.000 J-0.042 F30000.000
G1 X-15.501 Y-15.542 Z1.000 F30000.000
G2 X-15.513 Y-15.459 Z1.000 I0.001 J0.042 F30000.000
G2 X-15.501 Y-15.458 Z1.000 I0.012 J-0.040 F30000.000
G1 X-15.501 Y-15.458 Z0.500 F24000.000
G2 X-15.487 Y-15.539 Z0.500 I-0.000 J-0.042 F30000.000
G1 X-15.501 Y-15.542 Z0.500 F30000.000
G2 X-15.513 Y-15.459 Z0.500 I0.001 J0.042 F30000.000
G2 X-15.501 Y-15.458 Z0.500 I0.012 J-0.040 F30000.000
G1 X-15.501 Y-15.458 Z0.000 F24000.000
G2 X-15.487 Y-15.539 Z0.000 I-0.000 J-0.042 F30000.000
G1 X-15.501 Y-15.542 Z0.000 F30000.000
G2 X-15.513 Y-15.459 Z0.000 I0.001 J0.042 F30000.000
G2 X-15.501 Y-15.458 Z0.000 I0.012 J-0.040 F30000.000
G1 X-15.501 Y-15.458 Z-0.250 F24000.000
G2 X-15.487 Y-15.539 Z-0.250 I-0.000 J-0.042 F30000.000
G1 X-15.501 Y-15.542 Z-0.250 F30000.000
G2 X-15.513 Y-15.459 Z-0.250 I0.001 J0.042 F30000.000
G2 X-15.501 Y-15.458 Z-0.250 I0.012 J-0.040 F30000.000
G0 Z20.000
G0 Z20.000
G0 X-15.501 Y-15.458
G0 X15.457 Y-15.500
G0 X15.457 Y-15.500 Z18.000
G1 X15.457 Y-15.500 Z12.500 F24000.000
G2 X15.487 Y-15.459 Z12.500 I0.043 J-0.000 F30000.000
G2 X15.541 Y-15.487 Z12.500 I0.013 J-0.041 F30000.000
G2 X15.513 Y-15.541 Z12.500 I-0.041 J-0.013 F30000.000
G2 X15.457 Y-15.500 Z12.500 I-0.013 J0.041 F30000.000
G1 X15.457 Y-15.500 Z12.000 F24000.000
G2 X15.487 Y-15.459 Z12.000 I0.043 J-0.000 F30000.000
G2 X15.541 Y-15.487 Z12.000 I0.013 J-0.041 F30000.000
G2 X15.513 Y-15.541 Z12.000 I-0.041 J-0.013 F30000.000
G2 X15.457 Y-15.500 Z12.000 I-0.013 J0.041 F30000.000
G1 X15.457 Y-15.500 Z11.500 F24000.000
G2 X15.487 Y-15.459 Z11.500 I0.043 J-0.000 F30000.000
G2 X15.541 Y-15.487 Z11.500 I0.013 J-0.041 F30000.000
G2 X15.513 Y-15.541 Z11.500 I-0.041 J-0.013 F30000.000
G2 X15.457 Y-15.500 Z11.500 I-0.013 J0.041 F30000.000
G1 X15.457 Y-15.500 Z11.000 F24000.000
G2 X15.487 Y-15.459 Z11.000 I0.043 J-0.000 F30000.000
G2 X15.541 Y-15.487 Z11.000 I0.013 J-0.041 F30000.000
G2 X15.513 Y-15.541 Z11.000 I-0.041 J-0.013 F30000.000
G2 X15.457 Y-15.500 Z11.000 I-0.013 J0.041 F30000.000
G1 X15.457 Y-15.500 Z10.500 F24000.000
G2 X15.487 Y-15.459 Z10.500 I0.043 J-0.000 F30000.000
G2 X15.541 Y-15.487 Z10.500 I0.013 J-0.041 F30000.000
G2 X15.513 Y-15.541 Z10.500 I-0.041 J-0.013 F30000.000
G2 X15.457 Y-15.500 Z10.500 I-0.013 J0.041 F30000.000
G1 X15.457 Y-15.500 Z10.000 F24000.000
G2 X15.487 Y-15.459 Z10.000 I0.043 J-0.000 F30000.000
G2 X15.541 Y-15.487 Z10.000 I0.013 J-0.041 F30000.000
G2 X15.513 Y-15.541 Z10.000 I-0.041 J-0.013 F30000.000
G2 X15.457 Y-15.500 Z10.000 I-0.013 J0.041 F30000.000
G1 X15.457 Y-15.500 Z9.500 F24000.000
G2 X15.487 Y-15.459 Z9.500 I0.043 J-0.000 F30000.000
G2 X15.541 Y-15.487 Z9.500 I0.013 J-0.041 F30000.000
G2 X15.513 Y-15.541 Z9.500 I-0.041 J-0.013 F30000.000
G2 X15.457 Y-15.500 Z9.500 I-0.013 J0.041 F30000.000
G1 X15.457 Y-15.500 Z9.000 F24000.000
G2 X15.487 Y-15.459 Z9.000 I0.043 J-0.000 F30000.000
G2 X15.541 Y-15.487 Z9.000 I0.013 J-0.041 F30000.000
G2 X15.513 Y-15.541 Z9.000 I-0.041 J-0.013 F30000.000
G2 X15.457 Y-15.500 Z9.000 I-0.013 J0.041 F30000.000
G1 X15.457 Y-15.500 Z8.500 F24000.000
G2 X15.487 Y-15.459 Z8.500 I0.043 J-0.000 F30000.000
G2 X15.541 Y-15.487 Z8.500 I0.013 J-0.041 F30000.000
G2 X15.513 Y-15.541 Z8.500 I-0.041 J-0.013 F30000.000
G2 X15.457 Y-15.500 Z8.500 I-0.013 J0.041 F30000.000
G1 X15.457 Y-15.500 Z8.000 F24000.000
G2 X15.487 Y-15.459 Z8.000 I0.043 J-0.000 F30000.000
G2 X15.541 Y-15.487 Z8.000 I0.013 J-0.041 F30000.000
G2 X15.513 Y-15.541 Z8.000 I-0.041 J-0.013 F30000.000
G2 X15.457 Y-15.500 Z8.000 I-0.013 J0.041 F30000.000
G1 X15.457 Y-15.500 Z7.500 F24000.000
G2 X15.487 Y-15.459 Z7.500 I0.043 J-0.000 F30000.000
G2 X15.541 Y-15.487 Z7.500 I0.013 J-0.041 F30000.000
G2 X15.513 Y-15.541 Z7.500 I-0.041 J-0.013 F30000.000
G2 X15.457 Y-15.500 Z7.500 I-0.013 J0.041 F30000.000
G1 X15.457 Y-15.500 Z7.000 F24000.000
G2 X15.487 Y-15.459 Z7.000 I0.043 J-0.000 F30000.000
G2 X15.541 Y-15.487 Z7.000 I0.013 J-0.041 F30000.000
G2 X15.513 Y-15.541 Z7.000 I-0.041 J-0.013 F30000.000
G2 X15.457 Y-15.500 Z7.000 I-0.013 J0.041 F30000.000
G1 X15.457 Y-15.500 Z6.500 F24000.000
G2 X15.487 Y-15.459 Z6.500 I0.043 J-0.000 F30000.000
G2 X15.541 Y-15.487 Z6.500 I0.013 J-0.041 F30000.000
G2 X15.513 Y-15.541 Z6.500 I-0.041 J-0.013 F30000.000
G2 X15.457 Y-15.500 Z6.500 I-0.013 J0.041 F30000.000
G1 X15.457 Y-15.500 Z6.000 F24000.000
G2 X15.487 Y-15.459 Z6.000 I0.043 J-0.000 F30000.000
G2 X15.541 Y-15.487 Z6.000 I0.013 J-0.041 F30000.000
G2 X15.513 Y-15.541 Z6.000 I-0.041 J-0.013 F30000.000
G2 X15.457 Y-15.500 Z6.000 I-0.013 J0.041 F30000.000
G1 X15.457 Y-15.500 Z5.500 F24000.000
G2 X15.487 Y-15.459 Z5.500 I0.043 J-0.000 F30000.000
G2 X15.541 Y-15.487 Z5.500 I0.013 J-0.041 F30000.000
G2 X15.513 Y-15.541 Z5.500 I-0.041 J-0.013 F30000.000
G2 X15.457 Y-15.500 Z5.500 I-0.013 J0.041 F30000.000
G1 X15.457 Y-15.500 Z5.000 F24000.000
G2 X15.487 Y-15.459 Z5.000 I0.043 J-0.000 F30000.000
G2 X15.541 Y-15.487 Z5.000 I0.013 J-0.041 F30000.000
G2 X15.513 Y-15.541 Z5.000 I-0.041 J-0.013 F30000.000
G2 X15.457 Y-15.500 Z5.000 I-0.013 J0.041 F30000.000
G1 X15.457 Y-15.500 Z4.500 F24000.000
G2 X15.487 Y-15.459 Z4.500 I0.043 J-0.000 F30000.000
G2 X15.541 Y-15.487 Z4.500 I0.013 J-0.041 F30000.000
G2 X15.513 Y-15.541 Z4.500 I-0.041 J-0.013 F30000.000
G2 X15.457 Y-15.500 Z4.500 I-0.013 J0.041 F30000.000
G1 X15.457 Y-15.500 Z4.000 F24000.000
G2 X15.487 Y-15.459 Z4.000 I0.043 J-0.000 F30000.000
G2 X15.541 Y-15.487 Z4.000 I0.013 J-0.041 F30000.000
G2 X15.513 Y-15.541 Z4.000 I-0.041 J-0.013 F30000.000
G2 X15.457 Y-15.500 Z4.000 I-0.013 J0.041 F30000.000
G1 X15.457 Y-15.500 Z3.500 F24000.000
G2 X15.487 Y-15.459 Z3.500 I0.043 J-0.000 F30000.000
G2 X15.541 Y-15.487 Z3.500 I0.013 J-0.041 F30000.000
G2 X15.513 Y-15.541 Z3.500 I-0.041 J-0.013 F30000.000
G2 X15.457 Y-15.500 Z3.500 I-0.013 J0.041 F30000.000
G1 X15.457 Y-15.500 Z3.000 F24000.000
G2 X15.487 Y-15.459 Z3.000 I0.043 J-0.000 F30000.000
G2 X15.541 Y-15.487 Z3.000 I0.013 J-0.041 F30000.000
G2 X15.513 Y-15.541 Z3.000 I-0.041 J-0.013 F30000.000
G2 X15.457 Y-15.500 Z3.000 I-0.013 J0.041 F30000.000
G1 X15.457 Y-15.500 Z2.500 F24000.000
G2 X15.487 Y-15.459 Z2.500 I0.043 J-0.000 F30000.000
G2 X15.541 Y-15.487 Z2.500 I0.013 J-0.041 F30000.000
G2 X15.513 Y-15.541 Z2.500 I-0.041 J-0.013 F30000.000
G2 X15.457 Y-15.500 Z2.500 I-0.013 J0.041 F30000.000
G1 X15.457 Y-15.500 Z2.000 F24000.000
G2 X15.487 Y-15.459 Z2.000 I0.043 J-0.000 F30000.000
G2 X15.541 Y-15.487 Z2.000 I0.013 J-0.041 F30000.000
G2 X15.513 Y-15.541 Z2.000 I-0.041 J-0.013 F30000.000
G2 X15.457 Y-15.500 Z2.000 I-0.013 J0.041 F30000.000
G1 X15.457 Y-15.500 Z1.500 F24000.000
G2 X15.487 Y-15.459 Z1.500 I0.043 J-0.000 F30000.000
G2 X15.541 Y-15.487 Z1.500 I0.013 J-0.041 F30000.000
G2 X15.513 Y-15.541 Z1.500 I-0.041 J-0.013 F30000.000
G2 X15.457 Y-15.500 Z1.500 I-0.013 J0.041 F30000.000
G1 X15.457 Y-15.500 Z1.000 F24000.000
G2 X15.487 Y-15.459 Z1.000 I0.043 J-0.000 F30000.000
G2 X15.541 Y-15.487 Z1.000 I0.013 J-0.041 F30000.000
G2 X15.513 Y-15.541 Z1.000 I-0.041 J-0.013 F30000.000
G2 X15.457 Y-15.500 Z1.000 I-0.013 J0.041 F30000.000
G1 X15.457 Y-15.500 Z0.500 F24000.000
G2 X15.487 Y-15.459 Z0.500 I0.043 J-0.000 F30000.000
G2 X15.541 Y-15.487 Z0.500 I0.013 J-0.041 F30000.000
G2 X15.513 Y-15.541 Z0.500 I-0.041 J-0.013 F30000.000
G2 X15.457 Y-15.500 Z0.500 I-0.013 J0.041 F30000.000
G1 X15.457 Y-15.500 Z0.000 F24000.000
G2 X15.487 Y-15.459 Z0.000 I0.043 J-0.000 F30000.000
G2 X15.541 Y-15.487 Z0.000 I0.013 J-0.041 F30000.000
G2 X15.513 Y-15.541 Z0.000 I-0.041 J-0.013 F30000.000
G2 X15.457 Y-15.500 Z0.000 I-0.013 J0.041 F30000.000
G1 X15.457 Y-15.500 Z-0.250 F24000.000
G2 X15.487 Y-15.459 Z-0.250 I0.043 J-0.000 F30000.000
G2 X15.541 Y-15.487 Z-0.250 I0.013 J-0.041 F30000.000
G2 X15.513 Y-15.541 Z-0.250 I-0.041 J-0.013 F30000.000
G2 X15.457 Y-15.500 Z-0.250 I-0.013 J0.041 F30000.000
G0 Z20.000
G0 Z20.000
(finish operation: TopHoles)
(begin operation: TopTagged)
(machine: not set, mm/min)
G0 Z20.000
G0 X35.096 Y33.596 Z20.000
G0 X35.096 Y33.596 Z18.000
G1 X35.096 Y33.596 Z12.500 F24000.000
G3 X34.000 Y34.050 Z12.500 I-1.096 J-1.096 F30000.000
G1 X-34.000 Y34.050 Z12.500 F30000.000
G3 X-35.550 Y32.500 Z12.500 I-0.000 J-1.550 F30000.000
G1 X-35.550 Y-21.200 Z12.500 F30000.000
G3 X-34.000 Y-22.750 Z12.500 I1.550 J-0.000 F30000.000
G1 X34.000 Y-22.750 Z12.500 F30000.000
G3 X35.550 Y-21.200 Z12.500 I0.000 J1.550 F30000.000
G1 X35.550 Y32.500 Z12.500 F30000.000
G3 X35.096 Y33.596 Z12.500 I-1.550 J0.000 F30000.000
G1 X35.096 Y33.596 Z12.000 F24000.000
G3 X34.000 Y34.050 Z12.000 I-1.096 J-1.096 F30000.000
G1 X-34.000 Y34.050 Z12.000 F30000.000
G3 X-35.550 Y32.500 Z12.000 I-0.000 J-1.550 F30000.000
G1 X-35.550 Y-21.200 Z12.000 F30000.000
G3 X-34.000 Y-22.750 Z12.000 I1.550 J-0.000 F30000.000
G1 X34.000 Y-22.750 Z12.000 F30000.000
G3 X35.550 Y-21.200 Z12.000 I0.000 J1.550 F30000.000
G1 X35.550 Y32.500 Z12.000 F30000.000
G3 X35.096 Y33.596 Z12.000 I-1.550 J0.000 F30000.000
G1 X35.096 Y33.596 Z11.500 F24000.000
G3 X34.000 Y34.050 Z11.500 I-1.096 J-1.096 F30000.000
G1 X-34.000 Y34.050 Z11.500 F30000.000
G3 X-35.550 Y32.500 Z11.500 I-0.000 J-1.550 F30000.000
G1 X-35.550 Y-21.200 Z11.500 F30000.000
G3 X-34.000 Y-22.750 Z11.500 I1.550 J-0.000 F30000.000
G1 X34.000 Y-22.750 Z11.500 F30000.000
G3 X35.550 Y-21.200 Z11.500 I0.000 J1.550 F30000.000
G1 X35.550 Y32.500 Z11.500 F30000.000
G3 X35.096 Y33.596 Z11.500 I-1.550 J0.000 F30000.000
G1 X35.096 Y33.596 Z11.000 F24000.000
G3 X34.000 Y34.050 Z11.000 I-1.096 J-1.096 F30000.000
G1 X-34.000 Y34.050 Z11.000 F30000.000
G3 X-35.550 Y32.500 Z11.000 I-0.000 J-1.550 F30000.000
G1 X-35.550 Y-21.200 Z11.000 F30000.000
G3 X-34.000 Y-22.750 Z11.000 I1.550 J-0.000 F30000.000
G1 X34.000 Y-22.750 Z11.000 F30000.000
G3 X35.550 Y-21.200 Z11.000 I0.000 J1.550 F30000.000
G1 X35.550 Y32.500 Z11.000 F30000.000
G3 X35.096 Y33.596 Z11.000 I-1.550 J0.000 F30000.000
G1 X35.096 Y33.596 Z10.500 F24000.000
G3 X34.000 Y34.050 Z10.500 I-1.096 J-1.096 F30000.000
G1 X-34.000 Y34.050 Z10.500 F30000.000
G3 X-35.550 Y32.500 Z10.500 I-0.000 J-1.550 F30000.000
G1 X-35.550 Y-21.200 Z10.500 F30000.000
G3 X-34.000 Y-22.750 Z10.500 I1.550 J-0.000 F30000.000
G1 X34.000 Y-22.750 Z10.500 F30000.000
G3 X35.550 Y-21.200 Z10.500 I0.000 J1.550 F30000.000
G1 X35.550 Y32.500 Z10.500 F30000.000
G3 X35.096 Y33.596 Z10.500 I-1.550 J0.000 F30000.000
G1 X35.096 Y33.596 Z10.000 F24000.000
G3 X34.000 Y34.050 Z10.000 I-1.096 J-1.096 F30000.000
G1 X-34.000 Y34.050 Z10.000 F30000.000
G3 X-35.550 Y32.500 Z10.000 I-0.000 J-1.550 F30000.000
G1 X-35.550 Y-21.200 Z10.000 F30000.000
G3 X-34.000 Y-22.750 Z10.000 I1.550 J-0.000 F30000.000
G1 X34.000 Y-22.750 Z10.000 F30000.000
G3 X35.550 Y-21.200 Z10.000 I0.000 J1.550 F30000.000
G1 X35.550 Y32.500 Z10.000 F30000.000
G3 X35.096 Y33.596 Z10.000 I-1.550 J0.000 F30000.000
G1 X35.096 Y33.596 Z9.500 F24000.000
G3 X34.000 Y34.050 Z9.500 I-1.096 J-1.096 F30000.000
G1 X-34.000 Y34.050 Z9.500 F30000.000
G3 X-35.550 Y32.500 Z9.500 I-0.000 J-1.550 F30000.000
G1 X-35.550 Y-21.200 Z9.500 F30000.000
G3 X-34.000 Y-22.750 Z9.500 I1.550 J-0.000 F30000.000
G1 X34.000 Y-22.750 Z9.500 F30000.000
G3 X35.550 Y-21.200 Z9.500 I0.000 J1.550 F30000.000
G1 X35.550 Y32.500 Z9.500 F30000.000
G3 X35.096 Y33.596 Z9.500 I-1.550 J0.000 F30000.000
G1 X35.096 Y33.596 Z9.000 F24000.000
G3 X34.000 Y34.050 Z9.000 I-1.096 J-1.096 F30000.000
G1 X-34.000 Y34.050 Z9.000 F30000.000
G3 X-35.550 Y32.500 Z9.000 I-0.000 J-1.550 F30000.000
G1 X-35.550 Y-21.200 Z9.000 F30000.000
G3 X-34.000 Y-22.750 Z9.000 I1.550 J-0.000 F30000.000
G1 X34.000 Y-22.750 Z9.000 F30000.000
G3 X35.550 Y-21.200 Z9.000 I0.000 J1.550 F30000.000
G1 X35.550 Y32.500 Z9.000 F30000.000
G3 X35.096 Y33.596 Z9.000 I-1.550 J0.000 F30000.000
G1 X35.096 Y33.596 Z8.500 F24000.000
G3 X34.000 Y34.050 Z8.500 I-1.096 J-1.096 F30000.000
G1 X-34.000 Y34.050 Z8.500 F30000.000
G3 X-35.550 Y32.500 Z8.500 I-0.000 J-1.550 F30000.000
G1 X-35.550 Y-21.200 Z8.500 F30000.000
G3 X-34.000 Y-22.750 Z8.500 I1.550 J-0.000 F30000.000
G1 X34.000 Y-22.750 Z8.500 F30000.000
G3 X35.550 Y-21.200 Z8.500 I0.000 J1.550 F30000.000
G1 X35.550 Y32.500 Z8.500 F30000.000
G3 X35.096 Y33.596 Z8.500 I-1.550 J0.000 F30000.000
G1 X35.096 Y33.596 Z8.000 F24000.000
G3 X34.000 Y34.050 Z8.000 I-1.096 J-1.096 F30000.000
G1 X-34.000 Y34.050 Z8.000 F30000.000
G3 X-35.550 Y32.500 Z8.000 I-0.000 J-1.550 F30000.000
G1 X-35.550 Y-21.200 Z8.000 F30000.000
G3 X-34.000 Y-22.750 Z8.000 I1.550 J-0.000 F30000.000
G1 X34.000 Y-22.750 Z8.000 F30000.000
G3 X35.550 Y-21.200 Z8.000 I0.000 J1.550 F30000.000
G1 X35.550 Y32.500 Z8.000 F30000.000
G3 X35.096 Y33.596 Z8.000 I-1.550 J0.000 F30000.000
G1 X35.096 Y33.596 Z7.500 F24000.000
G3 X34.000 Y34.050 Z7.500 I-1.096 J-1.096 F30000.000
G1 X-34.000 Y34.050 Z7.500 F30000.000
G3 X-35.550 Y32.500 Z7.500 I-0.000 J-1.550 F30000.000
G1 X-35.550 Y-21.200 Z7.500 F30000.000
G3 X-34.000 Y-22.750 Z7.500 I1.550 J-0.000 F30000.000
G1 X34.000 Y-22.750 Z7.500 F30000.000
G3 X35.550 Y-21.200 Z7.500 I0.000 J1.550 F30000.000
G1 X35.550 Y32.500 Z7.500 F30000.000
G3 X35.096 Y33.596 Z7.500 I-1.550 J0.000 F30000.000
G1 X35.096 Y33.596 Z7.000 F24000.000
G3 X34.000 Y34.050 Z7.000 I-1.096 J-1.096 F30000.000
G1 X-34.000 Y34.050 Z7.000 F30000.000
G3 X-35.550 Y32.500 Z7.000 I-0.000 J-1.550 F30000.000
G1 X-35.550 Y-21.200 Z7.000 F30000.000
G3 X-34.000 Y-22.750 Z7.000 I1.550 J-0.000 F30000.000
G1 X34.000 Y-22.750 Z7.000 F30000.000
G3 X35.550 Y-21.200 Z7.000 I0.000 J1.550 F30000.000
G1 X35.550 Y32.500 Z7.000 F30000.000
G3 X35.096 Y33.596 Z7.000 I-1.550 J0.000 F30000.000
G1 X35.096 Y33.596 Z6.500 F24000.000
G3 X34.000 Y34.050 Z6.500 I-1.096 J-1.096 F30000.000
G1 X-34.000 Y34.050 Z6.500 F30000.000
G3 X-35.550 Y32.500 Z6.500 I-0.000 J-1.550 F30000.000
G1 X-35.550 Y-21.200 Z6.500 F30000.000
G3 X-34.000 Y-22.750 Z6.500 I1.550 J-0.000 F30000.000
G1 X34.000 Y-22.750 Z6.500 F30000.000
G3 X35.550 Y-21.200 Z6.500 I0.000 J1.550 F30000.000
G1 X35.550 Y32.500 Z6.500 F30000.000
G3 X35.096 Y33.596 Z6.500 I-1.550 J0.000 F30000.000
G1 X35.096 Y33.596 Z6.000 F24000.000
G3 X34.000 Y34.050 Z6.000 I-1.096 J-1.096 F30000.000
G1 X-34.000 Y34.050 Z6.000 F30000.000
G3 X-35.550 Y32.500 Z6.000 I-0.000 J-1.550 F30000.000
G1 X-35.550 Y-21.200 Z6.000 F30000.000
G3 X-34.000 Y-22.750 Z6.000 I1.550 J-0.000 F30000.000
G1 X34.000 Y-22.750 Z6.000 F30000.000
G3 X35.550 Y-21.200 Z6.000 I0.000 J1.550 F30000.000
G1 X35.550 Y32.500 Z6.000 F30000.000
G3 X35.096 Y33.596 Z6.000 I-1.550 J0.000 F30000.000
G1 X35.096 Y33.596 Z5.500 F24000.000
G3 X34.000 Y34.050 Z5.500 I-1.096 J-1.096 F30000.000
G1 X-34.000 Y34.050 Z5.500 F30000.000
G3 X-35.550 Y32.500 Z5.500 I-0.000 J-1.550 F30000.000
G1 X-35.550 Y-21.200 Z5.500 F30000.000
G3 X-34.000 Y-22.750 Z5.500 I1.550 J-0.000 F30000.000
G1 X34.000 Y-22.750 Z5.500 F30000.000
G3 X35.550 Y-21.200 Z5.500 I0.000 J1.550 F30000.000
G1 X35.550 Y32.500 Z5.500 F30000.000
G3 X35.096 Y33.596 Z5.500 I-1.550 J0.000 F30000.000
G1 X35.096 Y33.596 Z5.000 F24000.000
G3 X34.000 Y34.050 Z5.000 I-1.096 J-1.096 F30000.000
G1 X-34.000 Y34.050 Z5.000 F30000.000
G3 X-35.550 Y32.500 Z5.000 I-0.000 J-1.550 F30000.000
G1 X-35.550 Y-21.200 Z5.000 F30000.000
G3 X-34.000 Y-22.750 Z5.000 I1.550 J-0.000 F30000.000
G1 X34.000 Y-22.750 Z5.000 F30000.000
G3 X35.550 Y-21.200 Z5.000 I0.000 J1.550 F30000.000
G1 X35.550 Y32.500 Z5.000 F30000.000
G3 X35.096 Y33.596 Z5.000 I-1.550 J0.000 F30000.000
G1 X35.096 Y33.596 Z4.500 F24000.000
G3 X34.000 Y34.050 Z4.500 I-1.096 J-1.096 F30000.000
G1 X17.198 Y34.050 Z4.500 F30000.000
G1 X17.000 Y34.050 Z4.700 F26980.997
G1 X16.802 Y34.050 Z4.500 F26980.997
G1 X-16.802 Y34.050 Z4.500 F30000.000
G1 X-17.000 Y34.050 Z4.700 F26980.997
G1 X-17.198 Y34.050 Z4.500 F26980.997
G1 X-34.000 Y34.050 Z4.500 F30000.000
G3 X-35.550 Y32.500 Z4.500 I-0.000 J-1.550 F30000.000
G1 X-35.550 Y-21.200 Z4.500 F30000.000
G3 X-34.000 Y-22.750 Z4.500 I1.550 J-0.000 F30000.000
G1 X-17.198 Y-22.750 Z4.500 F30000.000
G1 X-17.000 Y-22.750 Z4.700 F26980.997
G1 X-16.802 Y-22.750 Z4.500 F26980.997
G1 X16.802 Y-22.750 Z4.500 F30000.000
G1 X17.000 Y-22.750 Z4.700 F26980.997
G1 X17.198 Y-22.750 Z4.500 F26980.997
G1 X34.000 Y-22.750 Z4.500 F30000.000
G3 X35.550 Y-21.200 Z4.500 I0.000 J1.550 F30000.000
G1 X35.550 Y32.500 Z4.500 F30000.000
G3 X35.096 Y33.596 Z4.500 I-1.550 J0.000 F30000.000
G1 X35.096 Y33.596 Z4.000 F24000.000
G3 X34.000 Y34.050 Z4.000 I-1.096 J-1.096 F30000.000
G1 X17.693 Y34.050 Z4.000 F30000.000
G1 X17.000 Y34.050 Z4.700 F26980.997
G1 X16.307 Y34.050 Z4.000 F26980.997
G1 X-16.307 Y34.050 Z4.000 F30000.000
G1 X-17.000 Y34.050 Z4.700 F26980.997
G1 X-17.693 Y34.050 Z4.000 F26980.997
G1 X-34.000 Y34.050 Z4.000 F30000.000
G3 X-35.550 Y32.500 Z4.000 I-0.000 J-1.550 F30000.000
G1 X-35.550 Y-21.200 Z4.000 F30000.000
G3 X-34.000 Y-22.750 Z4.000 I1.550 J-0.000 F30000.000
G1 X-17.693 Y-22.750 Z4.000 F30000.000
G1 X-17.000 Y-22.750 Z4.700 F26980.997
G1 X-16.307 Y-22.750 Z4.000 F26980.997
G1 X16.307 Y-22.750 Z4.000 F30000.000
G1 X17.000 Y-22.750 Z4.700 F26980.997
G1 X17.693 Y-22.750 Z4.000 F26980.997
G1 X34.000 Y-22.750 Z4.000 F30000.000
G3 X35.550 Y-21.200 Z4.000 I0.000 J1.550 F30000.000
G1 X35.550 Y32.500 Z4.000 F30000.000
G3 X35.096 Y33.596 Z4.000 I-1.550 J0.000 F30000.000
G1 X35.096 Y33.596 Z3.500 F24000.000
G3 X34.000 Y34.050 Z3.500 I-1.096 J-1.096 F30000.000
G1 X18.188 Y34.050 Z3.500 F30000.000
G1 X17.000 Y34.050 Z4.700 F26980.997
G1 X15.812 Y34.050 Z3.500 F26980.997
G1 X-15.812 Y34.050 Z3.500 F30000.000
G1 X-17.000 Y34.050 Z4.700 F26980.997
G1 X-18.188 Y34.050 Z3.500 F26980.997
G1 X-34.000 Y34.050 Z3.500 F30000.000
G3 X-35.550 Y32.500 Z3.500 I-0.000 J-1.550 F30000.000
G1 X-35.550 Y-21.200 Z3.500 F30000.000
G3 X-34.000 Y-22.750 Z3.500 I1.550 J-0.000 F30000.000
G1 X-18.188 Y-22.750 Z3.500 F30000.000
G1 X-17.000 Y-22.750 Z4.700 F26980.997
G1 X-15.812 Y-22.750 Z3.500 F26980.997
G1 X15.812 Y-22.750 Z3.500 F30000.000
G1 X17.000 Y-22.750 Z4.700 F26980.997
G1 X18.188 Y-22.750 Z3.500 F26980.997
G1 X34.000 Y-22.750 Z3.500 F30000.000
G3 X35.550 Y-21.200 Z3.500 I0.000 J1.550 F30000.000
G1 X35.550 Y32.500 Z3.500 F30000.000
G3 X35.096 Y33.596 Z3.500 I-1.550 J0.000 F30000.000
G1 X35.096 Y33.596 Z3.000 F24000.000
G3 X34.000 Y34.050 Z3.000 I-1.096 J-1.096 F30000.000
G1 X18.683 Y34.050 Z3.000 F30000.000
G1 X17.000 Y34.050 Z4.700 F26980.997
G1 X15.317 Y34.050 Z3.000 F26980.997
G1 X-15.317 Y34.050 Z3.000 F30000.000
G1 X-17.000 Y34.050 Z4.700 F26980.997
G1 X-18.683 Y34.050 Z3.000 F26980.997
G1 X-34.000 Y34.050 Z3.000 F30000.000
G3 X-35.550 Y32.500 Z3.000 I-0.000 J-1.550 F30000.000
G1 X-35.550 Y-21.200 Z3.000 F30000.000
G3 X-34.000 Y-22.750 Z3.000 I1.550 J-0.000 F30000.000
G1 X-18.683 Y-22.750 Z3.000 F30000.000
G1 X-17.000 Y-22.750 Z4.700 F26980.997
G1 X-15.317 Y-22.750 Z3.000 F26980.997
G1 X15.317 Y-22.750 Z3.000 F30000.000
G1 X17.000 Y-22.750 Z4.700 F26980.997
G1 X18.683 Y-22.750 Z3.000 F26980.997
G1 X34.000 Y-22.750 Z3.000 F30000.000
G3 X35.550 Y-21.200 Z3.000 I0.000 J1.550 F30000.000
G1 X35.550 Y32.500 Z3.000 F30000.000
G3 X35.096 Y33.596 Z3.000 I-1.550 J0.000 F30000.000
G1 X35.096 Y33.596 Z2.500 F24000.000
G3 X34.000 Y34.050 Z2.500 I-1.096 J-1.096 F30000.000
G1 X19.178 Y34.050 Z2.500 F30000.000
G1 X17.000 Y34.050 Z4.700 F26980.997
G1 X14.822 Y34.050 Z2.500 F26980.997
G1 X-14.822 Y34.050 Z2.500 F30000.000
G1 X-17.000 Y34.050 Z4.700 F26980.997
G1 X-19.178 Y34.050 Z2.500 F26980.997
G1 X-34.000 Y34.050 Z2.500 F30000.000
G3 X-35.550 Y32.500 Z2.500 I-0.000 J-1.550 F30000.000
G1 X-35.550 Y-21.200 Z2.500 F30000.000
G3 X-34.000 Y-22.750 Z2.500 I1.550 J-0.000 F30000.000
G1 X-19.178 Y-22.750 Z2.500 F30000.000
G1 X-17.000 Y-22.750 Z4.700 F26980.997
G1 X-14.822 Y-22.750 Z2.500 F26980.997
G1 X14.822 Y-22.750 Z2.500 F30000.000
G1 X17.000 Y-22.750 Z4.700 F26980.997
G1 X19.178 Y-22.750 Z2.500 F26980.997
G1 X34.000 Y-22.750 Z2.500 F30000.000
G3 X35.550 Y-21.200 Z2.500 I0.000 J1.550 F30000.000
G1 X35.550 Y32.500 Z2.500 F30000.000
G3 X35.096 Y33.596 Z2.500 I-1.550 J0.000 F30000.000
G1 X35.096 Y33.596 Z2.000 F24000.000
G3 X34.000 Y34.050 Z2.000 I-1.096 J-1.096 F30000.000
G1 X19.673 Y34.050 Z2.000 F30000.000
G1 X17.000 Y34.050 Z4.700 F26980.997
G1 X14.327 Y34.050 Z2.000 F26980.997
G1 X-14.327 Y34.050 Z2.000 F30000.000
G1 X-17.000 Y34.050 Z4.700 F26980.997
G1 X-19.673 Y34.050 Z2.000 F26980.997
G1 X-34.000 Y34.050 Z2.000 F30000.000
G3 X-35.550 Y32.500 Z2.000 I-0.000 J-1.550 F30000.000
G1 X-35.550 Y-21.200 Z2.000 F30000.000
G3 X-34.000 Y-22.750 Z2.000 I1.550 J-0.000 F30000.000
G1 X-19.673 Y-22.750 Z2.000 F30000.000
G1 X-17.000 Y-22.750 Z4.700 F26980.997
G1 X-14.327 Y-22.750 Z2.000 F26980.997
G1 X14.327 Y-22.750 Z2.000 F30000.000
G1 X17.000 Y-22.750 Z4.700 F26980.997
G1 X19.673 Y-22.750 Z2.000 F26980.997
G1 X34.000 Y-22.750 Z2.000 F30000.000
G3 X35.550 Y-21.200 Z2.000 I0.000 J1.550 F30000.000
G1 X35.550 Y32.500 Z2.000 F30000.000
G3 X35.096 Y33.596 Z2.000 I-1.550 J0.000 F30000.000
G1 X35.096 Y33.596 Z1.500 F24000.000
G3 X34.000 Y34.050 Z1.500 I-1.096 J-1.096 F30000.000
G1 X20.168 Y34.050 Z1.500 F30000.000
G1 X17.000 Y34.050 Z4.700 F26980.997
G1 X13.832 Y34.050 Z1.500 F26980.997
G1 X-13.832 Y34.050 Z1.500 F30000.000
G1 X-17.000 Y34.050 Z4.700 F26980.997
G1 X-20.168 Y34.050 Z1.500 F26980.997
G1 X-34.000 Y34.050 Z1.500 F30000.000
G3 X-35.550 Y32.500 Z1.500 I-0.000 J-1.550 F30000.000
G1 X-35.550 Y-21.200 Z1.500 F30000.000
G3 X-34.000 Y-22.750 Z1.500 I1.550 J-0.000 F30000.000
G1 X-20.168 Y-22.750 Z1.500 F30000.000
G1 X-17.000 Y-22.750 Z4.700 F26980.997
G1 X-13.832 Y-22.750 Z1.500 F26980.997
G1 X13.832 Y-22.750 Z1.500 F30000.000
G1 X17.000 Y-22.750 Z4.700 F26980.997
G1 X20.168 Y-22.750 Z1.500 F26980.997
G1 X34.000 Y-22.750 Z1.500 F30000.000
G3 X35.550 Y-21.200 Z1.500 I0.000 J1.550 F30000.000
G1 X35.550 Y32.500 Z1.500 F30000.000
G3 X35.096 Y33.596 Z1.500 I-1.550 J0.000 F30000.000
G1 X35.096 Y33.596 Z1.000 F24000.000
G3 X34.000 Y34.050 Z1.000 I-1.096 J-1.096 F30000.000
G1 X20.663 Y34.050 Z1.000 F30000.000
G1 X17.000 Y34.050 Z4.700 F26980.997
G1 X13.337 Y34.050 Z1.000 F26980.997
G1 X-13.337 Y34.050 Z1.000 F30000.000
G1 X-17.000 Y34.050 Z4.700 F26980.997
G1 X-20.663 Y34.050 Z1.000 F26980.997
G1 X-34.000 Y34.050 Z1.000 F30000.000
G3 X-35.550 Y32.500 Z1.000 I-0.000 J-1.550 F30000.000
G1 X-35.550 Y-21.200 Z1.000 F30000.000
G3 X-34.000 Y-22.750 Z1.000 I1.550 J-0.000 F30000.000
G1 X-20.663 Y-22.750 Z1.000 F30000.000
G1 X-17.000 Y-22.750 Z4.700 F26980.997
G1 X-13.337 Y-22.750 Z1.000 F26980.997
G1 X13.337 Y-22.750 Z1.000 F30000.000
G1 X17.000 Y-22.750 Z4.700 F26980.997
G1 X20.663 Y-22.750 Z1.000 F26980.997
G1 X34.000 Y-22.750 Z1.000 F30000.000
G3 X35.550 Y-21.200 Z1.000 I0.000 J1.550 F30000.000
G1 X35.550 Y32.500 Z1.000 F30000.000
G3 X35.096 Y33.596 Z1.000 I-1.550 J0.000 F30000.000
G1 X35.096 Y33.596 Z0.500 F24000.000
G3 X34.000 Y34.050 Z0.500 I-1.096 J-1.096 F30000.000
G1 X21.158 Y34.050 Z0.500 F30000.000
G1 X17.000 Y34.050 Z4.700 F26980.997
G1 X12.842 Y34.050 Z0.500 F26980.997
G1 X-12.842 Y34.050 Z0.500 F30000.000
G1 X-17.000 Y34.050 Z4.700 F26980.997
G1 X-21.158 Y34.050 Z0.500 F26980.997
G1 X-34.000 Y34.050 Z0.500 F30000.000
G3 X-35.550 Y32.500 Z0.500 I-0.000 J-1.550 F30000.000
G1 X-35.550 Y-21.200 Z0.500 F30000.000
G3 X-34.000 Y-22.750 Z0.500 I1.550 J-0.000 F30000.000
G1 X-21.158 Y-22.750 Z0.500 F30000.000
G1 X-17.000 Y-22.750 Z4.700 F26980.997
G1 X-12.842 Y-22.750 Z0.500 F26980.997
G1 X12.842 Y-22.750 Z0.500 F30000.000
G1 X17.000 Y-22.750 Z4.700 F26980.997
G1 X21.158 Y-22.750 Z0.500 F26980.997
G1 X34.000 Y-22.750 Z0.500 F30000.000
G3 X35.550 Y-21.200 Z0.500 I0.000 J1.550 F30000.000
G1 X35.550 Y32.500 Z0.500 F30000.000
G3 X35.096 Y33.596 Z0.500 I-1.550 J0.000 F30000.000
G1 X35.096 Y33.596 Z0.000 F24000.000
G3 X34.000 Y34.050 Z0.000 I-1.096 J-1.096 F30000.000
G1 X21.653 Y34.050 Z0.000 F30000.000
G1 X17.000 Y34.050 Z4.700 F26980.997
G1 X12.347 Y34.050 Z0.000 F26980.997
G1 X-12.347 Y34.050 Z0.000 F30000.000
G1 X-17.000 Y34.050 Z4.700 F26980.997
G1 X-21.653 Y34.050 Z0.000 F26980.997
G1 X-34.000 Y34.050 Z0.000 F30000.000
G3 X-35.550 Y32.500 Z0.000 I-0.000 J-1.550 F30000.000
G1 X-35.550 Y-21.200 Z0.000 F30000.000
G3 X-34.000 Y-22.750 Z0.000 I1.550 J-0.000 F30000.000
G1 X-21.653 Y-22.750 Z0.000 F30000.000
G1 X-17.000 Y-22.750 Z4.700 F26980.997
G1 X-12.347 Y-22.750 Z0.000 F26980.997
G1 X12.347 Y-22.750 Z0.000 F30000.000
G1 X17.000 Y-22.750 Z4.700 F26980.997
G1 X21.653 Y-22.750 Z0.000 F26980.997
G1 X34.000 Y-22.750 Z0.000 F30000.000
G3 X35.550 Y-21.200 Z0.000 I0.000 J1.550 F30000.000
G1 X35.550 Y32.500 Z0.000 F30000.000
G3 X35.096 Y33.596 Z0.000 I-1.550 J0.000 F30000.000
G1 X35.096 Y33.596 Z-0.250 F24000.000
G3 X34.000 Y34.050 Z-0.250 I-1.096 J-1.096 F30000.000
G1 X21.901 Y34.050 Z-0.250 F30000.000
G1 X17.000 Y34.050 Z4.700 F26980.997
G1 X12.100 Y34.050 Z-0.250 F26980.997
G1 X-12.099 Y34.050 Z-0.250 F30000.000
G1 X-17.000 Y34.050 Z4.700 F26980.997
G1 X-21.901 Y34.050 Z-0.250 F26980.997
G1 X-34.000 Y34.050 Z-0.250 F30000.000
G3 X-35.550 Y32.500 Z-0.250 I-0.000 J-1.550 F30000.000
G1 X-35.550 Y-21.200 Z-0.250 F30000.000
G3 X-34.000 Y-22.750 Z-0.250 I1.550 J-0.000 F30000.000
G1 X-21.901 Y-22.750 Z-0.250 F30000.000
G1 X-17.000 Y-22.750 Z4.700 F26980.997
G1 X-12.100 Y-22.750 Z-0.250 F26980.997
G1 X12.099 Y-22.750 Z-0.250 F30000.000
G1 X17.000 Y-22.750 Z4.700 F26980.997
G1 X21.901 Y-22.750 Z-0.250 F26980.997
G1 X34.000 Y-22.750 Z-0.250 F30000.000
G3 X35.550 Y-21.200 Z-0.250 I0.000 J1.550 F30000.000
G1 X35.550 Y32.500 Z-0.250 F30000.000
G3 X35.096 Y33.596 Z-0.250 I-1.550 J0.000 F30000.000
G0 X35.096 Y33.596 Z20.000
(finish operation: TopTagged)
(begin postamble)
M05 M09
G17 G90 G80 G40
M30
