(Exported by FreeCAD)
(Post Processor: KineticNCBeamicon2_post)
(Output Time:2024-09-03 17:14:03.346289)
(begin preamble)
%
G17 G21 G40 G49 G80 G90
M08
G21
(begin operation: Fixture)
(machine: not set, mm/min)
G54
(finish operation: Fixture)
(begin operation: 3.1)
(machine: not set, mm/min)
(3.1)
M05
M09M6 T1
M3 S25000
(finish operation: 3.1)
(begin operation: Hole)
(machine: not set, mm/min)
(Profile)
(Compensated Tool Path. Diameter: 3.1)
G0 Z20.000
G0 X4.560 Y4.560
G0 Z18.000
G1 X4.560 Y4.560 Z12.500 F24000.000
G2 X1.258 Y-6.324 Z12.500 I-4.560 J-4.560 F30000.000
G2 X-1.258 Y6.324 Z12.500 I-1.258 J6.324 F30000.000
G2 X4.560 Y4.560 Z12.500 I1.258 J-6.324 F30000.000
G1 X4.560 Y4.560 Z12.000 F24000.000
G2 X1.258 Y-6.324 Z12.000 I-4.560 J-4.560 F30000.000
G2 X-1.258 Y6.324 Z12.000 I-1.258 J6.324 F30000.000
G2 X4.560 Y4.560 Z12.000 I1.258 J-6.324 F30000.000
G1 X4.560 Y4.560 Z11.500 F24000.000
G2 X1.258 Y-6.324 Z11.500 I-4.560 J-4.560 F30000.000
G2 X-1.258 Y6.324 Z11.500 I-1.258 J6.324 F30000.000
G2 X4.560 Y4.560 Z11.500 I1.258 J-6.324 F30000.000
G1 X4.560 Y4.560 Z11.000 F24000.000
G2 X1.258 Y-6.324 Z11.000 I-4.560 J-4.560 F30000.000
G2 X-1.258 Y6.324 Z11.000 I-1.258 J6.324 F30000.000
G2 X4.560 Y4.560 Z11.000 I1.258 J-6.324 F30000.000
G1 X4.560 Y4.560 Z10.500 F24000.000
G2 X1.258 Y-6.324 Z10.500 I-4.560 J-4.560 F30000.000
G2 X-1.258 Y6.324 Z10.500 I-1.258 J6.324 F30000.000
G2 X4.560 Y4.560 Z10.500 I1.258 J-6.324 F30000.000
G1 X4.560 Y4.560 Z10.000 F24000.000
G2 X1.258 Y-6.324 Z10.000 I-4.560 J-4.560 F30000.000
G2 X-1.258 Y6.324 Z10.000 I-1.258 J6.324 F30000.000
G2 X4.560 Y4.560 Z10.000 I1.258 J-6.324 F30000.000
G1 X4.560 Y4.560 Z9.500 F24000.000
G2 X1.258 Y-6.324 Z9.500 I-4.560 J-4.560 F30000.000
G2 X-1.258 Y6.324 Z9.500 I-1.258 J6.324 F30000.000
G2 X4.560 Y4.560 Z9.500 I1.258 J-6.324 F30000.000
G1 X4.560 Y4.560 Z9.000 F24000.000
G2 X1.258 Y-6.324 Z9.000 I-4.560 J-4.560 F30000.000
G2 X-1.258 Y6.324 Z9.000 I-1.258 J6.324 F30000.000
G2 X4.560 Y4.560 Z9.000 I1.258 J-6.324 F30000.000
G1 X4.560 Y4.560 Z8.500 F24000.000
G2 X1.258 Y-6.324 Z8.500 I-4.560 J-4.560 F30000.000
G2 X-1.258 Y6.324 Z8.500 I-1.258 J6.324 F30000.000
G2 X4.560 Y4.560 Z8.500 I1.258 J-6.324 F30000.000
G1 X4.560 Y4.560 Z8.000 F24000.000
G2 X1.258 Y-6.324 Z8.000 I-4.560 J-4.560 F30000.000
G2 X-1.258 Y6.324 Z8.000 I-1.258 J6.324 F30000.000
G2 X4.560 Y4.560 Z8.000 I1.258 J-6.324 F30000.000
G1 X4.560 Y4.560 Z7.500 F24000.000
G2 X1.258 Y-6.324 Z7.500 I-4.560 J-4.560 F30000.000
G2 X-1.258 Y6.324 Z7.500 I-1.258 J6.324 F30000.000
G2 X4.560 Y4.560 Z7.500 I1.258 J-6.324 F30000.000
G1 X4.560 Y4.560 Z7.000 F24000.000
G2 X1.258 Y-6.324 Z7.000 I-4.560 J-4.560 F30000.000
G2 X-1.258 Y6.324 Z7.000 I-1.258 J6.324 F30000.000
G2 X4.560 Y4.560 Z7.000 I1.258 J-6.324 F30000.000
G1 X4.560 Y4.560 Z6.500 F24000.000
G2 X1.258 Y-6.324 Z6.500 I-4.560 J-4.560 F30000.000
G2 X-1.258 Y6.324 Z6.500 I-1.258 J6.324 F30000.000
G2 X4.560 Y4.560 Z6.500 I1.258 J-6.324 F30000.000
G1 X4.560 Y4.560 Z6.000 F24000.000
G2 X1.258 Y-6.324 Z6.000 I-4.560 J-4.560 F30000.000
G2 X-1.258 Y6.324 Z6.000 I-1.258 J6.324 F30000.000
G2 X4.560 Y4.560 Z6.000 I1.258 J-6.324 F30000.000
G1 X4.560 Y4.560 Z5.500 F24000.000
G2 X1.258 Y-6.324 Z5.500 I-4.560 J-4.560 F30000.000
G2 X-1.258 Y6.324 Z5.500 I-1.258 J6.324 F30000.000
G2 X4.560 Y4.560 Z5.500 I1.258 J-6.324 F30000.000
G1 X4.560 Y4.560 Z5.000 F24000.000
G2 X1.258 Y-6.324 Z5.000 I-4.560 J-4.560 F30000.000
G2 X-1.258 Y6.324 Z5.000 I-1.258 J6.324 F30000.000
G2 X4.560 Y4.560 Z5.000 I1.258 J-6.324 F30000.000
G1 X4.560 Y4.560 Z4.500 F24000.000
G2 X1.258 Y-6.324 Z4.500 I-4.560 J-4.560 F30000.000
G2 X-1.258 Y6.324 Z4.500 I-1.258 J6.324 F30000.000
G2 X4.560 Y4.560 Z4.500 I1.258 J-6.324 F30000.000
G1 X4.560 Y4.560 Z4.000 F24000.000
G2 X1.258 Y-6.324 Z4.000 I-4.560 J-4.560 F30000.000
G2 X-1.258 Y6.324 Z4.000 I-1.258 J6.324 F30000.000
G2 X4.560 Y4.560 Z4.000 I1.258 J-6.324 F30000.000
G1 X4.560 Y4.560 Z3.500 F24000.000
G2 X1.258 Y-6.324 Z3.500 I-4.560 J-4.560 F30000.000
G2 X-1.258 Y6.324 Z3.500 I-1.258 J6.324 F30000.000
G2 X4.560 Y4.560 Z3.500 I1.258 J-6.324 F30000.000
G1 X4.560 Y4.560 Z3.000 F24000.000
G2 X1.258 Y-6.324 Z3.000 I-4.560 J-4.560 F30000.000
G2 X-1.258 Y6.324 Z3.000 I-1.258 J6.324 F30000.000
G2 X4.560 Y4.560 Z3.000 I1.258 J-6.324 F30000.000
G1 X4.560 Y4.560 Z2.500 F24000.000
G2 X1.258 Y-6.324 Z2.500 I-4.560 J-4.560 F30000.000
G2 X-1.258 Y6.324 Z2.500 I-1.258 J6.324 F30000.000
G2 X4.560 Y4.560 Z2.500 I1.258 J-6.324 F30000.000
G1 X4.560 Y4.560 Z2.000 F24000.000
G2 X1.258 Y-6.324 Z2.000 I-4.560 J-4.560 F30000.000
G2 X-1.258 Y6.324 Z2.000 I-1.258 J6.324 F30000.000
G2 X4.560 Y4.560 Z2.000 I1.258 J-6.324 F30000.000
G1 X4.560 Y4.560 Z1.500 F24000.000
G2 X1.258 Y-6.324 Z1.500 I-4.560 J-4.560 F30000.000
G2 X-1.258 Y6.324 Z1.500 I-1.258 J6.324 F30000.000
G2 X4.560 Y4.560 Z1.500 I1.258 J-6.324 F30000.000
G1 X4.560 Y4.560 Z1.000 F24000.000
G2 X1.258 Y-6.324 Z1.000 I-4.560 J-4.560 F30000.000
G2 X-1.258 Y6.324 Z1.000 I-1.258 J6.324 F30000.000
G2 X4.560 Y4.560 Z1.000 I1.258 J-6.324 F30000.000
G1 X4.560 Y4.560 Z0.500 F24000.000
G2 X1.258 Y-6.324 Z0.500 I-4.560 J-4.560 F30000.000
G2 X-1.258 Y6.324 Z0.500 I-1.258 J6.324 F30000.000
G2 X4.560 Y4.560 Z0.500 I1.258 J-6.324 F30000.000
G1 X4.560 Y4.560 Z0.000 F24000.000
G2 X1.258 Y-6.324 Z0.000 I-4.560 J-4.560 F30000.000
G2 X-1.258 Y6.324 Z0.000 I-1.258 J6.324 F30000.000
G2 X4.560 Y4.560 Z0.000 I1.258 J-6.324 F30000.000
G1 X4.560 Y4.560 Z-0.250 F24000.000
G2 X1.258 Y-6.324 Z-0.250 I-4.560 J-4.560 F30000.000
G2 X-1.258 Y6.324 Z-0.250 I-1.258 J6.324 F30000.000
G2 X4.560 Y4.560 Z-0.250 I1.258 J-6.324 F30000.000
G0 Z20.000
G0 Z20.000
(finish operation: Hole)
(begin operation: DressupTag)
(machine: not set, mm/min)
G0 Z20.000
G0 X35.096 Y19.096 Z20.000
G0 X35.096 Y19.096 Z18.000
G1 X35.096 Y19.096 Z12.500 F24000.000
G3 X34.000 Y19.550 Z12.500 I-1.096 J-1.096 F30000.000
G1 X-34.000 Y19.550 Z12.500 F30000.000
G3 X-35.550 Y18.000 Z12.500 I0.000 J-1.550 F30000.000
G1 X-35.550 Y-18.000 Z12.500 F30000.000
G3 X-34.000 Y-19.550 Z12.500 I1.550 J0.000 F30000.000
G1 X34.000 Y-19.550 Z12.500 F30000.000
G3 X35.550 Y-18.000 Z12.500 I0.000 J1.550 F30000.000
G1 X35.550 Y18.000 Z12.500 F30000.000
G3 X35.096 Y19.096 Z12.500 I-1.550 J0.000 F30000.000
G1 X35.096 Y19.096 Z12.000 F24000.000
G3 X34.000 Y19.550 Z12.000 I-1.096 J-1.096 F30000.000
G1 X-34.000 Y19.550 Z12.000 F30000.000
G3 X-35.550 Y18.000 Z12.000 I0.000 J-1.550 F30000.000
G1 X-35.550 Y-18.000 Z12.000 F30000.000
G3 X-34.000 Y-19.550 Z12.000 I1.550 J0.000 F30000.000
G1 X34.000 Y-19.550 Z12.000 F30000.000
G3 X35.550 Y-18.000 Z12.000 I0.000 J1.550 F30000.000
G1 X35.550 Y18.000 Z12.000 F30000.000
G3 X35.096 Y19.096 Z12.000 I-1.550 J0.000 F30000.000
G1 X35.096 Y19.096 Z11.500 F24000.000
G3 X34.000 Y19.550 Z11.500 I-1.096 J-1.096 F30000.000
G1 X-34.000 Y19.550 Z11.500 F30000.000
G3 X-35.550 Y18.000 Z11.500 I0.000 J-1.550 F30000.000
G1 X-35.550 Y-18.000 Z11.500 F30000.000
G3 X-34.000 Y-19.550 Z11.500 I1.550 J0.000 F30000.000
G1 X34.000 Y-19.550 Z11.500 F30000.000
G3 X35.550 Y-18.000 Z11.500 I0.000 J1.550 F30000.000
G1 X35.550 Y18.000 Z11.500 F30000.000
G3 X35.096 Y19.096 Z11.500 I-1.550 J0.000 F30000.000
G1 X35.096 Y19.096 Z11.000 F24000.000
G3 X34.000 Y19.550 Z11.000 I-1.096 J-1.096 F30000.000
G1 X-34.000 Y19.550 Z11.000 F30000.000
G3 X-35.550 Y18.000 Z11.000 I0.000 J-1.550 F30000.000
G1 X-35.550 Y-18.000 Z11.000 F30000.000
G3 X-34.000 Y-19.550 Z11.000 I1.550 J0.000 F30000.000
G1 X34.000 Y-19.550 Z11.000 F30000.000
G3 X35.550 Y-18.000 Z11.000 I0.000 J1.550 F30000.000
G1 X35.550 Y18.000 Z11.000 F30000.000
G3 X35.096 Y19.096 Z11.000 I-1.550 J0.000 F30000.000
G1 X35.096 Y19.096 Z10.500 F24000.000
G3 X34.000 Y19.550 Z10.500 I-1.096 J-1.096 F30000.000
G1 X-34.000 Y19.550 Z10.500 F30000.000
G3 X-35.550 Y18.000 Z10.500 I0.000 J-1.550 F30000.000
G1 X-35.550 Y-18.000 Z10.500 F30000.000
G3 X-34.000 Y-19.550 Z10.500 I1.550 J0.000 F30000.000
G1 X34.000 Y-19.550 Z10.500 F30000.000
G3 X35.550 Y-18.000 Z10.500 I0.000 J1.550 F30000.000
G1 X35.550 Y18.000 Z10.500 F30000.000
G3 X35.096 Y19.096 Z10.500 I-1.550 J0.000 F30000.000
G1 X35.096 Y19.096 Z10.000 F24000.000
G3 X34.000 Y19.550 Z10.000 I-1.096 J-1.096 F30000.000
G1 X-34.000 Y19.550 Z10.000 F30000.000
G3 X-35.550 Y18.000 Z10.000 I0.000 J-1.550 F30000.000
G1 X-35.550 Y-18.000 Z10.000 F30000.000
G3 X-34.000 Y-19.550 Z10.000 I1.550 J0.000 F30000.000
G1 X34.000 Y-19.550 Z10.000 F30000.000
G3 X35.550 Y-18.000 Z10.000 I0.000 J1.550 F30000.000
G1 X35.550 Y18.000 Z10.000 F30000.000
G3 X35.096 Y19.096 Z10.000 I-1.550 J0.000 F30000.000
G1 X35.096 Y19.096 Z9.500 F24000.000
G3 X34.000 Y19.550 Z9.500 I-1.096 J-1.096 F30000.000
G1 X-34.000 Y19.550 Z9.500 F30000.000
G3 X-35.550 Y18.000 Z9.500 I0.000 J-1.550 F30000.000
G1 X-35.550 Y-18.000 Z9.500 F30000.000
G3 X-34.000 Y-19.550 Z9.500 I1.550 J0.000 F30000.000
G1 X34.000 Y-19.550 Z9.500 F30000.000
G3 X35.550 Y-18.000 Z9.500 I0.000 J1.550 F30000.000
G1 X35.550 Y18.000 Z9.500 F30000.000
G3 X35.096 Y19.096 Z9.500 I-1.550 J0.000 F30000.000
G1 X35.096 Y19.096 Z9.000 F24000.000
G3 X34.000 Y19.550 Z9.000 I-1.096 J-1.096 F30000.000
G1 X-34.000 Y19.550 Z9.000 F30000.000
G3 X-35.550 Y18.000 Z9.000 I0.000 J-1.550 F30000.000
G1 X-35.550 Y-18.000 Z9.000 F30000.000
G3 X-34.000 Y-19.550 Z9.000 I1.550 J0.000 F30000.000
G1 X34.000 Y-19.550 Z9.000 F30000.000
G3 X35.550 Y-18.000 Z9.000 I0.000 J1.550 F30000.000
G1 X35.550 Y18.000 Z9.000 F30000.000
G3 X35.096 Y19.096 Z9.000 I-1.550 J0.000 F30000.000
G1 X35.096 Y19.096 Z8.500 F24000.000
G3 X34.000 Y19.550 Z8.500 I-1.096 J-1.096 F30000.000
G1 X-34.000 Y19.550 Z8.500 F30000.000
G3 X-35.550 Y18.000 Z8.500 I0.000 J-1.550 F30000.000
G1 X-35.550 Y-18.000 Z8.500 F30000.000
G3 X-34.000 Y-19.550 Z8.500 I1.550 J0.000 F30000.000
G1 X34.000 Y-19.550 Z8.500 F30000.000
G3 X35.550 Y-18.000 Z8.500 I0.000 J1.550 F30000.000
G1 X35.550 Y18.000 Z8.500 F30000.000
G3 X35.096 Y19.096 Z8.500 I-1.550 J0.000 F30000.000
G1 X35.096 Y19.096 Z8.000 F24000.000
G3 X34.000 Y19.550 Z8.000 I-1.096 J-1.096 F30000.000
G1 X-34.000 Y19.550 Z8.000 F30000.000
G3 X-35.550 Y18.000 Z8.000 I0.000 J-1.550 F30000.000
G1 X-35.550 Y-18.000 Z8.000 F30000.000
G3 X-34.000 Y-19.550 Z8.000 I1.550 J0.000 F30000.000
G1 X34.000 Y-19.550 Z8.000 F30000.000
G3 X35.550 Y-18.000 Z8.000 I0.000 J1.550 F30000.000
G1 X35.550 Y18.000 Z8.000 F30000.000
G3 X35.096 Y19.096 Z8.000 I-1.550 J0.000 F30000.000
G1 X35.096 Y19.096 Z7.500 F24000.000
G3 X34.000 Y19.550 Z7.500 I-1.096 J-1.096 F30000.000
G1 X-34.000 Y19.550 Z7.500 F30000.000
G3 X-35.550 Y18.000 Z7.500 I0.000 J-1.550 F30000.000
G1 X-35.550 Y-18.000 Z7.500 F30000.000
G3 X-34.000 Y-19.550 Z7.500 I1.550 J0.000 F30000.000
G1 X34.000 Y-19.550 Z7.500 F30000.000
G3 X35.550 Y-18.000 Z7.500 I0.000 J1.550 F30000.000
G1 X35.550 Y18.000 Z7.500 F30000.000
G3 X35.096 Y19.096 Z7.500 I-1.550 J0.000 F30000.000
G1 X35.096 Y19.096 Z7.000 F24000.000
G3 X34.000 Y19.550 Z7.000 I-1.096 J-1.096 F30000.000
G1 X-34.000 Y19.550 Z7.000 F30000.000
G3 X-35.550 Y18.000 Z7.000 I0.000 J-1.550 F30000.000
G1 X-35.550 Y-18.000 Z7.000 F30000.000
G3 X-34.000 Y-19.550 Z7.000 I1.550 J0.000 F30000.000
G1 X34.000 Y-19.550 Z7.000 F30000.000
G3 X35.550 Y-18.000 Z7.000 I0.000 J1.550 F30000.000
G1 X35.550 Y18.000 Z7.000 F30000.000
G3 X35.096 Y19.096 Z7.000 I-1.550 J0.000 F30000.000
G1 X35.096 Y19.096 Z6.500 F24000.000
G3 X34.000 Y19.550 Z6.500 I-1.096 J-1.096 F30000.000
G1 X-34.000 Y19.550 Z6.500 F30000.000
G3 X-35.550 Y18.000 Z6.500 I0.000 J-1.550 F30000.000
G1 X-35.550 Y-18.000 Z6.500 F30000.000
G3 X-34.000 Y-19.550 Z6.500 I1.550 J0.000 F30000.000
G1 X34.000 Y-19.550 Z6.500 F30000.000
G3 X35.550 Y-18.000 Z6.500 I0.000 J1.550 F30000.000
G1 X35.550 Y18.000 Z6.500 F30000.000
G3 X35.096 Y19.096 Z6.500 I-1.550 J0.000 F30000.000
G1 X35.096 Y19.096 Z6.000 F24000.000
G3 X34.000 Y19.550 Z6.000 I-1.096 J-1.096 F30000.000
G1 X-34.000 Y19.550 Z6.000 F30000.000
G3 X-35.550 Y18.000 Z6.000 I0.000 J-1.550 F30000.000
G1 X-35.550 Y-18.000 Z6.000 F30000.000
G3 X-34.000 Y-19.550 Z6.000 I1.550 J0.000 F30000.000
G1 X34.000 Y-19.550 Z6.000 F30000.000
G3 X35.550 Y-18.000 Z6.000 I0.000 J1.550 F30000.000
G1 X35.550 Y18.000 Z6.000 F30000.000
G3 X35.096 Y19.096 Z6.000 I-1.550 J0.000 F30000.000
G1 X35.096 Y19.096 Z5.500 F24000.000
G3 X34.000 Y19.550 Z5.500 I-1.096 J-1.096 F30000.000
G1 X-34.000 Y19.550 Z5.500 F30000.000
G3 X-35.550 Y18.000 Z5.500 I0.000 J-1.550 F30000.000
G1 X-35.550 Y-18.000 Z5.500 F30000.000
G3 X-34.000 Y-19.550 Z5.500 I1.550 J0.000 F30000.000
G1 X34.000 Y-19.550 Z5.500 F30000.000
G3 X35.550 Y-18.000 Z5.500 I0.000 J1.550 F30000.000
G1 X35.550 Y18.000 Z5.500 F30000.000
G3 X35.096 Y19.096 Z5.500 I-1.550 J0.000 F30000.000
G1 X35.096 Y19.096 Z5.000 F24000.000
G3 X34.000 Y19.550 Z5.000 I-1.096 J-1.096 F30000.000
G1 X-34.000 Y19.550 Z5.000 F30000.000
G3 X-35.550 Y18.000 Z5.000 I0.000 J-1.550 F30000.000
G1 X-35.550 Y-18.000 Z5.000 F30000.000
G3 X-34.000 Y-19.550 Z5.000 I1.550 J0.000 F30000.000
G1 X34.000 Y-19.550 Z5.000 F30000.000
G3 X35.550 Y-18.000 Z5.000 I0.000 J1.550 F30000.000
G1 X35.550 Y18.000 Z5.000 F30000.000
G3 X35.096 Y19.096 Z5.000 I-1.550 J0.000 F30000.000
G1 X35.096 Y19.096 Z4.500 F24000.000
G3 X34.000 Y19.550 Z4.500 I-1.096 J-1.096 F30000.000
G1 X17.198 Y19.550 Z4.500 F30000.000
G1 X17.000 Y19.550 Z4.700 F26980.997
G1 X16.802 Y19.550 Z4.500 F26980.997
G1 X-16.802 Y19.550 Z4.500 F30000.000
G1 X-17.000 Y19.550 Z4.700 F26980.997
G1 X-17.198 Y19.550 Z4.500 F26980.997
G1 X-34.000 Y19.550 Z4.500 F30000.000
G3 X-35.550 Y18.000 Z4.500 I0.000 J-1.550 F30000.000
G1 X-35.550 Y-18.000 Z4.500 F30000.000
G3 X-34.000 Y-19.550 Z4.500 I1.550 J0.000 F30000.000
G1 X-17.198 Y-19.550 Z4.500 F30000.000
G1 X-17.000 Y-19.550 Z4.700 F26980.997
G1 X-16.802 Y-19.550 Z4.500 F26980.997
G1 X16.802 Y-19.550 Z4.500 F30000.000
G1 X17.000 Y-19.550 Z4.700 F26980.997
G1 X17.198 Y-19.550 Z4.500 F26980.997
G1 X34.000 Y-19.550 Z4.500 F30000.000
G3 X35.550 Y-18.000 Z4.500 I0.000 J1.550 F30000.000
G1 X35.550 Y18.000 Z4.500 F30000.000
G3 X35.096 Y19.096 Z4.500 I-1.550 J0.000 F30000.000
G1 X35.096 Y19.096 Z4.000 F24000.000
G3 X34.000 Y19.550 Z4.000 I-1.096 J-1.096 F30000.000
G1 X17.693 Y19.550 Z4.000 F30000.000
G1 X17.000 Y19.550 Z4.700 F26980.997
G1 X16.307 Y19.550 Z4.000 F26980.997
G1 X-16.307 Y19.550 Z4.000 F30000.000
G1 X-17.000 Y19.550 Z4.700 F26980.997
G1 X-17.693 Y19.550 Z4.000 F26980.997
G1 X-34.000 Y19.550 Z4.000 F30000.000
G3 X-35.550 Y18.000 Z4.000 I0.000 J-1.550 F30000.000
G1 X-35.550 Y-18.000 Z4.000 F30000.000
G3 X-34.000 Y-19.550 Z4.000 I1.550 J0.000 F30000.000
G1 X-17.693 Y-19.550 Z4.000 F30000.000
G1 X-17.000 Y-19.550 Z4.700 F26980.997
G1 X-16.307 Y-19.550 Z4.000 F26980.997
G1 X16.307 Y-19.550 Z4.000 F30000.000
G1 X17.000 Y-19.550 Z4.700 F26980.997
G1 X17.693 Y-19.550 Z4.000 F26980.997
G1 X34.000 Y-19.550 Z4.000 F30000.000
G3 X35.550 Y-18.000 Z4.000 I0.000 J1.550 F30000.000
G1 X35.550 Y18.000 Z4.000 F30000.000
G3 X35.096 Y19.096 Z4.000 I-1.550 J0.000 F30000.000
G1 X35.096 Y19.096 Z3.500 F24000.000
G3 X34.000 Y19.550 Z3.500 I-1.096 J-1.096 F30000.000
G1 X18.188 Y19.550 Z3.500 F30000.000
G1 X17.000 Y19.550 Z4.700 F26980.997
G1 X15.812 Y19.550 Z3.500 F26980.997
G1 X-15.812 Y19.550 Z3.500 F30000.000
G1 X-17.000 Y19.550 Z4.700 F26980.997
G1 X-18.188 Y19.550 Z3.500 F26980.997
G1 X-34.000 Y19.550 Z3.500 F30000.000
G3 X-35.550 Y18.000 Z3.500 I0.000 J-1.550 F30000.000
G1 X-35.550 Y-18.000 Z3.500 F30000.000
G3 X-34.000 Y-19.550 Z3.500 I1.550 J0.000 F30000.000
G1 X-18.188 Y-19.550 Z3.500 F30000.000
G1 X-17.000 Y-19.550 Z4.700 F26980.997
G1 X-15.812 Y-19.550 Z3.500 F26980.997
G1 X15.812 Y-19.550 Z3.500 F30000.000
G1 X17.000 Y-19.550 Z4.700 F26980.997
G1 X18.188 Y-19.550 Z3.500 F26980.997
G1 X34.000 Y-19.550 Z3.500 F30000.000
G3 X35.550 Y-18.000 Z3.500 I0.000 J1.550 F30000.000
G1 X35.550 Y18.000 Z3.500 F30000.000
G3 X35.096 Y19.096 Z3.500 I-1.550 J0.000 F30000.000
G1 X35.096 Y19.096 Z3.000 F24000.000
G3 X34.000 Y19.550 Z3.000 I-1.096 J-1.096 F30000.000
G1 X18.683 Y19.550 Z3.000 F30000.000
G1 X17.000 Y19.550 Z4.700 F26980.997
G1 X15.317 Y19.550 Z3.000 F26980.997
G1 X-15.317 Y19.550 Z3.000 F30000.000
G1 X-17.000 Y19.550 Z4.700 F26980.997
G1 X-18.683 Y19.550 Z3.000 F26980.997
G1 X-34.000 Y19.550 Z3.000 F30000.000
G3 X-35.550 Y18.000 Z3.000 I0.000 J-1.550 F30000.000
G1 X-35.550 Y-18.000 Z3.000 F30000.000
G3 X-34.000 Y-19.550 Z3.000 I1.550 J0.000 F30000.000
G1 X-18.683 Y-19.550 Z3.000 F30000.000
G1 X-17.000 Y-19.550 Z4.700 F26980.997
G1 X-15.317 Y-19.550 Z3.000 F26980.997
G1 X15.317 Y-19.550 Z3.000 F30000.000
G1 X17.000 Y-19.550 Z4.700 F26980.997
G1 X18.683 Y-19.550 Z3.000 F26980.997
G1 X34.000 Y-19.550 Z3.000 F30000.000
G3 X35.550 Y-18.000 Z3.000 I0.000 J1.550 F30000.000
G1 X35.550 Y18.000 Z3.000 F30000.000
G3 X35.096 Y19.096 Z3.000 I-1.550 J0.000 F30000.000
G1 X35.096 Y19.096 Z2.500 F24000.000
G3 X34.000 Y19.550 Z2.500 I-1.096 J-1.096 F30000.000
G1 X19.178 Y19.550 Z2.500 F30000.000
G1 X17.000 Y19.550 Z4.700 F26980.997
G1 X14.822 Y19.550 Z2.500 F26980.997
G1 X-14.822 Y19.550 Z2.500 F30000.000
G1 X-17.000 Y19.550 Z4.700 F26980.997
G1 X-19.178 Y19.550 Z2.500 F26980.997
G1 X-34.000 Y19.550 Z2.500 F30000.000
G3 X-35.550 Y18.000 Z2.500 I0.000 J-1.550 F30000.000
G1 X-35.550 Y-18.000 Z2.500 F30000.000
G3 X-34.000 Y-19.550 Z2.500 I1.550 J0.000 F30000.000
G1 X-19.178 Y-19.550 Z2.500 F30000.000
G1 X-17.000 Y-19.550 Z4.700 F26980.997
G1 X-14.822 Y-19.550 Z2.500 F26980.997
G1 X14.822 Y-19.550 Z2.500 F30000.000
G1 X17.000 Y-19.550 Z4.700 F26980.997
G1 X19.178 Y-19.550 Z2.500 F26980.997
G1 X34.000 Y-19.550 Z2.500 F30000.000
G3 X35.550 Y-18.000 Z2.500 I0.000 J1.550 F30000.000
G1 X35.550 Y18.000 Z2.500 F30000.000
G3 X35.096 Y19.096 Z2.500 I-1.550 J0.000 F30000.000
G1 X35.096 Y19.096 Z2.000 F24000.000
G3 X34.000 Y19.550 Z2.000 I-1.096 J-1.096 F30000.000
G1 X19.673 Y19.550 Z2.000 F30000.000
G1 X17.000 Y19.550 Z4.700 F26980.997
G1 X14.327 Y19.550 Z2.000 F26980.997
G1 X-14.327 Y19.550 Z2.000 F30000.000
G1 X-17.000 Y19.550 Z4.700 F26980.997
G1 X-19.673 Y19.550 Z2.000 F26980.997
G1 X-34.000 Y19.550 Z2.000 F30000.000
G3 X-35.550 Y18.000 Z2.000 I0.000 J-1.550 F30000.000
G1 X-35.550 Y-18.000 Z2.000 F30000.000
G3 X-34.000 Y-19.550 Z2.000 I1.550 J0.000 F30000.000
G1 X-19.673 Y-19.550 Z2.000 F30000.000
G1 X-17.000 Y-19.550 Z4.700 F26980.997
G1 X-14.327 Y-19.550 Z2.000 F26980.997
G1 X14.327 Y-19.550 Z2.000 F30000.000
G1 X17.000 Y-19.550 Z4.700 F26980.997
G1 X19.673 Y-19.550 Z2.000 F26980.997
G1 X34.000 Y-19.550 Z2.000 F30000.000
G3 X35.550 Y-18.000 Z2.000 I0.000 J1.550 F30000.000
G1 X35.550 Y18.000 Z2.000 F30000.000
G3 X35.096 Y19.096 Z2.000 I-1.550 J0.000 F30000.000
G1 X35.096 Y19.096 Z1.500 F24000.000
G3 X34.000 Y19.550 Z1.500 I-1.096 J-1.096 F30000.000
G1 X20.168 Y19.550 Z1.500 F30000.000
G1 X17.000 Y19.550 Z4.700 F26980.997
G1 X13.832 Y19.550 Z1.500 F26980.997
G1 X-13.832 Y19.550 Z1.500 F30000.000
G1 X-17.000 Y19.550 Z4.700 F26980.997
G1 X-20.168 Y19.550 Z1.500 F26980.997
G1 X-34.000 Y19.550 Z1.500 F30000.000
G3 X-35.550 Y18.000 Z1.500 I0.000 J-1.550 F30000.000
G1 X-35.550 Y-18.000 Z1.500 F30000.000
G3 X-34.000 Y-19.550 Z1.500 I1.550 J0.000 F30000.000
G1 X-20.168 Y-19.550 Z1.500 F30000.000
G1 X-17.000 Y-19.550 Z4.700 F26980.997
G1 X-13.832 Y-19.550 Z1.500 F26980.997
G1 X13.832 Y-19.550 Z1.500 F30000.000
G1 X17.000 Y-19.550 Z4.700 F26980.997
G1 X20.168 Y-19.550 Z1.500 F26980.997
G1 X34.000 Y-19.550 Z1.500 F30000.000
G3 X35.550 Y-18.000 Z1.500 I0.000 J1.550 F30000.000
G1 X35.550 Y18.000 Z1.500 F30000.000
G3 X35.096 Y19.096 Z1.500 I-1.550 J0.000 F30000.000
G1 X35.096 Y19.096 Z1.000 F24000.000
G3 X34.000 Y19.550 Z1.000 I-1.096 J-1.096 F30000.000
G1 X20.663 Y19.550 Z1.000 F30000.000
G1 X17.000 Y19.550 Z4.700 F26980.997
G1 X13.337 Y19.550 Z1.000 F26980.997
G1 X-13.337 Y19.550 Z1.000 F30000.000
G1 X-17.000 Y19.550 Z4.700 F26980.997
G1 X-20.663 Y19.550 Z1.000 F26980.997
G1 X-34.000 Y19.550 Z1.000 F30000.000
G3 X-35.550 Y18.000 Z1.000 I0.000 J-1.550 F30000.000
G1 X-35.550 Y-18.000 Z1.000 F30000.000
G3 X-34.000 Y-19.550 Z1.000 I1.550 J0.000 F30000.000
G1 X-20.663 Y-19.550 Z1.000 F30000.000
G1 X-17.000 Y-19.550 Z4.700 F26980.997
G1 X-13.337 Y-19.550 Z1.000 F26980.997
G1 X13.337 Y-19.550 Z1.000 F30000.000
G1 X17.000 Y-19.550 Z4.700 F26980.997
G1 X20.663 Y-19.550 Z1.000 F26980.997
G1 X34.000 Y-19.550 Z1.000 F30000.000
G3 X35.550 Y-18.000 Z1.000 I0.000 J1.550 F30000.000
G1 X35.550 Y18.000 Z1.000 F30000.000
G3 X35.096 Y19.096 Z1.000 I-1.550 J0.000 F30000.000
G1 X35.096 Y19.096 Z0.500 F24000.000
G3 X34.000 Y19.550 Z0.500 I-1.096 J-1.096 F30000.000
G1 X21.158 Y19.550 Z0.500 F30000.000
G1 X17.000 Y19.550 Z4.700 F26980.997
G1 X12.842 Y19.550 Z0.500 F26980.997
G1 X-12.842 Y19.550 Z0.500 F30000.000
G1 X-17.000 Y19.550 Z4.700 F26980.997
G1 X-21.158 Y19.550 Z0.500 F26980.997
G1 X-34.000 Y19.550 Z0.500 F30000.000
G3 X-35.550 Y18.000 Z0.500 I0.000 J-1.550 F30000.000
G1 X-35.550 Y-18.000 Z0.500 F30000.000
G3 X-34.000 Y-19.550 Z0.500 I1.550 J0.000 F30000.000
G1 X-21.158 Y-19.550 Z0.500 F30000.000
G1 X-17.000 Y-19.550 Z4.700 F26980.997
G1 X-12.842 Y-19.550 Z0.500 F26980.997
G1 X12.842 Y-19.550 Z0.500 F30000.000
G1 X17.000 Y-19.550 Z4.700 F26980.997
G1 X21.158 Y-19.550 Z0.500 F26980.997
G1 X34.000 Y-19.550 Z0.500 F30000.000
G3 X35.550 Y-18.000 Z0.500 I0.000 J1.550 F30000.000
G1 X35.550 Y18.000 Z0.500 F30000.000
G3 X35.096 Y19.096 Z0.500 I-1.550 J0.000 F30000.000
G1 X35.096 Y19.096 Z0.000 F24000.000
G3 X34.000 Y19.550 Z0.000 I-1.096 J-1.096 F30000.000
G1 X21.653 Y19.550 Z0.000 F30000.000
G1 X17.000 Y19.550 Z4.700 F26980.997
G1 X12.347 Y19.550 Z0.000 F26980.997
G1 X-12.347 Y19.550 Z0.000 F30000.000
G1 X-17.000 Y19.550 Z4.700 F26980.997
G1 X-21.653 Y19.550 Z0.000 F26980.997
G1 X-34.000 Y19.550 Z0.000 F30000.000
G3 X-35.550 Y18.000 Z0.000 I0.000 J-1.550 F30000.000
G1 X-35.550 Y-18.000 Z0.000 F30000.000
G3 X-34.000 Y-19.550 Z0.000 I1.550 J0.000 F30000.000
G1 X-21.653 Y-19.550 Z0.000 F30000.000
G1 X-17.000 Y-19.550 Z4.700 F26980.997
G1 X-12.347 Y-19.550 Z0.000 F26980.997
G1 X12.347 Y-19.550 Z0.000 F30000.000
G1 X17.000 Y-19.550 Z4.700 F26980.997
G1 X21.653 Y-19.550 Z0.000 F26980.997
G1 X34.000 Y-19.550 Z0.000 F30000.000
G3 X35.550 Y-18.000 Z0.000 I0.000 J1.550 F30000.000
G1 X35.550 Y18.000 Z0.000 F30000.000
G3 X35.096 Y19.096 Z0.000 I-1.550 J0.000 F30000.000
G1 X35.096 Y19.096 Z-0.250 F24000.000
G3 X34.000 Y19.550 Z-0.250 I-1.096 J-1.096 F30000.000
G1 X21.901 Y19.550 Z-0.250 F30000.000
G1 X17.000 Y19.550 Z4.700 F26980.997
G1 X12.100 Y19.550 Z-0.250 F26980.997
G1 X-12.100 Y19.550 Z-0.250 F30000.000
G1 X-17.000 Y19.550 Z4.700 F26980.997
G1 X-21.901 Y19.550 Z-0.250 F26980.997
G1 X-34.000 Y19.550 Z-0.250 F30000.000
G3 X-35.550 Y18.000 Z-0.250 I0.000 J-1.550 F30000.000
G1 X-35.550 Y-18.000 Z-0.250 F30000.000
G3 X-34.000 Y-19.550 Z-0.250 I1.550 J0.000 F30000.000
G1 X-21.901 Y-19.550 Z-0.250 F30000.000
G1 X-17.000 Y-19.550 Z4.700 F26980.997
G1 X-12.100 Y-19.550 Z-0.250 F26980.997
G1 X12.100 Y-19.550 Z-0.250 F30000.000
G1 X17.000 Y-19.550 Z4.700 F26980.997
G1 X21.901 Y-19.550 Z-0.250 F26980.997
G1 X34.000 Y-19.550 Z-0.250 F30000.000
G3 X35.550 Y-18.000 Z-0.250 I0.000 J1.550 F30000.000
G1 X35.550 Y18.000 Z-0.250 F30000.000
G3 X35.096 Y19.096 Z-0.250 I-1.550 J0.000 F30000.000
G0 X35.096 Y19.096 Z20.000
(finish operation: DressupTag)
(begin postamble)
M05 M09
G17 G90 G80 G40
M30
