(Exported by FreeCAD)
(Post Processor: KineticNCBeamicon2_post)
(Output Time:2024-09-03 17:23:02.201475)
(begin preamble)
%
G17 G21 G40 G49 G80 G90
M08
G21
(begin operation: Fixture)
(machine: not set, mm/min)
G54
(finish operation: Fixture)
(begin operation: 3.10)
(machine: not set, mm/min)
(3.10)
M05
M09M6 T1
M3 S25000
(finish operation: 3.10)
(begin operation: SideDressupTag)
(machine: not set, mm/min)
G0 Z20.000
G0 X33.096 Y21.596 Z20.000
G0 X33.096 Y21.596 Z18.000
G1 X33.096 Y21.596 Z12.500 F24000.000
G3 X32.000 Y22.050 Z12.500 I-1.096 J-1.096 F30000.000
G1 X-34.000 Y22.050 Z12.500 F30000.000
G3 X-35.550 Y20.500 Z12.500 I-0.000 J-1.550 F30000.000
G1 X-35.550 Y-18.000 Z12.500 F30000.000
G3 X-34.075 Y-19.548 Z12.500 I1.550 J0.000 F30000.000
G1 X31.925 Y-22.748 Z12.500 F30000.000
G3 X33.550 Y-21.200 Z12.500 I0.075 J1.548 F30000.000
G1 X33.550 Y20.500 Z12.500 F30000.000
G3 X33.096 Y21.596 Z12.500 I-1.550 J0.000 F30000.000
G1 X33.096 Y21.596 Z12.000 F24000.000
G3 X32.000 Y22.050 Z12.000 I-1.096 J-1.096 F30000.000
G1 X-34.000 Y22.050 Z12.000 F30000.000
G3 X-35.550 Y20.500 Z12.000 I-0.000 J-1.550 F30000.000
G1 X-35.550 Y-18.000 Z12.000 F30000.000
G3 X-34.075 Y-19.548 Z12.000 I1.550 J0.000 F30000.000
G1 X31.925 Y-22.748 Z12.000 F30000.000
G3 X33.550 Y-21.200 Z12.000 I0.075 J1.548 F30000.000
G1 X33.550 Y20.500 Z12.000 F30000.000
G3 X33.096 Y21.596 Z12.000 I-1.550 J0.000 F30000.000
G1 X33.096 Y21.596 Z11.500 F24000.000
G3 X32.000 Y22.050 Z11.500 I-1.096 J-1.096 F30000.000
G1 X-34.000 Y22.050 Z11.500 F30000.000
G3 X-35.550 Y20.500 Z11.500 I-0.000 J-1.550 F30000.000
G1 X-35.550 Y-18.000 Z11.500 F30000.000
G3 X-34.075 Y-19.548 Z11.500 I1.550 J0.000 F30000.000
G1 X31.925 Y-22.748 Z11.500 F30000.000
G3 X33.550 Y-21.200 Z11.500 I0.075 J1.548 F30000.000
G1 X33.550 Y20.500 Z11.500 F30000.000
G3 X33.096 Y21.596 Z11.500 I-1.550 J0.000 F30000.000
G1 X33.096 Y21.596 Z11.000 F24000.000
G3 X32.000 Y22.050 Z11.000 I-1.096 J-1.096 F30000.000
G1 X-34.000 Y22.050 Z11.000 F30000.000
G3 X-35.550 Y20.500 Z11.000 I-0.000 J-1.550 F30000.000
G1 X-35.550 Y-18.000 Z11.000 F30000.000
G3 X-34.075 Y-19.548 Z11.000 I1.550 J0.000 F30000.000
G1 X31.925 Y-22.748 Z11.000 F30000.000
G3 X33.550 Y-21.200 Z11.000 I0.075 J1.548 F30000.000
G1 X33.550 Y20.500 Z11.000 F30000.000
G3 X33.096 Y21.596 Z11.000 I-1.550 J0.000 F30000.000
G1 X33.096 Y21.596 Z10.500 F24000.000
G3 X32.000 Y22.050 Z10.500 I-1.096 J-1.096 F30000.000
G1 X-34.000 Y22.050 Z10.500 F30000.000
G3 X-35.550 Y20.500 Z10.500 I-0.000 J-1.550 F30000.000
G1 X-35.550 Y-18.000 Z10.500 F30000.000
G3 X-34.075 Y-19.548 Z10.500 I1.550 J0.000 F30000.000
G1 X31.925 Y-22.748 Z10.500 F30000.000
G3 X33.550 Y-21.200 Z10.500 I0.075 J1.548 F30000.000
G1 X33.550 Y20.500 Z10.500 F30000.000
G3 X33.096 Y21.596 Z10.500 I-1.550 J0.000 F30000.000
G1 X33.096 Y21.596 Z10.000 F24000.000
G3 X32.000 Y22.050 Z10.000 I-1.096 J-1.096 F30000.000
G1 X-34.000 Y22.050 Z10.000 F30000.000
G3 X-35.550 Y20.500 Z10.000 I-0.000 J-1.550 F30000.000
G1 X-35.550 Y-18.000 Z10.000 F30000.000
G3 X-34.075 Y-19.548 Z10.000 I1.550 J0.000 F30000.000
G1 X31.925 Y-22.748 Z10.000 F30000.000
G3 X33.550 Y-21.200 Z10.000 I0.075 J1.548 F30000.000
G1 X33.550 Y20.500 Z10.000 F30000.000
G3 X33.096 Y21.596 Z10.000 I-1.550 J0.000 F30000.000
G1 X33.096 Y21.596 Z9.500 F24000.000
G3 X32.000 Y22.050 Z9.500 I-1.096 J-1.096 F30000.000
G1 X-34.000 Y22.050 Z9.500 F30000.000
G3 X-35.550 Y20.500 Z9.500 I-0.000 J-1.550 F30000.000
G1 X-35.550 Y-18.000 Z9.500 F30000.000
G3 X-34.075 Y-19.548 Z9.500 I1.550 J0.000 F30000.000
G1 X31.925 Y-22.748 Z9.500 F30000.000
G3 X33.550 Y-21.200 Z9.500 I0.075 J1.548 F30000.000
G1 X33.550 Y20.500 Z9.500 F30000.000
G3 X33.096 Y21.596 Z9.500 I-1.550 J0.000 F30000.000
G1 X33.096 Y21.596 Z9.000 F24000.000
G3 X32.000 Y22.050 Z9.000 I-1.096 J-1.096 F30000.000
G1 X-34.000 Y22.050 Z9.000 F30000.000
G3 X-35.550 Y20.500 Z9.000 I-0.000 J-1.550 F30000.000
G1 X-35.550 Y-18.000 Z9.000 F30000.000
G3 X-34.075 Y-19.548 Z9.000 I1.550 J0.000 F30000.000
G1 X31.925 Y-22.748 Z9.000 F30000.000
G3 X33.550 Y-21.200 Z9.000 I0.075 J1.548 F30000.000
G1 X33.550 Y20.500 Z9.000 F30000.000
G3 X33.096 Y21.596 Z9.000 I-1.550 J0.000 F30000.000
G1 X33.096 Y21.596 Z8.500 F24000.000
G3 X32.000 Y22.050 Z8.500 I-1.096 J-1.096 F30000.000
G1 X-34.000 Y22.050 Z8.500 F30000.000
G3 X-35.550 Y20.500 Z8.500 I-0.000 J-1.550 F30000.000
G1 X-35.550 Y-18.000 Z8.500 F30000.000
G3 X-34.075 Y-19.548 Z8.500 I1.550 J0.000 F30000.000
G1 X31.925 Y-22.748 Z8.500 F30000.000
G3 X33.550 Y-21.200 Z8.500 I0.075 J1.548 F30000.000
G1 X33.550 Y20.500 Z8.500 F30000.000
G3 X33.096 Y21.596 Z8.500 I-1.550 J0.000 F30000.000
G1 X33.096 Y21.596 Z8.000 F24000.000
G3 X32.000 Y22.050 Z8.000 I-1.096 J-1.096 F30000.000
G1 X-34.000 Y22.050 Z8.000 F30000.000
G3 X-35.550 Y20.500 Z8.000 I-0.000 J-1.550 F30000.000
G1 X-35.550 Y-18.000 Z8.000 F30000.000
G3 X-34.075 Y-19.548 Z8.000 I1.550 J0.000 F30000.000
G1 X31.925 Y-22.748 Z8.000 F30000.000
G3 X33.550 Y-21.200 Z8.000 I0.075 J1.548 F30000.000
G1 X33.550 Y20.500 Z8.000 F30000.000
G3 X33.096 Y21.596 Z8.000 I-1.550 J0.000 F30000.000
G1 X33.096 Y21.596 Z7.500 F24000.000
G3 X32.000 Y22.050 Z7.500 I-1.096 J-1.096 F30000.000
G1 X-34.000 Y22.050 Z7.500 F30000.000
G3 X-35.550 Y20.500 Z7.500 I-0.000 J-1.550 F30000.000
G1 X-35.550 Y-18.000 Z7.500 F30000.000
G3 X-34.075 Y-19.548 Z7.500 I1.550 J0.000 F30000.000
G1 X31.925 Y-22.748 Z7.500 F30000.000
G3 X33.550 Y-21.200 Z7.500 I0.075 J1.548 F30000.000
G1 X33.550 Y20.500 Z7.500 F30000.000
G3 X33.096 Y21.596 Z7.500 I-1.550 J0.000 F30000.000
G1 X33.096 Y21.596 Z7.000 F24000.000
G3 X32.000 Y22.050 Z7.000 I-1.096 J-1.096 F30000.000
G1 X-34.000 Y22.050 Z7.000 F30000.000
G3 X-35.550 Y20.500 Z7.000 I-0.000 J-1.550 F30000.000
G1 X-35.550 Y-18.000 Z7.000 F30000.000
G3 X-34.075 Y-19.548 Z7.000 I1.550 J0.000 F30000.000
G1 X31.925 Y-22.748 Z7.000 F30000.000
G3 X33.550 Y-21.200 Z7.000 I0.075 J1.548 F30000.000
G1 X33.550 Y20.500 Z7.000 F30000.000
G3 X33.096 Y21.596 Z7.000 I-1.550 J0.000 F30000.000
G1 X33.096 Y21.596 Z6.500 F24000.000
G3 X32.000 Y22.050 Z6.500 I-1.096 J-1.096 F30000.000
G1 X-34.000 Y22.050 Z6.500 F30000.000
G3 X-35.550 Y20.500 Z6.500 I-0.000 J-1.550 F30000.000
G1 X-35.550 Y-18.000 Z6.500 F30000.000
G3 X-34.075 Y-19.548 Z6.500 I1.550 J0.000 F30000.000
G1 X31.925 Y-22.748 Z6.500 F30000.000
G3 X33.550 Y-21.200 Z6.500 I0.075 J1.548 F30000.000
G1 X33.550 Y20.500 Z6.500 F30000.000
G3 X33.096 Y21.596 Z6.500 I-1.550 J0.000 F30000.000
G1 X33.096 Y21.596 Z6.000 F24000.000
G3 X32.000 Y22.050 Z6.000 I-1.096 J-1.096 F30000.000
G1 X-34.000 Y22.050 Z6.000 F30000.000
G3 X-35.550 Y20.500 Z6.000 I-0.000 J-1.550 F30000.000
G1 X-35.550 Y-18.000 Z6.000 F30000.000
G3 X-34.075 Y-19.548 Z6.000 I1.550 J0.000 F30000.000
G1 X31.925 Y-22.748 Z6.000 F30000.000
G3 X33.550 Y-21.200 Z6.000 I0.075 J1.548 F30000.000
G1 X33.550 Y20.500 Z6.000 F30000.000
G3 X33.096 Y21.596 Z6.000 I-1.550 J0.000 F30000.000
G1 X33.096 Y21.596 Z5.500 F24000.000
G3 X32.000 Y22.050 Z5.500 I-1.096 J-1.096 F30000.000
G1 X-34.000 Y22.050 Z5.500 F30000.000
G3 X-35.550 Y20.500 Z5.500 I-0.000 J-1.550 F30000.000
G1 X-35.550 Y-18.000 Z5.500 F30000.000
G3 X-34.075 Y-19.548 Z5.500 I1.550 J0.000 F30000.000
G1 X31.925 Y-22.748 Z5.500 F30000.000
G3 X33.550 Y-21.200 Z5.500 I0.075 J1.548 F30000.000
G1 X33.550 Y20.500 Z5.500 F30000.000
G3 X33.096 Y21.596 Z5.500 I-1.550 J0.000 F30000.000
G1 X33.096 Y21.596 Z5.000 F24000.000
G3 X32.000 Y22.050 Z5.000 I-1.096 J-1.096 F30000.000
G1 X-34.000 Y22.050 Z5.000 F30000.000
G3 X-35.550 Y20.500 Z5.000 I-0.000 J-1.550 F30000.000
G1 X-35.550 Y-18.000 Z5.000 F30000.000
G3 X-34.075 Y-19.548 Z5.000 I1.550 J0.000 F30000.000
G1 X31.925 Y-22.748 Z5.000 F30000.000
G3 X33.550 Y-21.200 Z5.000 I0.075 J1.548 F30000.000
G1 X33.550 Y20.500 Z5.000 F30000.000
G3 X33.096 Y21.596 Z5.000 I-1.550 J0.000 F30000.000
G1 X33.096 Y21.596 Z4.500 F24000.000
G3 X32.000 Y22.050 Z4.500 I-1.096 J-1.096 F30000.000
G1 X15.603 Y22.050 Z4.500 F30000.000
G1 X15.500 Y22.050 Z4.605 F26980.997
G1 X15.397 Y22.050 Z4.500 F26980.997
G1 X-17.397 Y22.050 Z4.500 F30000.000
G1 X-17.500 Y22.050 Z4.605 F26980.997
G1 X-17.603 Y22.050 Z4.500 F26980.997
G1 X-34.000 Y22.050 Z4.500 F30000.000
G3 X-35.550 Y20.500 Z4.500 I-0.000 J-1.550 F30000.000
G1 X-35.550 Y-18.000 Z4.500 F30000.000
G3 X-34.075 Y-19.548 Z4.500 I1.550 J0.000 F30000.000
G1 X-17.678 Y-20.343 Z4.500 F30000.000
G1 X-17.575 Y-20.348 Z4.605 F26980.997
G1 X-17.472 Y-20.353 Z4.500 F26980.997
G1 X15.322 Y-21.943 Z4.500 F30000.000
G1 X15.425 Y-21.948 Z4.605 F26980.997
G1 X15.528 Y-21.953 Z4.500 F26980.997
G1 X31.925 Y-22.748 Z4.500 F30000.000
G3 X33.550 Y-21.200 Z4.500 I0.075 J1.548 F30000.000
G1 X33.550 Y20.500 Z4.500 F30000.000
G3 X33.096 Y21.596 Z4.500 I-1.550 J0.000 F30000.000
G1 X33.096 Y21.596 Z4.000 F24000.000
G3 X32.000 Y22.050 Z4.000 I-1.096 J-1.096 F30000.000
G1 X16.099 Y22.050 Z4.000 F30000.000
G1 X15.500 Y22.050 Z4.605 F26980.997
G1 X14.901 Y22.050 Z4.000 F26980.997
G1 X-16.901 Y22.050 Z4.000 F30000.000
G1 X-17.500 Y22.050 Z4.605 F26980.997
G1 X-18.099 Y22.050 Z4.000 F26980.997
G1 X-34.000 Y22.050 Z4.000 F30000.000
G3 X-35.550 Y20.500 Z4.000 I-0.000 J-1.550 F30000.000
G1 X-35.550 Y-18.000 Z4.000 F30000.000
G3 X-34.075 Y-19.548 Z4.000 I1.550 J0.000 F30000.000
G1 X-18.173 Y-20.319 Z4.000 F30000.000
G1 X-17.575 Y-20.348 Z4.605 F26980.997
G1 X-16.977 Y-20.377 Z4.000 F26980.997
G1 X14.827 Y-21.919 Z4.000 F30000.000
G1 X15.425 Y-21.948 Z4.605 F26980.997
G1 X16.023 Y-21.977 Z4.000 F26980.997
G1 X31.925 Y-22.748 Z4.000 F30000.000
G3 X33.550 Y-21.200 Z4.000 I0.075 J1.548 F30000.000
G1 X33.550 Y20.500 Z4.000 F30000.000
G3 X33.096 Y21.596 Z4.000 I-1.550 J0.000 F30000.000
G1 X33.096 Y21.596 Z3.500 F24000.000
G3 X32.000 Y22.050 Z3.500 I-1.096 J-1.096 F30000.000
G1 X16.594 Y22.050 Z3.500 F30000.000
G1 X15.500 Y22.050 Z4.605 F26980.997
G1 X14.406 Y22.050 Z3.500 F26980.997
G1 X-16.406 Y22.050 Z3.500 F30000.000
G1 X-17.500 Y22.050 Z4.605 F26980.997
G1 X-18.594 Y22.050 Z3.500 F26980.997
G1 X-34.000 Y22.050 Z3.500 F30000.000
G3 X-35.550 Y20.500 Z3.500 I-0.000 J-1.550 F30000.000
G1 X-35.550 Y-18.000 Z3.500 F30000.000
G3 X-34.075 Y-19.548 Z3.500 I1.550 J0.000 F30000.000
G1 X-18.667 Y-20.295 Z3.500 F30000.000
G1 X-17.575 Y-20.348 Z4.605 F26980.997
G1 X-16.483 Y-20.401 Z3.500 F26980.997
G1 X14.333 Y-21.895 Z3.500 F30000.000
G1 X15.425 Y-21.948 Z4.605 F26980.997
G1 X16.517 Y-22.001 Z3.500 F26980.997
G1 X31.925 Y-22.748 Z3.500 F30000.000
G3 X33.550 Y-21.200 Z3.500 I0.075 J1.548 F30000.000
G1 X33.550 Y20.500 Z3.500 F30000.000
G3 X33.096 Y21.596 Z3.500 I-1.550 J0.000 F30000.000
G1 X33.096 Y21.596 Z3.000 F24000.000
G3 X32.000 Y22.050 Z3.000 I-1.096 J-1.096 F30000.000
G1 X17.089 Y22.050 Z3.000 F30000.000
G1 X15.500 Y22.050 Z4.605 F26980.997
G1 X13.911 Y22.050 Z3.000 F26980.997
G1 X-15.911 Y22.050 Z3.000 F30000.000
G1 X-17.500 Y22.050 Z4.605 F26980.997
G1 X-19.089 Y22.050 Z3.000 F26980.997
G1 X-34.000 Y22.050 Z3.000 F30000.000
G3 X-35.550 Y20.500 Z3.000 I-0.000 J-1.550 F30000.000
G1 X-35.550 Y-18.000 Z3.000 F30000.000
G3 X-34.075 Y-19.548 Z3.000 I1.550 J0.000 F30000.000
G1 X-19.162 Y-20.271 Z3.000 F30000.000
G1 X-17.575 Y-20.348 Z4.605 F26980.997
G1 X-15.988 Y-20.425 Z3.000 F26980.997
G1 X13.838 Y-21.871 Z3.000 F30000.000
G1 X15.425 Y-21.948 Z4.605 F26980.997
G1 X17.012 Y-22.025 Z3.000 F26980.997
G1 X31.925 Y-22.748 Z3.000 F30000.000
G3 X33.550 Y-21.200 Z3.000 I0.075 J1.548 F30000.000
G1 X33.550 Y20.500 Z3.000 F30000.000
G3 X33.096 Y21.596 Z3.000 I-1.550 J0.000 F30000.000
G1 X33.096 Y21.596 Z2.500 F24000.000
G3 X32.000 Y22.050 Z2.500 I-1.096 J-1.096 F30000.000
G1 X17.584 Y22.050 Z2.500 F30000.000
G1 X15.500 Y22.050 Z4.605 F26980.997
G1 X13.416 Y22.050 Z2.500 F26980.997
G1 X-15.416 Y22.050 Z2.500 F30000.000
G1 X-17.500 Y22.050 Z4.605 F26980.997
G1 X-19.584 Y22.050 Z2.500 F26980.997
G1 X-34.000 Y22.050 Z2.500 F30000.000
G3 X-35.550 Y20.500 Z2.500 I-0.000 J-1.550 F30000.000
G1 X-35.550 Y-18.000 Z2.500 F30000.000
G3 X-34.075 Y-19.548 Z2.500 I1.550 J0.000 F30000.000
G1 X-19.656 Y-20.247 Z2.500 F30000.000
G1 X-17.575 Y-20.348 Z4.605 F26980.997
G1 X-15.494 Y-20.449 Z2.500 F26980.997
G1 X13.344 Y-21.847 Z2.500 F30000.000
G1 X15.425 Y-21.948 Z4.605 F26980.997
G1 X17.506 Y-22.049 Z2.500 F26980.997
G1 X31.925 Y-22.748 Z2.500 F30000.000
G3 X33.550 Y-21.200 Z2.500 I0.075 J1.548 F30000.000
G1 X33.550 Y20.500 Z2.500 F30000.000
G3 X33.096 Y21.596 Z2.500 I-1.550 J0.000 F30000.000
G1 X33.096 Y21.596 Z2.000 F24000.000
G3 X32.000 Y22.050 Z2.000 I-1.096 J-1.096 F30000.000
G1 X18.079 Y22.050 Z2.000 F30000.000
G1 X15.500 Y22.050 Z4.605 F26980.997
G1 X12.921 Y22.050 Z2.000 F26980.997
G1 X-14.921 Y22.050 Z2.000 F30000.000
G1 X-17.500 Y22.050 Z4.605 F26980.997
G1 X-20.079 Y22.050 Z2.000 F26980.997
G1 X-34.000 Y22.050 Z2.000 F30000.000
G3 X-35.550 Y20.500 Z2.000 I-0.000 J-1.550 F30000.000
G1 X-35.550 Y-18.000 Z2.000 F30000.000
G3 X-34.075 Y-19.548 Z2.000 I1.550 J0.000 F30000.000
G1 X-20.151 Y-20.223 Z2.000 F30000.000
G1 X-17.575 Y-20.348 Z4.605 F26980.997
G1 X-14.999 Y-20.473 Z2.000 F26980.997
G1 X12.849 Y-21.823 Z2.000 F30000.000
G1 X15.425 Y-21.948 Z4.605 F26980.997
G1 X18.001 Y-22.073 Z2.000 F26980.997
G1 X31.925 Y-22.748 Z2.000 F30000.000
G3 X33.550 Y-21.200 Z2.000 I0.075 J1.548 F30000.000
G1 X33.550 Y20.500 Z2.000 F30000.000
G3 X33.096 Y21.596 Z2.000 I-1.550 J0.000 F30000.000
G1 X33.096 Y21.596 Z1.500 F24000.000
G3 X32.000 Y22.050 Z1.500 I-1.096 J-1.096 F30000.000
G1 X18.574 Y22.050 Z1.500 F30000.000
G1 X15.500 Y22.050 Z4.605 F26980.997
G1 X12.426 Y22.050 Z1.500 F26980.997
G1 X-14.426 Y22.050 Z1.500 F30000.000
G1 X-17.500 Y22.050 Z4.605 F26980.997
G1 X-20.574 Y22.050 Z1.500 F26980.997
G1 X-34.000 Y22.050 Z1.500 F30000.000
G3 X-35.550 Y20.500 Z1.500 I-0.000 J-1.550 F30000.000
G1 X-35.550 Y-18.000 Z1.500 F30000.000
G3 X-34.075 Y-19.548 Z1.500 I1.550 J0.000 F30000.000
G1 X-20.645 Y-20.199 Z1.500 F30000.000
G1 X-17.575 Y-20.348 Z4.605 F26980.997
G1 X-14.505 Y-20.497 Z1.500 F26980.997
G1 X12.355 Y-21.799 Z1.500 F30000.000
G1 X15.425 Y-21.948 Z4.605 F26980.997
G1 X18.495 Y-22.097 Z1.500 F26980.997
G1 X31.925 Y-22.748 Z1.500 F30000.000
G3 X33.550 Y-21.200 Z1.500 I0.075 J1.548 F30000.000
G1 X33.550 Y20.500 Z1.500 F30000.000
G3 X33.096 Y21.596 Z1.500 I-1.550 J0.000 F30000.000
G1 X33.096 Y21.596 Z1.000 F24000.000
G3 X32.000 Y22.050 Z1.000 I-1.096 J-1.096 F30000.000
G1 X19.069 Y22.050 Z1.000 F30000.000
G1 X15.500 Y22.050 Z4.605 F26980.997
G1 X11.931 Y22.050 Z1.000 F26980.997
G1 X-13.931 Y22.050 Z1.000 F30000.000
G1 X-17.500 Y22.050 Z4.605 F26980.997
G1 X-21.069 Y22.050 Z1.000 F26980.997
G1 X-34.000 Y22.050 Z1.000 F30000.000
G3 X-35.550 Y20.500 Z1.000 I-0.000 J-1.550 F30000.000
G1 X-35.550 Y-18.000 Z1.000 F30000.000
G3 X-34.075 Y-19.548 Z1.000 I1.550 J0.000 F30000.000
G1 X-21.140 Y-20.175 Z1.000 F30000.000
G1 X-17.575 Y-20.348 Z4.605 F26980.997
G1 X-14.010 Y-20.521 Z1.000 F26980.997
G1 X11.860 Y-21.775 Z1.000 F30000.000
G1 X15.425 Y-21.948 Z4.605 F26980.997
G1 X18.990 Y-22.121 Z1.000 F26980.997
G1 X31.925 Y-22.748 Z1.000 F30000.000
G3 X33.550 Y-21.200 Z1.000 I0.075 J1.548 F30000.000
G1 X33.550 Y20.500 Z1.000 F30000.000
G3 X33.096 Y21.596 Z1.000 I-1.550 J0.000 F30000.000
G1 X33.096 Y21.596 Z0.500 F24000.000
G3 X32.000 Y22.050 Z0.500 I-1.096 J-1.096 F30000.000
G1 X19.564 Y22.050 Z0.500 F30000.000
G1 X15.500 Y22.050 Z4.605 F26980.997
G1 X11.436 Y22.050 Z0.500 F26980.997
G1 X-13.436 Y22.050 Z0.500 F30000.000
G1 X-17.500 Y22.050 Z4.605 F26980.997
G1 X-21.564 Y22.050 Z0.500 F26980.997
G1 X-34.000 Y22.050 Z0.500 F30000.000
G3 X-35.550 Y20.500 Z0.500 I-0.000 J-1.550 F30000.000
G1 X-35.550 Y-18.000 Z0.500 F30000.000
G3 X-34.075 Y-19.548 Z0.500 I1.550 J0.000 F30000.000
G1 X-21.634 Y-20.151 Z0.500 F30000.000
G1 X-17.575 Y-20.348 Z4.605 F26980.997
G1 X-13.516 Y-20.545 Z0.500 F26980.997
G1 X11.366 Y-21.751 Z0.500 F30000.000
G1 X15.425 Y-21.948 Z4.605 F26980.997
G1 X19.484 Y-22.145 Z0.500 F26980.997
G1 X31.925 Y-22.748 Z0.500 F30000.000
G3 X33.550 Y-21.200 Z0.500 I0.075 J1.548 F30000.000
G1 X33.550 Y20.500 Z0.500 F30000.000
G3 X33.096 Y21.596 Z0.500 I-1.550 J0.000 F30000.000
G1 X33.096 Y21.596 Z0.000 F24000.000
G3 X32.000 Y22.050 Z0.000 I-1.096 J-1.096 F30000.000
G1 X20.059 Y22.050 Z0.000 F30000.000
G1 X15.500 Y22.050 Z4.605 F26980.997
G1 X10.941 Y22.050 Z0.000 F26980.997
G1 X-12.941 Y22.050 Z0.000 F30000.000
G1 X-17.500 Y22.050 Z4.605 F26980.997
G1 X-22.059 Y22.050 Z0.000 F26980.997
G1 X-34.000 Y22.050 Z0.000 F30000.000
G3 X-35.550 Y20.500 Z0.000 I-0.000 J-1.550 F30000.000
G1 X-35.550 Y-18.000 Z0.000 F30000.000
G3 X-34.075 Y-19.548 Z0.000 I1.550 J0.000 F30000.000
G1 X-22.129 Y-20.127 Z0.000 F30000.000
G1 X-17.575 Y-20.348 Z4.605 F26980.997
G1 X-13.021 Y-20.569 Z0.000 F26980.997
G1 X10.871 Y-21.727 Z0.000 F30000.000
G1 X15.425 Y-21.948 Z4.605 F26980.997
G1 X19.979 Y-22.169 Z0.000 F26980.997
G1 X31.925 Y-22.748 Z0.000 F30000.000
G3 X33.550 Y-21.200 Z0.000 I0.075 J1.548 F30000.000
G1 X33.550 Y20.500 Z0.000 F30000.000
G3 X33.096 Y21.596 Z0.000 I-1.550 J0.000 F30000.000
G1 X33.096 Y21.596 Z-0.250 F24000.000
G3 X32.000 Y22.050 Z-0.250 I-1.096 J-1.096 F30000.000
G1 X20.306 Y22.050 Z-0.250 F30000.000
G1 X15.500 Y22.050 Z4.605 F26980.997
G1 X10.694 Y22.050 Z-0.250 F26980.997
G1 X-12.694 Y22.050 Z-0.250 F30000.000
G1 X-17.500 Y22.050 Z4.605 F26980.997
G1 X-22.306 Y22.050 Z-0.250 F26980.997
G1 X-34.000 Y22.050 Z-0.250 F30000.000
G3 X-35.550 Y20.500 Z-0.250 I-0.000 J-1.550 F30000.000
G1 X-35.550 Y-18.000 Z-0.250 F30000.000
G3 X-34.075 Y-19.548 Z-0.250 I1.550 J0.000 F30000.000
G1 X-22.376 Y-20.115 Z-0.250 F30000.000
G1 X-17.575 Y-20.348 Z4.605 F26980.997
G1 X-12.774 Y-20.581 Z-0.250 F26980.997
G1 X10.624 Y-21.715 Z-0.250 F30000.000
G1 X15.425 Y-21.948 Z4.605 F26980.997
G1 X20.226 Y-22.181 Z-0.250 F26980.997
G1 X31.925 Y-22.748 Z-0.250 F30000.000
G3 X33.550 Y-21.200 Z-0.250 I0.075 J1.548 F30000.000
G1 X33.550 Y20.500 Z-0.250 F30000.000
G3 X33.096 Y21.596 Z-0.250 I-1.550 J0.000 F30000.000
G0 X33.096 Y21.596 Z20.000
(finish operation: SideDressupTag)
(begin postamble)
M05 M09
G17 G90 G80 G40
M30
