(Exported by FreeCAD)
(Post Processor: KineticNCBeamicon2_post)
(Output Time:2024-09-05 17:32:03.983679)
(begin preamble)
%
G17 G21 G40 G49 G80 G90
M08
G21
(begin operation: Fixture)
(machine: not set, mm/min)
G54
(finish operation: Fixture)
(begin operation: 3.1)
(machine: not set, mm/min)
(3.1)
M05
M09M6 T1
M3 S25000
(finish operation: 3.1)
(begin operation: Holes)
(machine: not set, mm/min)
(Holes)
(Compensated Tool Path. Diameter: 3.1)
G0 Z20.000
G0 X-16.478 Y-46.478
G0 Z18.000
G1 X-16.478 Y-46.478 Z12.500 F24000.000
G2 X-17.053 Y-48.874 Z12.500 I-1.022 J-1.022 F30000.000
G2 X-17.947 Y-46.126 Z12.500 I-0.447 J1.374 F30000.000
G2 X-16.478 Y-46.478 Z12.500 I0.447 J-1.374 F30000.000
G1 X-16.478 Y-46.478 Z12.000 F24000.000
G2 X-17.053 Y-48.874 Z12.000 I-1.022 J-1.022 F30000.000
G2 X-17.947 Y-46.126 Z12.000 I-0.447 J1.374 F30000.000
G2 X-16.478 Y-46.478 Z12.000 I0.447 J-1.374 F30000.000
G1 X-16.478 Y-46.478 Z11.500 F24000.000
G2 X-17.053 Y-48.874 Z11.500 I-1.022 J-1.022 F30000.000
G2 X-17.947 Y-46.126 Z11.500 I-0.447 J1.374 F30000.000
G2 X-16.478 Y-46.478 Z11.500 I0.447 J-1.374 F30000.000
G1 X-16.478 Y-46.478 Z11.000 F24000.000
G2 X-17.053 Y-48.874 Z11.000 I-1.022 J-1.022 F30000.000
G2 X-17.947 Y-46.126 Z11.000 I-0.447 J1.374 F30000.000
G2 X-16.478 Y-46.478 Z11.000 I0.447 J-1.374 F30000.000
G1 X-16.478 Y-46.478 Z10.500 F24000.000
G2 X-17.053 Y-48.874 Z10.500 I-1.022 J-1.022 F30000.000
G2 X-17.947 Y-46.126 Z10.500 I-0.447 J1.374 F30000.000
G2 X-16.478 Y-46.478 Z10.500 I0.447 J-1.374 F30000.000
G1 X-16.478 Y-46.478 Z10.000 F24000.000
G2 X-17.053 Y-48.874 Z10.000 I-1.022 J-1.022 F30000.000
G2 X-17.947 Y-46.126 Z10.000 I-0.447 J1.374 F30000.000
G2 X-16.478 Y-46.478 Z10.000 I0.447 J-1.374 F30000.000
G1 X-16.478 Y-46.478 Z9.500 F24000.000
G2 X-17.053 Y-48.874 Z9.500 I-1.022 J-1.022 F30000.000
G2 X-17.947 Y-46.126 Z9.500 I-0.447 J1.374 F30000.000
G2 X-16.478 Y-46.478 Z9.500 I0.447 J-1.374 F30000.000
G1 X-16.478 Y-46.478 Z9.000 F24000.000
G2 X-17.053 Y-48.874 Z9.000 I-1.022 J-1.022 F30000.000
G2 X-17.947 Y-46.126 Z9.000 I-0.447 J1.374 F30000.000
G2 X-16.478 Y-46.478 Z9.000 I0.447 J-1.374 F30000.000
G1 X-16.478 Y-46.478 Z8.500 F24000.000
G2 X-17.053 Y-48.874 Z8.500 I-1.022 J-1.022 F30000.000
G2 X-17.947 Y-46.126 Z8.500 I-0.447 J1.374 F30000.000
G2 X-16.478 Y-46.478 Z8.500 I0.447 J-1.374 F30000.000
G1 X-16.478 Y-46.478 Z8.000 F24000.000
G2 X-17.053 Y-48.874 Z8.000 I-1.022 J-1.022 F30000.000
G2 X-17.947 Y-46.126 Z8.000 I-0.447 J1.374 F30000.000
G2 X-16.478 Y-46.478 Z8.000 I0.447 J-1.374 F30000.000
G1 X-16.478 Y-46.478 Z7.500 F24000.000
G2 X-17.053 Y-48.874 Z7.500 I-1.022 J-1.022 F30000.000
G2 X-17.947 Y-46.126 Z7.500 I-0.447 J1.374 F30000.000
G2 X-16.478 Y-46.478 Z7.500 I0.447 J-1.374 F30000.000
G1 X-16.478 Y-46.478 Z7.000 F24000.000
G2 X-17.053 Y-48.874 Z7.000 I-1.022 J-1.022 F30000.000
G2 X-17.947 Y-46.126 Z7.000 I-0.447 J1.374 F30000.000
G2 X-16.478 Y-46.478 Z7.000 I0.447 J-1.374 F30000.000
G1 X-16.478 Y-46.478 Z6.500 F24000.000
G2 X-17.053 Y-48.874 Z6.500 I-1.022 J-1.022 F30000.000
G2 X-17.947 Y-46.126 Z6.500 I-0.447 J1.374 F30000.000
G2 X-16.478 Y-46.478 Z6.500 I0.447 J-1.374 F30000.000
G1 X-16.478 Y-46.478 Z6.000 F24000.000
G2 X-17.053 Y-48.874 Z6.000 I-1.022 J-1.022 F30000.000
G2 X-17.947 Y-46.126 Z6.000 I-0.447 J1.374 F30000.000
G2 X-16.478 Y-46.478 Z6.000 I0.447 J-1.374 F30000.000
G1 X-16.478 Y-46.478 Z5.500 F24000.000
G2 X-17.053 Y-48.874 Z5.500 I-1.022 J-1.022 F30000.000
G2 X-17.947 Y-46.126 Z5.500 I-0.447 J1.374 F30000.000
G2 X-16.478 Y-46.478 Z5.500 I0.447 J-1.374 F30000.000
G1 X-16.478 Y-46.478 Z5.000 F24000.000
G2 X-17.053 Y-48.874 Z5.000 I-1.022 J-1.022 F30000.000
G2 X-17.947 Y-46.126 Z5.000 I-0.447 J1.374 F30000.000
G2 X-16.478 Y-46.478 Z5.000 I0.447 J-1.374 F30000.000
G1 X-16.478 Y-46.478 Z4.500 F24000.000
G2 X-17.053 Y-48.874 Z4.500 I-1.022 J-1.022 F30000.000
G2 X-17.947 Y-46.126 Z4.500 I-0.447 J1.374 F30000.000
G2 X-16.478 Y-46.478 Z4.500 I0.447 J-1.374 F30000.000
G1 X-16.478 Y-46.478 Z4.000 F24000.000
G2 X-17.053 Y-48.874 Z4.000 I-1.022 J-1.022 F30000.000
G2 X-17.947 Y-46.126 Z4.000 I-0.447 J1.374 F30000.000
G2 X-16.478 Y-46.478 Z4.000 I0.447 J-1.374 F30000.000
G1 X-16.478 Y-46.478 Z3.500 F24000.000
G2 X-17.053 Y-48.874 Z3.500 I-1.022 J-1.022 F30000.000
G2 X-17.947 Y-46.126 Z3.500 I-0.447 J1.374 F30000.000
G2 X-16.478 Y-46.478 Z3.500 I0.447 J-1.374 F30000.000
G1 X-16.478 Y-46.478 Z3.000 F24000.000
G2 X-17.053 Y-48.874 Z3.000 I-1.022 J-1.022 F30000.000
G2 X-17.947 Y-46.126 Z3.000 I-0.447 J1.374 F30000.000
G2 X-16.478 Y-46.478 Z3.000 I0.447 J-1.374 F30000.000
G1 X-16.478 Y-46.478 Z2.500 F24000.000
G2 X-17.053 Y-48.874 Z2.500 I-1.022 J-1.022 F30000.000
G2 X-17.947 Y-46.126 Z2.500 I-0.447 J1.374 F30000.000
G2 X-16.478 Y-46.478 Z2.500 I0.447 J-1.374 F30000.000
G1 X-16.478 Y-46.478 Z2.000 F24000.000
G2 X-17.053 Y-48.874 Z2.000 I-1.022 J-1.022 F30000.000
G2 X-17.947 Y-46.126 Z2.000 I-0.447 J1.374 F30000.000
G2 X-16.478 Y-46.478 Z2.000 I0.447 J-1.374 F30000.000
G1 X-16.478 Y-46.478 Z1.500 F24000.000
G2 X-17.053 Y-48.874 Z1.500 I-1.022 J-1.022 F30000.000
G2 X-17.947 Y-46.126 Z1.500 I-0.447 J1.374 F30000.000
G2 X-16.478 Y-46.478 Z1.500 I0.447 J-1.374 F30000.000
G1 X-16.478 Y-46.478 Z1.000 F24000.000
G2 X-17.053 Y-48.874 Z1.000 I-1.022 J-1.022 F30000.000
G2 X-17.947 Y-46.126 Z1.000 I-0.447 J1.374 F30000.000
G2 X-16.478 Y-46.478 Z1.000 I0.447 J-1.374 F30000.000
G1 X-16.478 Y-46.478 Z0.500 F24000.000
G2 X-17.053 Y-48.874 Z0.500 I-1.022 J-1.022 F30000.000
G2 X-17.947 Y-46.126 Z0.500 I-0.447 J1.374 F30000.000
G2 X-16.478 Y-46.478 Z0.500 I0.447 J-1.374 F30000.000
G1 X-16.478 Y-46.478 Z0.000 F24000.000
G2 X-17.053 Y-48.874 Z0.000 I-1.022 J-1.022 F30000.000
G2 X-17.947 Y-46.126 Z0.000 I-0.447 J1.374 F30000.000
G2 X-16.478 Y-46.478 Z0.000 I0.447 J-1.374 F30000.000
G1 X-16.478 Y-46.478 Z-0.250 F24000.000
G2 X-17.053 Y-48.874 Z-0.250 I-1.022 J-1.022 F30000.000
G2 X-17.947 Y-46.126 Z-0.250 I-0.447 J1.374 F30000.000
G2 X-16.478 Y-46.478 Z-0.250 I0.447 J-1.374 F30000.000
G0 Z20.000
G0 Z20.000
G0 X-16.478 Y-46.478
G0 X-17.459 Y-81.055
G0 X-17.459 Y-81.055 Z18.000
G1 X-17.459 Y-81.055 Z12.500 F24000.000
G2 X-17.053 Y-83.874 Z12.500 I-0.041 J-1.445 F30000.000
G2 X-17.947 Y-81.126 Z12.500 I-0.447 J1.374 F30000.000
G2 X-17.459 Y-81.055 Z12.500 I0.447 J-1.374 F30000.000
G1 X-17.459 Y-81.055 Z12.000 F24000.000
G2 X-17.053 Y-83.874 Z12.000 I-0.041 J-1.445 F30000.000
G2 X-17.947 Y-81.126 Z12.000 I-0.447 J1.374 F30000.000
G2 X-17.459 Y-81.055 Z12.000 I0.447 J-1.374 F30000.000
G1 X-17.459 Y-81.055 Z11.500 F24000.000
G2 X-17.053 Y-83.874 Z11.500 I-0.041 J-1.445 F30000.000
G2 X-17.947 Y-81.126 Z11.500 I-0.447 J1.374 F30000.000
G2 X-17.459 Y-81.055 Z11.500 I0.447 J-1.374 F30000.000
G1 X-17.459 Y-81.055 Z11.000 F24000.000
G2 X-17.053 Y-83.874 Z11.000 I-0.041 J-1.445 F30000.000
G2 X-17.947 Y-81.126 Z11.000 I-0.447 J1.374 F30000.000
G2 X-17.459 Y-81.055 Z11.000 I0.447 J-1.374 F30000.000
G1 X-17.459 Y-81.055 Z10.500 F24000.000
G2 X-17.053 Y-83.874 Z10.500 I-0.041 J-1.445 F30000.000
G2 X-17.947 Y-81.126 Z10.500 I-0.447 J1.374 F30000.000
G2 X-17.459 Y-81.055 Z10.500 I0.447 J-1.374 F30000.000
G1 X-17.459 Y-81.055 Z10.000 F24000.000
G2 X-17.053 Y-83.874 Z10.000 I-0.041 J-1.445 F30000.000
G2 X-17.947 Y-81.126 Z10.000 I-0.447 J1.374 F30000.000
G2 X-17.459 Y-81.055 Z10.000 I0.447 J-1.374 F30000.000
G1 X-17.459 Y-81.055 Z9.500 F24000.000
G2 X-17.053 Y-83.874 Z9.500 I-0.041 J-1.445 F30000.000
G2 X-17.947 Y-81.126 Z9.500 I-0.447 J1.374 F30000.000
G2 X-17.459 Y-81.055 Z9.500 I0.447 J-1.374 F30000.000
G1 X-17.459 Y-81.055 Z9.000 F24000.000
G2 X-17.053 Y-83.874 Z9.000 I-0.041 J-1.445 F30000.000
G2 X-17.947 Y-81.126 Z9.000 I-0.447 J1.374 F30000.000
G2 X-17.459 Y-81.055 Z9.000 I0.447 J-1.374 F30000.000
G1 X-17.459 Y-81.055 Z8.500 F24000.000
G2 X-17.053 Y-83.874 Z8.500 I-0.041 J-1.445 F30000.000
G2 X-17.947 Y-81.126 Z8.500 I-0.447 J1.374 F30000.000
G2 X-17.459 Y-81.055 Z8.500 I0.447 J-1.374 F30000.000
G1 X-17.459 Y-81.055 Z8.000 F24000.000
G2 X-17.053 Y-83.874 Z8.000 I-0.041 J-1.445 F30000.000
G2 X-17.947 Y-81.126 Z8.000 I-0.447 J1.374 F30000.000
G2 X-17.459 Y-81.055 Z8.000 I0.447 J-1.374 F30000.000
G1 X-17.459 Y-81.055 Z7.500 F24000.000
G2 X-17.053 Y-83.874 Z7.500 I-0.041 J-1.445 F30000.000
G2 X-17.947 Y-81.126 Z7.500 I-0.447 J1.374 F30000.000
G2 X-17.459 Y-81.055 Z7.500 I0.447 J-1.374 F30000.000
G1 X-17.459 Y-81.055 Z7.000 F24000.000
G2 X-17.053 Y-83.874 Z7.000 I-0.041 J-1.445 F30000.000
G2 X-17.947 Y-81.126 Z7.000 I-0.447 J1.374 F30000.000
G2 X-17.459 Y-81.055 Z7.000 I0.447 J-1.374 F30000.000
G1 X-17.459 Y-81.055 Z6.500 F24000.000
G2 X-17.053 Y-83.874 Z6.500 I-0.041 J-1.445 F30000.000
G2 X-17.947 Y-81.126 Z6.500 I-0.447 J1.374 F30000.000
G2 X-17.459 Y-81.055 Z6.500 I0.447 J-1.374 F30000.000
G1 X-17.459 Y-81.055 Z6.000 F24000.000
G2 X-17.053 Y-83.874 Z6.000 I-0.041 J-1.445 F30000.000
G2 X-17.947 Y-81.126 Z6.000 I-0.447 J1.374 F30000.000
G2 X-17.459 Y-81.055 Z6.000 I0.447 J-1.374 F30000.000
G1 X-17.459 Y-81.055 Z5.500 F24000.000
G2 X-17.053 Y-83.874 Z5.500 I-0.041 J-1.445 F30000.000
G2 X-17.947 Y-81.126 Z5.500 I-0.447 J1.374 F30000.000
G2 X-17.459 Y-81.055 Z5.500 I0.447 J-1.374 F30000.000
G1 X-17.459 Y-81.055 Z5.000 F24000.000
G2 X-17.053 Y-83.874 Z5.000 I-0.041 J-1.445 F30000.000
G2 X-17.947 Y-81.126 Z5.000 I-0.447 J1.374 F30000.000
G2 X-17.459 Y-81.055 Z5.000 I0.447 J-1.374 F30000.000
G1 X-17.459 Y-81.055 Z4.500 F24000.000
G2 X-17.053 Y-83.874 Z4.500 I-0.041 J-1.445 F30000.000
G2 X-17.947 Y-81.126 Z4.500 I-0.447 J1.374 F30000.000
G2 X-17.459 Y-81.055 Z4.500 I0.447 J-1.374 F30000.000
G1 X-17.459 Y-81.055 Z4.000 F24000.000
G2 X-17.053 Y-83.874 Z4.000 I-0.041 J-1.445 F30000.000
G2 X-17.947 Y-81.126 Z4.000 I-0.447 J1.374 F30000.000
G2 X-17.459 Y-81.055 Z4.000 I0.447 J-1.374 F30000.000
G1 X-17.459 Y-81.055 Z3.500 F24000.000
G2 X-17.053 Y-83.874 Z3.500 I-0.041 J-1.445 F30000.000
G2 X-17.947 Y-81.126 Z3.500 I-0.447 J1.374 F30000.000
G2 X-17.459 Y-81.055 Z3.500 I0.447 J-1.374 F30000.000
G1 X-17.459 Y-81.055 Z3.000 F24000.000
G2 X-17.053 Y-83.874 Z3.000 I-0.041 J-1.445 F30000.000
G2 X-17.947 Y-81.126 Z3.000 I-0.447 J1.374 F30000.000
G2 X-17.459 Y-81.055 Z3.000 I0.447 J-1.374 F30000.000
G1 X-17.459 Y-81.055 Z2.500 F24000.000
G2 X-17.053 Y-83.874 Z2.500 I-0.041 J-1.445 F30000.000
G2 X-17.947 Y-81.126 Z2.500 I-0.447 J1.374 F30000.000
G2 X-17.459 Y-81.055 Z2.500 I0.447 J-1.374 F30000.000
G1 X-17.459 Y-81.055 Z2.000 F24000.000
G2 X-17.053 Y-83.874 Z2.000 I-0.041 J-1.445 F30000.000
G2 X-17.947 Y-81.126 Z2.000 I-0.447 J1.374 F30000.000
G2 X-17.459 Y-81.055 Z2.000 I0.447 J-1.374 F30000.000
G1 X-17.459 Y-81.055 Z1.500 F24000.000
G2 X-17.053 Y-83.874 Z1.500 I-0.041 J-1.445 F30000.000
G2 X-17.947 Y-81.126 Z1.500 I-0.447 J1.374 F30000.000
G2 X-17.459 Y-81.055 Z1.500 I0.447 J-1.374 F30000.000
G1 X-17.459 Y-81.055 Z1.000 F24000.000
G2 X-17.053 Y-83.874 Z1.000 I-0.041 J-1.445 F30000.000
G2 X-17.947 Y-81.126 Z1.000 I-0.447 J1.374 F30000.000
G2 X-17.459 Y-81.055 Z1.000 I0.447 J-1.374 F30000.000
G1 X-17.459 Y-81.055 Z0.500 F24000.000
G2 X-17.053 Y-83.874 Z0.500 I-0.041 J-1.445 F30000.000
G2 X-17.947 Y-81.126 Z0.500 I-0.447 J1.374 F30000.000
G2 X-17.459 Y-81.055 Z0.500 I0.447 J-1.374 F30000.000
G1 X-17.459 Y-81.055 Z0.000 F24000.000
G2 X-17.053 Y-83.874 Z0.000 I-0.041 J-1.445 F30000.000
G2 X-17.947 Y-81.126 Z0.000 I-0.447 J1.374 F30000.000
G2 X-17.459 Y-81.055 Z0.000 I0.447 J-1.374 F30000.000
G1 X-17.459 Y-81.055 Z-0.250 F24000.000
G2 X-17.053 Y-83.874 Z-0.250 I-0.041 J-1.445 F30000.000
G2 X-17.947 Y-81.126 Z-0.250 I-0.447 J1.374 F30000.000
G2 X-17.459 Y-81.055 Z-0.250 I0.447 J-1.374 F30000.000
G0 Z20.000
G0 Z20.000
G0 X-17.459 Y-81.055
G0 X16.056 Y-82.440
G0 X16.056 Y-82.440 Z18.000
G1 X16.056 Y-82.440 Z12.500 F24000.000
G2 X17.053 Y-81.126 Z12.500 I1.444 J-0.060 F30000.000
G2 X18.874 Y-82.053 Z12.500 I0.447 J-1.374 F30000.000
G2 X17.947 Y-83.874 Z12.500 I-1.374 J-0.447 F30000.000
G2 X16.056 Y-82.440 Z12.500 I-0.447 J1.374 F30000.000
G1 X16.056 Y-82.440 Z12.000 F24000.000
G2 X17.053 Y-81.126 Z12.000 I1.444 J-0.060 F30000.000
G2 X18.874 Y-82.053 Z12.000 I0.447 J-1.374 F30000.000
G2 X17.947 Y-83.874 Z12.000 I-1.374 J-0.447 F30000.000
G2 X16.056 Y-82.440 Z12.000 I-0.447 J1.374 F30000.000
G1 X16.056 Y-82.440 Z11.500 F24000.000
G2 X17.053 Y-81.126 Z11.500 I1.444 J-0.060 F30000.000
G2 X18.874 Y-82.053 Z11.500 I0.447 J-1.374 F30000.000
G2 X17.947 Y-83.874 Z11.500 I-1.374 J-0.447 F30000.000
G2 X16.056 Y-82.440 Z11.500 I-0.447 J1.374 F30000.000
G1 X16.056 Y-82.440 Z11.000 F24000.000
G2 X17.053 Y-81.126 Z11.000 I1.444 J-0.060 F30000.000
G2 X18.874 Y-82.053 Z11.000 I0.447 J-1.374 F30000.000
G2 X17.947 Y-83.874 Z11.000 I-1.374 J-0.447 F30000.000
G2 X16.056 Y-82.440 Z11.000 I-0.447 J1.374 F30000.000
G1 X16.056 Y-82.440 Z10.500 F24000.000
G2 X17.053 Y-81.126 Z10.500 I1.444 J-0.060 F30000.000
G2 X18.874 Y-82.053 Z10.500 I0.447 J-1.374 F30000.000
G2 X17.947 Y-83.874 Z10.500 I-1.374 J-0.447 F30000.000
G2 X16.056 Y-82.440 Z10.500 I-0.447 J1.374 F30000.000
G1 X16.056 Y-82.440 Z10.000 F24000.000
G2 X17.053 Y-81.126 Z10.000 I1.444 J-0.060 F30000.000
G2 X18.874 Y-82.053 Z10.000 I0.447 J-1.374 F30000.000
G2 X17.947 Y-83.874 Z10.000 I-1.374 J-0.447 F30000.000
G2 X16.056 Y-82.440 Z10.000 I-0.447 J1.374 F30000.000
G1 X16.056 Y-82.440 Z9.500 F24000.000
G2 X17.053 Y-81.126 Z9.500 I1.444 J-0.060 F30000.000
G2 X18.874 Y-82.053 Z9.500 I0.447 J-1.374 F30000.000
G2 X17.947 Y-83.874 Z9.500 I-1.374 J-0.447 F30000.000
G2 X16.056 Y-82.440 Z9.500 I-0.447 J1.374 F30000.000
G1 X16.056 Y-82.440 Z9.000 F24000.000
G2 X17.053 Y-81.126 Z9.000 I1.444 J-0.060 F30000.000
G2 X18.874 Y-82.053 Z9.000 I0.447 J-1.374 F30000.000
G2 X17.947 Y-83.874 Z9.000 I-1.374 J-0.447 F30000.000
G2 X16.056 Y-82.440 Z9.000 I-0.447 J1.374 F30000.000
G1 X16.056 Y-82.440 Z8.500 F24000.000
G2 X17.053 Y-81.126 Z8.500 I1.444 J-0.060 F30000.000
G2 X18.874 Y-82.053 Z8.500 I0.447 J-1.374 F30000.000
G2 X17.947 Y-83.874 Z8.500 I-1.374 J-0.447 F30000.000
G2 X16.056 Y-82.440 Z8.500 I-0.447 J1.374 F30000.000
G1 X16.056 Y-82.440 Z8.000 F24000.000
G2 X17.053 Y-81.126 Z8.000 I1.444 J-0.060 F30000.000
G2 X18.874 Y-82.053 Z8.000 I0.447 J-1.374 F30000.000
G2 X17.947 Y-83.874 Z8.000 I-1.374 J-0.447 F30000.000
G2 X16.056 Y-82.440 Z8.000 I-0.447 J1.374 F30000.000
G1 X16.056 Y-82.440 Z7.500 F24000.000
G2 X17.053 Y-81.126 Z7.500 I1.444 J-0.060 F30000.000
G2 X18.874 Y-82.053 Z7.500 I0.447 J-1.374 F30000.000
G2 X17.947 Y-83.874 Z7.500 I-1.374 J-0.447 F30000.000
G2 X16.056 Y-82.440 Z7.500 I-0.447 J1.374 F30000.000
G1 X16.056 Y-82.440 Z7.000 F24000.000
G2 X17.053 Y-81.126 Z7.000 I1.444 J-0.060 F30000.000
G2 X18.874 Y-82.053 Z7.000 I0.447 J-1.374 F30000.000
G2 X17.947 Y-83.874 Z7.000 I-1.374 J-0.447 F30000.000
G2 X16.056 Y-82.440 Z7.000 I-0.447 J1.374 F30000.000
G1 X16.056 Y-82.440 Z6.500 F24000.000
G2 X17.053 Y-81.126 Z6.500 I1.444 J-0.060 F30000.000
G2 X18.874 Y-82.053 Z6.500 I0.447 J-1.374 F30000.000
G2 X17.947 Y-83.874 Z6.500 I-1.374 J-0.447 F30000.000
G2 X16.056 Y-82.440 Z6.500 I-0.447 J1.374 F30000.000
G1 X16.056 Y-82.440 Z6.000 F24000.000
G2 X17.053 Y-81.126 Z6.000 I1.444 J-0.060 F30000.000
G2 X18.874 Y-82.053 Z6.000 I0.447 J-1.374 F30000.000
G2 X17.947 Y-83.874 Z6.000 I-1.374 J-0.447 F30000.000
G2 X16.056 Y-82.440 Z6.000 I-0.447 J1.374 F30000.000
G1 X16.056 Y-82.440 Z5.500 F24000.000
G2 X17.053 Y-81.126 Z5.500 I1.444 J-0.060 F30000.000
G2 X18.874 Y-82.053 Z5.500 I0.447 J-1.374 F30000.000
G2 X17.947 Y-83.874 Z5.500 I-1.374 J-0.447 F30000.000
G2 X16.056 Y-82.440 Z5.500 I-0.447 J1.374 F30000.000
G1 X16.056 Y-82.440 Z5.000 F24000.000
G2 X17.053 Y-81.126 Z5.000 I1.444 J-0.060 F30000.000
G2 X18.874 Y-82.053 Z5.000 I0.447 J-1.374 F30000.000
G2 X17.947 Y-83.874 Z5.000 I-1.374 J-0.447 F30000.000
G2 X16.056 Y-82.440 Z5.000 I-0.447 J1.374 F30000.000
G1 X16.056 Y-82.440 Z4.500 F24000.000
G2 X17.053 Y-81.126 Z4.500 I1.444 J-0.060 F30000.000
G2 X18.874 Y-82.053 Z4.500 I0.447 J-1.374 F30000.000
G2 X17.947 Y-83.874 Z4.500 I-1.374 J-0.447 F30000.000
G2 X16.056 Y-82.440 Z4.500 I-0.447 J1.374 F30000.000
G1 X16.056 Y-82.440 Z4.000 F24000.000
G2 X17.053 Y-81.126 Z4.000 I1.444 J-0.060 F30000.000
G2 X18.874 Y-82.053 Z4.000 I0.447 J-1.374 F30000.000
G2 X17.947 Y-83.874 Z4.000 I-1.374 J-0.447 F30000.000
G2 X16.056 Y-82.440 Z4.000 I-0.447 J1.374 F30000.000
G1 X16.056 Y-82.440 Z3.500 F24000.000
G2 X17.053 Y-81.126 Z3.500 I1.444 J-0.060 F30000.000
G2 X18.874 Y-82.053 Z3.500 I0.447 J-1.374 F30000.000
G2 X17.947 Y-83.874 Z3.500 I-1.374 J-0.447 F30000.000
G2 X16.056 Y-82.440 Z3.500 I-0.447 J1.374 F30000.000
G1 X16.056 Y-82.440 Z3.000 F24000.000
G2 X17.053 Y-81.126 Z3.000 I1.444 J-0.060 F30000.000
G2 X18.874 Y-82.053 Z3.000 I0.447 J-1.374 F30000.000
G2 X17.947 Y-83.874 Z3.000 I-1.374 J-0.447 F30000.000
G2 X16.056 Y-82.440 Z3.000 I-0.447 J1.374 F30000.000
G1 X16.056 Y-82.440 Z2.500 F24000.000
G2 X17.053 Y-81.126 Z2.500 I1.444 J-0.060 F30000.000
G2 X18.874 Y-82.053 Z2.500 I0.447 J-1.374 F30000.000
G2 X17.947 Y-83.874 Z2.500 I-1.374 J-0.447 F30000.000
G2 X16.056 Y-82.440 Z2.500 I-0.447 J1.374 F30000.000
G1 X16.056 Y-82.440 Z2.000 F24000.000
G2 X17.053 Y-81.126 Z2.000 I1.444 J-0.060 F30000.000
G2 X18.874 Y-82.053 Z2.000 I0.447 J-1.374 F30000.000
G2 X17.947 Y-83.874 Z2.000 I-1.374 J-0.447 F30000.000
G2 X16.056 Y-82.440 Z2.000 I-0.447 J1.374 F30000.000
G1 X16.056 Y-82.440 Z1.500 F24000.000
G2 X17.053 Y-81.126 Z1.500 I1.444 J-0.060 F30000.000
G2 X18.874 Y-82.053 Z1.500 I0.447 J-1.374 F30000.000
G2 X17.947 Y-83.874 Z1.500 I-1.374 J-0.447 F30000.000
G2 X16.056 Y-82.440 Z1.500 I-0.447 J1.374 F30000.000
G1 X16.056 Y-82.440 Z1.000 F24000.000
G2 X17.053 Y-81.126 Z1.000 I1.444 J-0.060 F30000.000
G2 X18.874 Y-82.053 Z1.000 I0.447 J-1.374 F30000.000
G2 X17.947 Y-83.874 Z1.000 I-1.374 J-0.447 F30000.000
G2 X16.056 Y-82.440 Z1.000 I-0.447 J1.374 F30000.000
G1 X16.056 Y-82.440 Z0.500 F24000.000
G2 X17.053 Y-81.126 Z0.500 I1.444 J-0.060 F30000.000
G2 X18.874 Y-82.053 Z0.500 I0.447 J-1.374 F30000.000
G2 X17.947 Y-83.874 Z0.500 I-1.374 J-0.447 F30000.000
G2 X16.056 Y-82.440 Z0.500 I-0.447 J1.374 F30000.000
G1 X16.056 Y-82.440 Z0.000 F24000.000
G2 X17.053 Y-81.126 Z0.000 I1.444 J-0.060 F30000.000
G2 X18.874 Y-82.053 Z0.000 I0.447 J-1.374 F30000.000
G2 X17.947 Y-83.874 Z0.000 I-1.374 J-0.447 F30000.000
G2 X16.056 Y-82.440 Z0.000 I-0.447 J1.374 F30000.000
G1 X16.056 Y-82.440 Z-0.250 F24000.000
G2 X17.053 Y-81.126 Z-0.250 I1.444 J-0.060 F30000.000
G2 X18.874 Y-82.053 Z-0.250 I0.447 J-1.374 F30000.000
G2 X17.947 Y-83.874 Z-0.250 I-1.374 J-0.447 F30000.000
G2 X16.056 Y-82.440 Z-0.250 I-0.447 J1.374 F30000.000
G0 Z20.000
G0 Z20.000
G0 X16.056 Y-82.440
G0 X17.440 Y-48.944
G0 X17.440 Y-48.944 Z18.000
G1 X17.440 Y-48.944 Z12.500 F24000.000
G2 X17.053 Y-46.126 Z12.500 I0.060 J1.444 F30000.000
G2 X18.874 Y-47.053 Z12.500 I0.447 J-1.374 F30000.000
G2 X17.947 Y-48.874 Z12.500 I-1.374 J-0.447 F30000.000
G2 X17.440 Y-48.944 Z12.500 I-0.447 J1.374 F30000.000
G1 X17.440 Y-48.944 Z12.000 F24000.000
G2 X17.053 Y-46.126 Z12.000 I0.060 J1.444 F30000.000
G2 X18.874 Y-47.053 Z12.000 I0.447 J-1.374 F30000.000
G2 X17.947 Y-48.874 Z12.000 I-1.374 J-0.447 F30000.000
G2 X17.440 Y-48.944 Z12.000 I-0.447 J1.374 F30000.000
G1 X17.440 Y-48.944 Z11.500 F24000.000
G2 X17.053 Y-46.126 Z11.500 I0.060 J1.444 F30000.000
G2 X18.874 Y-47.053 Z11.500 I0.447 J-1.374 F30000.000
G2 X17.947 Y-48.874 Z11.500 I-1.374 J-0.447 F30000.000
G2 X17.440 Y-48.944 Z11.500 I-0.447 J1.374 F30000.000
G1 X17.440 Y-48.944 Z11.000 F24000.000
G2 X17.053 Y-46.126 Z11.000 I0.060 J1.444 F30000.000
G2 X18.874 Y-47.053 Z11.000 I0.447 J-1.374 F30000.000
G2 X17.947 Y-48.874 Z11.000 I-1.374 J-0.447 F30000.000
G2 X17.440 Y-48.944 Z11.000 I-0.447 J1.374 F30000.000
G1 X17.440 Y-48.944 Z10.500 F24000.000
G2 X17.053 Y-46.126 Z10.500 I0.060 J1.444 F30000.000
G2 X18.874 Y-47.053 Z10.500 I0.447 J-1.374 F30000.000
G2 X17.947 Y-48.874 Z10.500 I-1.374 J-0.447 F30000.000
G2 X17.440 Y-48.944 Z10.500 I-0.447 J1.374 F30000.000
G1 X17.440 Y-48.944 Z10.000 F24000.000
G2 X17.053 Y-46.126 Z10.000 I0.060 J1.444 F30000.000
G2 X18.874 Y-47.053 Z10.000 I0.447 J-1.374 F30000.000
G2 X17.947 Y-48.874 Z10.000 I-1.374 J-0.447 F30000.000
G2 X17.440 Y-48.944 Z10.000 I-0.447 J1.374 F30000.000
G1 X17.440 Y-48.944 Z9.500 F24000.000
G2 X17.053 Y-46.126 Z9.500 I0.060 J1.444 F30000.000
G2 X18.874 Y-47.053 Z9.500 I0.447 J-1.374 F30000.000
G2 X17.947 Y-48.874 Z9.500 I-1.374 J-0.447 F30000.000
G2 X17.440 Y-48.944 Z9.500 I-0.447 J1.374 F30000.000
G1 X17.440 Y-48.944 Z9.000 F24000.000
G2 X17.053 Y-46.126 Z9.000 I0.060 J1.444 F30000.000
G2 X18.874 Y-47.053 Z9.000 I0.447 J-1.374 F30000.000
G2 X17.947 Y-48.874 Z9.000 I-1.374 J-0.447 F30000.000
G2 X17.440 Y-48.944 Z9.000 I-0.447 J1.374 F30000.000
G1 X17.440 Y-48.944 Z8.500 F24000.000
G2 X17.053 Y-46.126 Z8.500 I0.060 J1.444 F30000.000
G2 X18.874 Y-47.053 Z8.500 I0.447 J-1.374 F30000.000
G2 X17.947 Y-48.874 Z8.500 I-1.374 J-0.447 F30000.000
G2 X17.440 Y-48.944 Z8.500 I-0.447 J1.374 F30000.000
G1 X17.440 Y-48.944 Z8.000 F24000.000
G2 X17.053 Y-46.126 Z8.000 I0.060 J1.444 F30000.000
G2 X18.874 Y-47.053 Z8.000 I0.447 J-1.374 F30000.000
G2 X17.947 Y-48.874 Z8.000 I-1.374 J-0.447 F30000.000
G2 X17.440 Y-48.944 Z8.000 I-0.447 J1.374 F30000.000
G1 X17.440 Y-48.944 Z7.500 F24000.000
G2 X17.053 Y-46.126 Z7.500 I0.060 J1.444 F30000.000
G2 X18.874 Y-47.053 Z7.500 I0.447 J-1.374 F30000.000
G2 X17.947 Y-48.874 Z7.500 I-1.374 J-0.447 F30000.000
G2 X17.440 Y-48.944 Z7.500 I-0.447 J1.374 F30000.000
G1 X17.440 Y-48.944 Z7.000 F24000.000
G2 X17.053 Y-46.126 Z7.000 I0.060 J1.444 F30000.000
G2 X18.874 Y-47.053 Z7.000 I0.447 J-1.374 F30000.000
G2 X17.947 Y-48.874 Z7.000 I-1.374 J-0.447 F30000.000
G2 X17.440 Y-48.944 Z7.000 I-0.447 J1.374 F30000.000
G1 X17.440 Y-48.944 Z6.500 F24000.000
G2 X17.053 Y-46.126 Z6.500 I0.060 J1.444 F30000.000
G2 X18.874 Y-47.053 Z6.500 I0.447 J-1.374 F30000.000
G2 X17.947 Y-48.874 Z6.500 I-1.374 J-0.447 F30000.000
G2 X17.440 Y-48.944 Z6.500 I-0.447 J1.374 F30000.000
G1 X17.440 Y-48.944 Z6.000 F24000.000
G2 X17.053 Y-46.126 Z6.000 I0.060 J1.444 F30000.000
G2 X18.874 Y-47.053 Z6.000 I0.447 J-1.374 F30000.000
G2 X17.947 Y-48.874 Z6.000 I-1.374 J-0.447 F30000.000
G2 X17.440 Y-48.944 Z6.000 I-0.447 J1.374 F30000.000
G1 X17.440 Y-48.944 Z5.500 F24000.000
G2 X17.053 Y-46.126 Z5.500 I0.060 J1.444 F30000.000
G2 X18.874 Y-47.053 Z5.500 I0.447 J-1.374 F30000.000
G2 X17.947 Y-48.874 Z5.500 I-1.374 J-0.447 F30000.000
G2 X17.440 Y-48.944 Z5.500 I-0.447 J1.374 F30000.000
G1 X17.440 Y-48.944 Z5.000 F24000.000
G2 X17.053 Y-46.126 Z5.000 I0.060 J1.444 F30000.000
G2 X18.874 Y-47.053 Z5.000 I0.447 J-1.374 F30000.000
G2 X17.947 Y-48.874 Z5.000 I-1.374 J-0.447 F30000.000
G2 X17.440 Y-48.944 Z5.000 I-0.447 J1.374 F30000.000
G1 X17.440 Y-48.944 Z4.500 F24000.000
G2 X17.053 Y-46.126 Z4.500 I0.060 J1.444 F30000.000
G2 X18.874 Y-47.053 Z4.500 I0.447 J-1.374 F30000.000
G2 X17.947 Y-48.874 Z4.500 I-1.374 J-0.447 F30000.000
G2 X17.440 Y-48.944 Z4.500 I-0.447 J1.374 F30000.000
G1 X17.440 Y-48.944 Z4.000 F24000.000
G2 X17.053 Y-46.126 Z4.000 I0.060 J1.444 F30000.000
G2 X18.874 Y-47.053 Z4.000 I0.447 J-1.374 F30000.000
G2 X17.947 Y-48.874 Z4.000 I-1.374 J-0.447 F30000.000
G2 X17.440 Y-48.944 Z4.000 I-0.447 J1.374 F30000.000
G1 X17.440 Y-48.944 Z3.500 F24000.000
G2 X17.053 Y-46.126 Z3.500 I0.060 J1.444 F30000.000
G2 X18.874 Y-47.053 Z3.500 I0.447 J-1.374 F30000.000
G2 X17.947 Y-48.874 Z3.500 I-1.374 J-0.447 F30000.000
G2 X17.440 Y-48.944 Z3.500 I-0.447 J1.374 F30000.000
G1 X17.440 Y-48.944 Z3.000 F24000.000
G2 X17.053 Y-46.126 Z3.000 I0.060 J1.444 F30000.000
G2 X18.874 Y-47.053 Z3.000 I0.447 J-1.374 F30000.000
G2 X17.947 Y-48.874 Z3.000 I-1.374 J-0.447 F30000.000
G2 X17.440 Y-48.944 Z3.000 I-0.447 J1.374 F30000.000
G1 X17.440 Y-48.944 Z2.500 F24000.000
G2 X17.053 Y-46.126 Z2.500 I0.060 J1.444 F30000.000
G2 X18.874 Y-47.053 Z2.500 I0.447 J-1.374 F30000.000
G2 X17.947 Y-48.874 Z2.500 I-1.374 J-0.447 F30000.000
G2 X17.440 Y-48.944 Z2.500 I-0.447 J1.374 F30000.000
G1 X17.440 Y-48.944 Z2.000 F24000.000
G2 X17.053 Y-46.126 Z2.000 I0.060 J1.444 F30000.000
G2 X18.874 Y-47.053 Z2.000 I0.447 J-1.374 F30000.000
G2 X17.947 Y-48.874 Z2.000 I-1.374 J-0.447 F30000.000
G2 X17.440 Y-48.944 Z2.000 I-0.447 J1.374 F30000.000
G1 X17.440 Y-48.944 Z1.500 F24000.000
G2 X17.053 Y-46.126 Z1.500 I0.060 J1.444 F30000.000
G2 X18.874 Y-47.053 Z1.500 I0.447 J-1.374 F30000.000
G2 X17.947 Y-48.874 Z1.500 I-1.374 J-0.447 F30000.000
G2 X17.440 Y-48.944 Z1.500 I-0.447 J1.374 F30000.000
G1 X17.440 Y-48.944 Z1.000 F24000.000
G2 X17.053 Y-46.126 Z1.000 I0.060 J1.444 F30000.000
G2 X18.874 Y-47.053 Z1.000 I0.447 J-1.374 F30000.000
G2 X17.947 Y-48.874 Z1.000 I-1.374 J-0.447 F30000.000
G2 X17.440 Y-48.944 Z1.000 I-0.447 J1.374 F30000.000
G1 X17.440 Y-48.944 Z0.500 F24000.000
G2 X17.053 Y-46.126 Z0.500 I0.060 J1.444 F30000.000
G2 X18.874 Y-47.053 Z0.500 I0.447 J-1.374 F30000.000
G2 X17.947 Y-48.874 Z0.500 I-1.374 J-0.447 F30000.000
G2 X17.440 Y-48.944 Z0.500 I-0.447 J1.374 F30000.000
G1 X17.440 Y-48.944 Z0.000 F24000.000
G2 X17.053 Y-46.126 Z0.000 I0.060 J1.444 F30000.000
G2 X18.874 Y-47.053 Z0.000 I0.447 J-1.374 F30000.000
G2 X17.947 Y-48.874 Z0.000 I-1.374 J-0.447 F30000.000
G2 X17.440 Y-48.944 Z0.000 I-0.447 J1.374 F30000.000
G1 X17.440 Y-48.944 Z-0.250 F24000.000
G2 X17.053 Y-46.126 Z-0.250 I0.060 J1.444 F30000.000
G2 X18.874 Y-47.053 Z-0.250 I0.447 J-1.374 F30000.000
G2 X17.947 Y-48.874 Z-0.250 I-1.374 J-0.447 F30000.000
G2 X17.440 Y-48.944 Z-0.250 I-0.447 J1.374 F30000.000
G0 Z20.000
G0 Z20.000
G0 X17.440 Y-48.944
G0 X17.499 Y46.055
G0 X17.499 Y46.055 Z18.000
G1 X17.499 Y46.055 Z12.500 F24000.000
G2 X17.053 Y48.874 Z12.500 I0.001 J1.445 F30000.000
G2 X18.874 Y47.947 Z12.500 I0.447 J-1.374 F30000.000
G2 X17.947 Y46.126 Z12.500 I-1.374 J-0.447 F30000.000
G2 X17.499 Y46.055 Z12.500 I-0.447 J1.374 F30000.000
G1 X17.499 Y46.055 Z12.000 F24000.000
G2 X17.053 Y48.874 Z12.000 I0.001 J1.445 F30000.000
G2 X18.874 Y47.947 Z12.000 I0.447 J-1.374 F30000.000
G2 X17.947 Y46.126 Z12.000 I-1.374 J-0.447 F30000.000
G2 X17.499 Y46.055 Z12.000 I-0.447 J1.374 F30000.000
G1 X17.499 Y46.055 Z11.500 F24000.000
G2 X17.053 Y48.874 Z11.500 I0.001 J1.445 F30000.000
G2 X18.874 Y47.947 Z11.500 I0.447 J-1.374 F30000.000
G2 X17.947 Y46.126 Z11.500 I-1.374 J-0.447 F30000.000
G2 X17.499 Y46.055 Z11.500 I-0.447 J1.374 F30000.000
G1 X17.499 Y46.055 Z11.000 F24000.000
G2 X17.053 Y48.874 Z11.000 I0.001 J1.445 F30000.000
G2 X18.874 Y47.947 Z11.000 I0.447 J-1.374 F30000.000
G2 X17.947 Y46.126 Z11.000 I-1.374 J-0.447 F30000.000
G2 X17.499 Y46.055 Z11.000 I-0.447 J1.374 F30000.000
G1 X17.499 Y46.055 Z10.500 F24000.000
G2 X17.053 Y48.874 Z10.500 I0.001 J1.445 F30000.000
G2 X18.874 Y47.947 Z10.500 I0.447 J-1.374 F30000.000
G2 X17.947 Y46.126 Z10.500 I-1.374 J-0.447 F30000.000
G2 X17.499 Y46.055 Z10.500 I-0.447 J1.374 F30000.000
G1 X17.499 Y46.055 Z10.000 F24000.000
G2 X17.053 Y48.874 Z10.000 I0.001 J1.445 F30000.000
G2 X18.874 Y47.947 Z10.000 I0.447 J-1.374 F30000.000
G2 X17.947 Y46.126 Z10.000 I-1.374 J-0.447 F30000.000
G2 X17.499 Y46.055 Z10.000 I-0.447 J1.374 F30000.000
G1 X17.499 Y46.055 Z9.500 F24000.000
G2 X17.053 Y48.874 Z9.500 I0.001 J1.445 F30000.000
G2 X18.874 Y47.947 Z9.500 I0.447 J-1.374 F30000.000
G2 X17.947 Y46.126 Z9.500 I-1.374 J-0.447 F30000.000
G2 X17.499 Y46.055 Z9.500 I-0.447 J1.374 F30000.000
G1 X17.499 Y46.055 Z9.000 F24000.000
G2 X17.053 Y48.874 Z9.000 I0.001 J1.445 F30000.000
G2 X18.874 Y47.947 Z9.000 I0.447 J-1.374 F30000.000
G2 X17.947 Y46.126 Z9.000 I-1.374 J-0.447 F30000.000
G2 X17.499 Y46.055 Z9.000 I-0.447 J1.374 F30000.000
G1 X17.499 Y46.055 Z8.500 F24000.000
G2 X17.053 Y48.874 Z8.500 I0.001 J1.445 F30000.000
G2 X18.874 Y47.947 Z8.500 I0.447 J-1.374 F30000.000
G2 X17.947 Y46.126 Z8.500 I-1.374 J-0.447 F30000.000
G2 X17.499 Y46.055 Z8.500 I-0.447 J1.374 F30000.000
G1 X17.499 Y46.055 Z8.000 F24000.000
G2 X17.053 Y48.874 Z8.000 I0.001 J1.445 F30000.000
G2 X18.874 Y47.947 Z8.000 I0.447 J-1.374 F30000.000
G2 X17.947 Y46.126 Z8.000 I-1.374 J-0.447 F30000.000
G2 X17.499 Y46.055 Z8.000 I-0.447 J1.374 F30000.000
G1 X17.499 Y46.055 Z7.500 F24000.000
G2 X17.053 Y48.874 Z7.500 I0.001 J1.445 F30000.000
G2 X18.874 Y47.947 Z7.500 I0.447 J-1.374 F30000.000
G2 X17.947 Y46.126 Z7.500 I-1.374 J-0.447 F30000.000
G2 X17.499 Y46.055 Z7.500 I-0.447 J1.374 F30000.000
G1 X17.499 Y46.055 Z7.000 F24000.000
G2 X17.053 Y48.874 Z7.000 I0.001 J1.445 F30000.000
G2 X18.874 Y47.947 Z7.000 I0.447 J-1.374 F30000.000
G2 X17.947 Y46.126 Z7.000 I-1.374 J-0.447 F30000.000
G2 X17.499 Y46.055 Z7.000 I-0.447 J1.374 F30000.000
G1 X17.499 Y46.055 Z6.500 F24000.000
G2 X17.053 Y48.874 Z6.500 I0.001 J1.445 F30000.000
G2 X18.874 Y47.947 Z6.500 I0.447 J-1.374 F30000.000
G2 X17.947 Y46.126 Z6.500 I-1.374 J-0.447 F30000.000
G2 X17.499 Y46.055 Z6.500 I-0.447 J1.374 F30000.000
G1 X17.499 Y46.055 Z6.000 F24000.000
G2 X17.053 Y48.874 Z6.000 I0.001 J1.445 F30000.000
G2 X18.874 Y47.947 Z6.000 I0.447 J-1.374 F30000.000
G2 X17.947 Y46.126 Z6.000 I-1.374 J-0.447 F30000.000
G2 X17.499 Y46.055 Z6.000 I-0.447 J1.374 F30000.000
G1 X17.499 Y46.055 Z5.500 F24000.000
G2 X17.053 Y48.874 Z5.500 I0.001 J1.445 F30000.000
G2 X18.874 Y47.947 Z5.500 I0.447 J-1.374 F30000.000
G2 X17.947 Y46.126 Z5.500 I-1.374 J-0.447 F30000.000
G2 X17.499 Y46.055 Z5.500 I-0.447 J1.374 F30000.000
G1 X17.499 Y46.055 Z5.000 F24000.000
G2 X17.053 Y48.874 Z5.000 I0.001 J1.445 F30000.000
G2 X18.874 Y47.947 Z5.000 I0.447 J-1.374 F30000.000
G2 X17.947 Y46.126 Z5.000 I-1.374 J-0.447 F30000.000
G2 X17.499 Y46.055 Z5.000 I-0.447 J1.374 F30000.000
G1 X17.499 Y46.055 Z4.500 F24000.000
G2 X17.053 Y48.874 Z4.500 I0.001 J1.445 F30000.000
G2 X18.874 Y47.947 Z4.500 I0.447 J-1.374 F30000.000
G2 X17.947 Y46.126 Z4.500 I-1.374 J-0.447 F30000.000
G2 X17.499 Y46.055 Z4.500 I-0.447 J1.374 F30000.000
G1 X17.499 Y46.055 Z4.000 F24000.000
G2 X17.053 Y48.874 Z4.000 I0.001 J1.445 F30000.000
G2 X18.874 Y47.947 Z4.000 I0.447 J-1.374 F30000.000
G2 X17.947 Y46.126 Z4.000 I-1.374 J-0.447 F30000.000
G2 X17.499 Y46.055 Z4.000 I-0.447 J1.374 F30000.000
G1 X17.499 Y46.055 Z3.500 F24000.000
G2 X17.053 Y48.874 Z3.500 I0.001 J1.445 F30000.000
G2 X18.874 Y47.947 Z3.500 I0.447 J-1.374 F30000.000
G2 X17.947 Y46.126 Z3.500 I-1.374 J-0.447 F30000.000
G2 X17.499 Y46.055 Z3.500 I-0.447 J1.374 F30000.000
G1 X17.499 Y46.055 Z3.000 F24000.000
G2 X17.053 Y48.874 Z3.000 I0.001 J1.445 F30000.000
G2 X18.874 Y47.947 Z3.000 I0.447 J-1.374 F30000.000
G2 X17.947 Y46.126 Z3.000 I-1.374 J-0.447 F30000.000
G2 X17.499 Y46.055 Z3.000 I-0.447 J1.374 F30000.000
G1 X17.499 Y46.055 Z2.500 F24000.000
G2 X17.053 Y48.874 Z2.500 I0.001 J1.445 F30000.000
G2 X18.874 Y47.947 Z2.500 I0.447 J-1.374 F30000.000
G2 X17.947 Y46.126 Z2.500 I-1.374 J-0.447 F30000.000
G2 X17.499 Y46.055 Z2.500 I-0.447 J1.374 F30000.000
G1 X17.499 Y46.055 Z2.000 F24000.000
G2 X17.053 Y48.874 Z2.000 I0.001 J1.445 F30000.000
G2 X18.874 Y47.947 Z2.000 I0.447 J-1.374 F30000.000
G2 X17.947 Y46.126 Z2.000 I-1.374 J-0.447 F30000.000
G2 X17.499 Y46.055 Z2.000 I-0.447 J1.374 F30000.000
G1 X17.499 Y46.055 Z1.500 F24000.000
G2 X17.053 Y48.874 Z1.500 I0.001 J1.445 F30000.000
G2 X18.874 Y47.947 Z1.500 I0.447 J-1.374 F30000.000
G2 X17.947 Y46.126 Z1.500 I-1.374 J-0.447 F30000.000
G2 X17.499 Y46.055 Z1.500 I-0.447 J1.374 F30000.000
G1 X17.499 Y46.055 Z1.000 F24000.000
G2 X17.053 Y48.874 Z1.000 I0.001 J1.445 F30000.000
G2 X18.874 Y47.947 Z1.000 I0.447 J-1.374 F30000.000
G2 X17.947 Y46.126 Z1.000 I-1.374 J-0.447 F30000.000
G2 X17.499 Y46.055 Z1.000 I-0.447 J1.374 F30000.000
G1 X17.499 Y46.055 Z0.500 F24000.000
G2 X17.053 Y48.874 Z0.500 I0.001 J1.445 F30000.000
G2 X18.874 Y47.947 Z0.500 I0.447 J-1.374 F30000.000
G2 X17.947 Y46.126 Z0.500 I-1.374 J-0.447 F30000.000
G2 X17.499 Y46.055 Z0.500 I-0.447 J1.374 F30000.000
G1 X17.499 Y46.055 Z0.000 F24000.000
G2 X17.053 Y48.874 Z0.000 I0.001 J1.445 F30000.000
G2 X18.874 Y47.947 Z0.000 I0.447 J-1.374 F30000.000
G2 X17.947 Y46.126 Z0.000 I-1.374 J-0.447 F30000.000
G2 X17.499 Y46.055 Z0.000 I-0.447 J1.374 F30000.000
G1 X17.499 Y46.055 Z-0.250 F24000.000
G2 X17.053 Y48.874 Z-0.250 I0.001 J1.445 F30000.000
G2 X18.874 Y47.947 Z-0.250 I0.447 J-1.374 F30000.000
G2 X17.947 Y46.126 Z-0.250 I-1.374 J-0.447 F30000.000
G2 X17.499 Y46.055 Z-0.250 I-0.447 J1.374 F30000.000
G0 Z20.000
G0 Z20.000
G0 X17.499 Y46.055
G0 X-16.056 Y47.440
G0 X-16.056 Y47.440 Z18.000
G1 X-16.056 Y47.440 Z12.500 F24000.000
G2 X-17.053 Y46.126 Z12.500 I-1.444 J0.060 F30000.000
G2 X-17.947 Y48.874 Z12.500 I-0.447 J1.374 F30000.000
G2 X-16.056 Y47.440 Z12.500 I0.447 J-1.374 F30000.000
G1 X-16.056 Y47.440 Z12.000 F24000.000
G2 X-17.053 Y46.126 Z12.000 I-1.444 J0.060 F30000.000
G2 X-17.947 Y48.874 Z12.000 I-0.447 J1.374 F30000.000
G2 X-16.056 Y47.440 Z12.000 I0.447 J-1.374 F30000.000
G1 X-16.056 Y47.440 Z11.500 F24000.000
G2 X-17.053 Y46.126 Z11.500 I-1.444 J0.060 F30000.000
G2 X-17.947 Y48.874 Z11.500 I-0.447 J1.374 F30000.000
G2 X-16.056 Y47.440 Z11.500 I0.447 J-1.374 F30000.000
G1 X-16.056 Y47.440 Z11.000 F24000.000
G2 X-17.053 Y46.126 Z11.000 I-1.444 J0.060 F30000.000
G2 X-17.947 Y48.874 Z11.000 I-0.447 J1.374 F30000.000
G2 X-16.056 Y47.440 Z11.000 I0.447 J-1.374 F30000.000
G1 X-16.056 Y47.440 Z10.500 F24000.000
G2 X-17.053 Y46.126 Z10.500 I-1.444 J0.060 F30000.000
G2 X-17.947 Y48.874 Z10.500 I-0.447 J1.374 F30000.000
G2 X-16.056 Y47.440 Z10.500 I0.447 J-1.374 F30000.000
G1 X-16.056 Y47.440 Z10.000 F24000.000
G2 X-17.053 Y46.126 Z10.000 I-1.444 J0.060 F30000.000
G2 X-17.947 Y48.874 Z10.000 I-0.447 J1.374 F30000.000
G2 X-16.056 Y47.440 Z10.000 I0.447 J-1.374 F30000.000
G1 X-16.056 Y47.440 Z9.500 F24000.000
G2 X-17.053 Y46.126 Z9.500 I-1.444 J0.060 F30000.000
G2 X-17.947 Y48.874 Z9.500 I-0.447 J1.374 F30000.000
G2 X-16.056 Y47.440 Z9.500 I0.447 J-1.374 F30000.000
G1 X-16.056 Y47.440 Z9.000 F24000.000
G2 X-17.053 Y46.126 Z9.000 I-1.444 J0.060 F30000.000
G2 X-17.947 Y48.874 Z9.000 I-0.447 J1.374 F30000.000
G2 X-16.056 Y47.440 Z9.000 I0.447 J-1.374 F30000.000
G1 X-16.056 Y47.440 Z8.500 F24000.000
G2 X-17.053 Y46.126 Z8.500 I-1.444 J0.060 F30000.000
G2 X-17.947 Y48.874 Z8.500 I-0.447 J1.374 F30000.000
G2 X-16.056 Y47.440 Z8.500 I0.447 J-1.374 F30000.000
G1 X-16.056 Y47.440 Z8.000 F24000.000
G2 X-17.053 Y46.126 Z8.000 I-1.444 J0.060 F30000.000
G2 X-17.947 Y48.874 Z8.000 I-0.447 J1.374 F30000.000
G2 X-16.056 Y47.440 Z8.000 I0.447 J-1.374 F30000.000
G1 X-16.056 Y47.440 Z7.500 F24000.000
G2 X-17.053 Y46.126 Z7.500 I-1.444 J0.060 F30000.000
G2 X-17.947 Y48.874 Z7.500 I-0.447 J1.374 F30000.000
G2 X-16.056 Y47.440 Z7.500 I0.447 J-1.374 F30000.000
G1 X-16.056 Y47.440 Z7.000 F24000.000
G2 X-17.053 Y46.126 Z7.000 I-1.444 J0.060 F30000.000
G2 X-17.947 Y48.874 Z7.000 I-0.447 J1.374 F30000.000
G2 X-16.056 Y47.440 Z7.000 I0.447 J-1.374 F30000.000
G1 X-16.056 Y47.440 Z6.500 F24000.000
G2 X-17.053 Y46.126 Z6.500 I-1.444 J0.060 F30000.000
G2 X-17.947 Y48.874 Z6.500 I-0.447 J1.374 F30000.000
G2 X-16.056 Y47.440 Z6.500 I0.447 J-1.374 F30000.000
G1 X-16.056 Y47.440 Z6.000 F24000.000
G2 X-17.053 Y46.126 Z6.000 I-1.444 J0.060 F30000.000
G2 X-17.947 Y48.874 Z6.000 I-0.447 J1.374 F30000.000
G2 X-16.056 Y47.440 Z6.000 I0.447 J-1.374 F30000.000
G1 X-16.056 Y47.440 Z5.500 F24000.000
G2 X-17.053 Y46.126 Z5.500 I-1.444 J0.060 F30000.000
G2 X-17.947 Y48.874 Z5.500 I-0.447 J1.374 F30000.000
G2 X-16.056 Y47.440 Z5.500 I0.447 J-1.374 F30000.000
G1 X-16.056 Y47.440 Z5.000 F24000.000
G2 X-17.053 Y46.126 Z5.000 I-1.444 J0.060 F30000.000
G2 X-17.947 Y48.874 Z5.000 I-0.447 J1.374 F30000.000
G2 X-16.056 Y47.440 Z5.000 I0.447 J-1.374 F30000.000
G1 X-16.056 Y47.440 Z4.500 F24000.000
G2 X-17.053 Y46.126 Z4.500 I-1.444 J0.060 F30000.000
G2 X-17.947 Y48.874 Z4.500 I-0.447 J1.374 F30000.000
G2 X-16.056 Y47.440 Z4.500 I0.447 J-1.374 F30000.000
G1 X-16.056 Y47.440 Z4.000 F24000.000
G2 X-17.053 Y46.126 Z4.000 I-1.444 J0.060 F30000.000
G2 X-17.947 Y48.874 Z4.000 I-0.447 J1.374 F30000.000
G2 X-16.056 Y47.440 Z4.000 I0.447 J-1.374 F30000.000
G1 X-16.056 Y47.440 Z3.500 F24000.000
G2 X-17.053 Y46.126 Z3.500 I-1.444 J0.060 F30000.000
G2 X-17.947 Y48.874 Z3.500 I-0.447 J1.374 F30000.000
G2 X-16.056 Y47.440 Z3.500 I0.447 J-1.374 F30000.000
G1 X-16.056 Y47.440 Z3.000 F24000.000
G2 X-17.053 Y46.126 Z3.000 I-1.444 J0.060 F30000.000
G2 X-17.947 Y48.874 Z3.000 I-0.447 J1.374 F30000.000
G2 X-16.056 Y47.440 Z3.000 I0.447 J-1.374 F30000.000
G1 X-16.056 Y47.440 Z2.500 F24000.000
G2 X-17.053 Y46.126 Z2.500 I-1.444 J0.060 F30000.000
G2 X-17.947 Y48.874 Z2.500 I-0.447 J1.374 F30000.000
G2 X-16.056 Y47.440 Z2.500 I0.447 J-1.374 F30000.000
G1 X-16.056 Y47.440 Z2.000 F24000.000
G2 X-17.053 Y46.126 Z2.000 I-1.444 J0.060 F30000.000
G2 X-17.947 Y48.874 Z2.000 I-0.447 J1.374 F30000.000
G2 X-16.056 Y47.440 Z2.000 I0.447 J-1.374 F30000.000
G1 X-16.056 Y47.440 Z1.500 F24000.000
G2 X-17.053 Y46.126 Z1.500 I-1.444 J0.060 F30000.000
G2 X-17.947 Y48.874 Z1.500 I-0.447 J1.374 F30000.000
G2 X-16.056 Y47.440 Z1.500 I0.447 J-1.374 F30000.000
G1 X-16.056 Y47.440 Z1.000 F24000.000
G2 X-17.053 Y46.126 Z1.000 I-1.444 J0.060 F30000.000
G2 X-17.947 Y48.874 Z1.000 I-0.447 J1.374 F30000.000
G2 X-16.056 Y47.440 Z1.000 I0.447 J-1.374 F30000.000
G1 X-16.056 Y47.440 Z0.500 F24000.000
G2 X-17.053 Y46.126 Z0.500 I-1.444 J0.060 F30000.000
G2 X-17.947 Y48.874 Z0.500 I-0.447 J1.374 F30000.000
G2 X-16.056 Y47.440 Z0.500 I0.447 J-1.374 F30000.000
G1 X-16.056 Y47.440 Z0.000 F24000.000
G2 X-17.053 Y46.126 Z0.000 I-1.444 J0.060 F30000.000
G2 X-17.947 Y48.874 Z0.000 I-0.447 J1.374 F30000.000
G2 X-16.056 Y47.440 Z0.000 I0.447 J-1.374 F30000.000
G1 X-16.056 Y47.440 Z-0.250 F24000.000
G2 X-17.053 Y46.126 Z-0.250 I-1.444 J0.060 F30000.000
G2 X-17.947 Y48.874 Z-0.250 I-0.447 J1.374 F30000.000
G2 X-16.056 Y47.440 Z-0.250 I0.447 J-1.374 F30000.000
G0 Z20.000
G0 Z20.000
G0 X-16.056 Y47.440
G0 X-17.441 Y81.056
G0 X-17.441 Y81.056 Z18.000
G1 X-17.441 Y81.056 Z12.500 F24000.000
G2 X-17.947 Y83.874 Z12.500 I-0.059 J1.444 F30000.000
G2 X-16.126 Y82.947 Z12.500 I0.447 J-1.374 F30000.000
G2 X-17.053 Y81.126 Z12.500 I-1.374 J-0.447 F30000.000
G2 X-17.441 Y81.056 Z12.500 I-0.447 J1.374 F30000.000
G1 X-17.441 Y81.056 Z12.000 F24000.000
G2 X-17.947 Y83.874 Z12.000 I-0.059 J1.444 F30000.000
G2 X-16.126 Y82.947 Z12.000 I0.447 J-1.374 F30000.000
G2 X-17.053 Y81.126 Z12.000 I-1.374 J-0.447 F30000.000
G2 X-17.441 Y81.056 Z12.000 I-0.447 J1.374 F30000.000
G1 X-17.441 Y81.056 Z11.500 F24000.000
G2 X-17.947 Y83.874 Z11.500 I-0.059 J1.444 F30000.000
G2 X-16.126 Y82.947 Z11.500 I0.447 J-1.374 F30000.000
G2 X-17.053 Y81.126 Z11.500 I-1.374 J-0.447 F30000.000
G2 X-17.441 Y81.056 Z11.500 I-0.447 J1.374 F30000.000
G1 X-17.441 Y81.056 Z11.000 F24000.000
G2 X-17.947 Y83.874 Z11.000 I-0.059 J1.444 F30000.000
G2 X-16.126 Y82.947 Z11.000 I0.447 J-1.374 F30000.000
G2 X-17.053 Y81.126 Z11.000 I-1.374 J-0.447 F30000.000
G2 X-17.441 Y81.056 Z11.000 I-0.447 J1.374 F30000.000
G1 X-17.441 Y81.056 Z10.500 F24000.000
G2 X-17.947 Y83.874 Z10.500 I-0.059 J1.444 F30000.000
G2 X-16.126 Y82.947 Z10.500 I0.447 J-1.374 F30000.000
G2 X-17.053 Y81.126 Z10.500 I-1.374 J-0.447 F30000.000
G2 X-17.441 Y81.056 Z10.500 I-0.447 J1.374 F30000.000
G1 X-17.441 Y81.056 Z10.000 F24000.000
G2 X-17.947 Y83.874 Z10.000 I-0.059 J1.444 F30000.000
G2 X-16.126 Y82.947 Z10.000 I0.447 J-1.374 F30000.000
G2 X-17.053 Y81.126 Z10.000 I-1.374 J-0.447 F30000.000
G2 X-17.441 Y81.056 Z10.000 I-0.447 J1.374 F30000.000
G1 X-17.441 Y81.056 Z9.500 F24000.000
G2 X-17.947 Y83.874 Z9.500 I-0.059 J1.444 F30000.000
G2 X-16.126 Y82.947 Z9.500 I0.447 J-1.374 F30000.000
G2 X-17.053 Y81.126 Z9.500 I-1.374 J-0.447 F30000.000
G2 X-17.441 Y81.056 Z9.500 I-0.447 J1.374 F30000.000
G1 X-17.441 Y81.056 Z9.000 F24000.000
G2 X-17.947 Y83.874 Z9.000 I-0.059 J1.444 F30000.000
G2 X-16.126 Y82.947 Z9.000 I0.447 J-1.374 F30000.000
G2 X-17.053 Y81.126 Z9.000 I-1.374 J-0.447 F30000.000
G2 X-17.441 Y81.056 Z9.000 I-0.447 J1.374 F30000.000
G1 X-17.441 Y81.056 Z8.500 F24000.000
G2 X-17.947 Y83.874 Z8.500 I-0.059 J1.444 F30000.000
G2 X-16.126 Y82.947 Z8.500 I0.447 J-1.374 F30000.000
G2 X-17.053 Y81.126 Z8.500 I-1.374 J-0.447 F30000.000
G2 X-17.441 Y81.056 Z8.500 I-0.447 J1.374 F30000.000
G1 X-17.441 Y81.056 Z8.000 F24000.000
G2 X-17.947 Y83.874 Z8.000 I-0.059 J1.444 F30000.000
G2 X-16.126 Y82.947 Z8.000 I0.447 J-1.374 F30000.000
G2 X-17.053 Y81.126 Z8.000 I-1.374 J-0.447 F30000.000
G2 X-17.441 Y81.056 Z8.000 I-0.447 J1.374 F30000.000
G1 X-17.441 Y81.056 Z7.500 F24000.000
G2 X-17.947 Y83.874 Z7.500 I-0.059 J1.444 F30000.000
G2 X-16.126 Y82.947 Z7.500 I0.447 J-1.374 F30000.000
G2 X-17.053 Y81.126 Z7.500 I-1.374 J-0.447 F30000.000
G2 X-17.441 Y81.056 Z7.500 I-0.447 J1.374 F30000.000
G1 X-17.441 Y81.056 Z7.000 F24000.000
G2 X-17.947 Y83.874 Z7.000 I-0.059 J1.444 F30000.000
G2 X-16.126 Y82.947 Z7.000 I0.447 J-1.374 F30000.000
G2 X-17.053 Y81.126 Z7.000 I-1.374 J-0.447 F30000.000
G2 X-17.441 Y81.056 Z7.000 I-0.447 J1.374 F30000.000
G1 X-17.441 Y81.056 Z6.500 F24000.000
G2 X-17.947 Y83.874 Z6.500 I-0.059 J1.444 F30000.000
G2 X-16.126 Y82.947 Z6.500 I0.447 J-1.374 F30000.000
G2 X-17.053 Y81.126 Z6.500 I-1.374 J-0.447 F30000.000
G2 X-17.441 Y81.056 Z6.500 I-0.447 J1.374 F30000.000
G1 X-17.441 Y81.056 Z6.000 F24000.000
G2 X-17.947 Y83.874 Z6.000 I-0.059 J1.444 F30000.000
G2 X-16.126 Y82.947 Z6.000 I0.447 J-1.374 F30000.000
G2 X-17.053 Y81.126 Z6.000 I-1.374 J-0.447 F30000.000
G2 X-17.441 Y81.056 Z6.000 I-0.447 J1.374 F30000.000
G1 X-17.441 Y81.056 Z5.500 F24000.000
G2 X-17.947 Y83.874 Z5.500 I-0.059 J1.444 F30000.000
G2 X-16.126 Y82.947 Z5.500 I0.447 J-1.374 F30000.000
G2 X-17.053 Y81.126 Z5.500 I-1.374 J-0.447 F30000.000
G2 X-17.441 Y81.056 Z5.500 I-0.447 J1.374 F30000.000
G1 X-17.441 Y81.056 Z5.000 F24000.000
G2 X-17.947 Y83.874 Z5.000 I-0.059 J1.444 F30000.000
G2 X-16.126 Y82.947 Z5.000 I0.447 J-1.374 F30000.000
G2 X-17.053 Y81.126 Z5.000 I-1.374 J-0.447 F30000.000
G2 X-17.441 Y81.056 Z5.000 I-0.447 J1.374 F30000.000
G1 X-17.441 Y81.056 Z4.500 F24000.000
G2 X-17.947 Y83.874 Z4.500 I-0.059 J1.444 F30000.000
G2 X-16.126 Y82.947 Z4.500 I0.447 J-1.374 F30000.000
G2 X-17.053 Y81.126 Z4.500 I-1.374 J-0.447 F30000.000
G2 X-17.441 Y81.056 Z4.500 I-0.447 J1.374 F30000.000
G1 X-17.441 Y81.056 Z4.000 F24000.000
G2 X-17.947 Y83.874 Z4.000 I-0.059 J1.444 F30000.000
G2 X-16.126 Y82.947 Z4.000 I0.447 J-1.374 F30000.000
G2 X-17.053 Y81.126 Z4.000 I-1.374 J-0.447 F30000.000
G2 X-17.441 Y81.056 Z4.000 I-0.447 J1.374 F30000.000
G1 X-17.441 Y81.056 Z3.500 F24000.000
G2 X-17.947 Y83.874 Z3.500 I-0.059 J1.444 F30000.000
G2 X-16.126 Y82.947 Z3.500 I0.447 J-1.374 F30000.000
G2 X-17.053 Y81.126 Z3.500 I-1.374 J-0.447 F30000.000
G2 X-17.441 Y81.056 Z3.500 I-0.447 J1.374 F30000.000
G1 X-17.441 Y81.056 Z3.000 F24000.000
G2 X-17.947 Y83.874 Z3.000 I-0.059 J1.444 F30000.000
G2 X-16.126 Y82.947 Z3.000 I0.447 J-1.374 F30000.000
G2 X-17.053 Y81.126 Z3.000 I-1.374 J-0.447 F30000.000
G2 X-17.441 Y81.056 Z3.000 I-0.447 J1.374 F30000.000
G1 X-17.441 Y81.056 Z2.500 F24000.000
G2 X-17.947 Y83.874 Z2.500 I-0.059 J1.444 F30000.000
G2 X-16.126 Y82.947 Z2.500 I0.447 J-1.374 F30000.000
G2 X-17.053 Y81.126 Z2.500 I-1.374 J-0.447 F30000.000
G2 X-17.441 Y81.056 Z2.500 I-0.447 J1.374 F30000.000
G1 X-17.441 Y81.056 Z2.000 F24000.000
G2 X-17.947 Y83.874 Z2.000 I-0.059 J1.444 F30000.000
G2 X-16.126 Y82.947 Z2.000 I0.447 J-1.374 F30000.000
G2 X-17.053 Y81.126 Z2.000 I-1.374 J-0.447 F30000.000
G2 X-17.441 Y81.056 Z2.000 I-0.447 J1.374 F30000.000
G1 X-17.441 Y81.056 Z1.500 F24000.000
G2 X-17.947 Y83.874 Z1.500 I-0.059 J1.444 F30000.000
G2 X-16.126 Y82.947 Z1.500 I0.447 J-1.374 F30000.000
G2 X-17.053 Y81.126 Z1.500 I-1.374 J-0.447 F30000.000
G2 X-17.441 Y81.056 Z1.500 I-0.447 J1.374 F30000.000
G1 X-17.441 Y81.056 Z1.000 F24000.000
G2 X-17.947 Y83.874 Z1.000 I-0.059 J1.444 F30000.000
G2 X-16.126 Y82.947 Z1.000 I0.447 J-1.374 F30000.000
G2 X-17.053 Y81.126 Z1.000 I-1.374 J-0.447 F30000.000
G2 X-17.441 Y81.056 Z1.000 I-0.447 J1.374 F30000.000
G1 X-17.441 Y81.056 Z0.500 F24000.000
G2 X-17.947 Y83.874 Z0.500 I-0.059 J1.444 F30000.000
G2 X-16.126 Y82.947 Z0.500 I0.447 J-1.374 F30000.000
G2 X-17.053 Y81.126 Z0.500 I-1.374 J-0.447 F30000.000
G2 X-17.441 Y81.056 Z0.500 I-0.447 J1.374 F30000.000
G1 X-17.441 Y81.056 Z0.000 F24000.000
G2 X-17.947 Y83.874 Z0.000 I-0.059 J1.444 F30000.000
G2 X-16.126 Y82.947 Z0.000 I0.447 J-1.374 F30000.000
G2 X-17.053 Y81.126 Z0.000 I-1.374 J-0.447 F30000.000
G2 X-17.441 Y81.056 Z0.000 I-0.447 J1.374 F30000.000
G1 X-17.441 Y81.056 Z-0.250 F24000.000
G2 X-17.947 Y83.874 Z-0.250 I-0.059 J1.444 F30000.000
G2 X-16.126 Y82.947 Z-0.250 I0.447 J-1.374 F30000.000
G2 X-17.053 Y81.126 Z-0.250 I-1.374 J-0.447 F30000.000
G2 X-17.441 Y81.056 Z-0.250 I-0.447 J1.374 F30000.000
G0 Z20.000
G0 Z20.000
G0 X-17.441 Y81.056
G0 X16.056 Y82.440
G0 X16.056 Y82.440 Z18.000
G1 X16.056 Y82.440 Z12.500 F24000.000
G2 X17.053 Y83.874 Z12.500 I1.444 J0.060 F30000.000
G2 X18.874 Y82.947 Z12.500 I0.447 J-1.374 F30000.000
G2 X17.947 Y81.126 Z12.500 I-1.374 J-0.447 F30000.000
G2 X16.056 Y82.440 Z12.500 I-0.447 J1.374 F30000.000
G1 X16.056 Y82.440 Z12.000 F24000.000
G2 X17.053 Y83.874 Z12.000 I1.444 J0.060 F30000.000
G2 X18.874 Y82.947 Z12.000 I0.447 J-1.374 F30000.000
G2 X17.947 Y81.126 Z12.000 I-1.374 J-0.447 F30000.000
G2 X16.056 Y82.440 Z12.000 I-0.447 J1.374 F30000.000
G1 X16.056 Y82.440 Z11.500 F24000.000
G2 X17.053 Y83.874 Z11.500 I1.444 J0.060 F30000.000
G2 X18.874 Y82.947 Z11.500 I0.447 J-1.374 F30000.000
G2 X17.947 Y81.126 Z11.500 I-1.374 J-0.447 F30000.000
G2 X16.056 Y82.440 Z11.500 I-0.447 J1.374 F30000.000
G1 X16.056 Y82.440 Z11.000 F24000.000
G2 X17.053 Y83.874 Z11.000 I1.444 J0.060 F30000.000
G2 X18.874 Y82.947 Z11.000 I0.447 J-1.374 F30000.000
G2 X17.947 Y81.126 Z11.000 I-1.374 J-0.447 F30000.000
G2 X16.056 Y82.440 Z11.000 I-0.447 J1.374 F30000.000
G1 X16.056 Y82.440 Z10.500 F24000.000
G2 X17.053 Y83.874 Z10.500 I1.444 J0.060 F30000.000
G2 X18.874 Y82.947 Z10.500 I0.447 J-1.374 F30000.000
G2 X17.947 Y81.126 Z10.500 I-1.374 J-0.447 F30000.000
G2 X16.056 Y82.440 Z10.500 I-0.447 J1.374 F30000.000
G1 X16.056 Y82.440 Z10.000 F24000.000
G2 X17.053 Y83.874 Z10.000 I1.444 J0.060 F30000.000
G2 X18.874 Y82.947 Z10.000 I0.447 J-1.374 F30000.000
G2 X17.947 Y81.126 Z10.000 I-1.374 J-0.447 F30000.000
G2 X16.056 Y82.440 Z10.000 I-0.447 J1.374 F30000.000
G1 X16.056 Y82.440 Z9.500 F24000.000
G2 X17.053 Y83.874 Z9.500 I1.444 J0.060 F30000.000
G2 X18.874 Y82.947 Z9.500 I0.447 J-1.374 F30000.000
G2 X17.947 Y81.126 Z9.500 I-1.374 J-0.447 F30000.000
G2 X16.056 Y82.440 Z9.500 I-0.447 J1.374 F30000.000
G1 X16.056 Y82.440 Z9.000 F24000.000
G2 X17.053 Y83.874 Z9.000 I1.444 J0.060 F30000.000
G2 X18.874 Y82.947 Z9.000 I0.447 J-1.374 F30000.000
G2 X17.947 Y81.126 Z9.000 I-1.374 J-0.447 F30000.000
G2 X16.056 Y82.440 Z9.000 I-0.447 J1.374 F30000.000
G1 X16.056 Y82.440 Z8.500 F24000.000
G2 X17.053 Y83.874 Z8.500 I1.444 J0.060 F30000.000
G2 X18.874 Y82.947 Z8.500 I0.447 J-1.374 F30000.000
G2 X17.947 Y81.126 Z8.500 I-1.374 J-0.447 F30000.000
G2 X16.056 Y82.440 Z8.500 I-0.447 J1.374 F30000.000
G1 X16.056 Y82.440 Z8.000 F24000.000
G2 X17.053 Y83.874 Z8.000 I1.444 J0.060 F30000.000
G2 X18.874 Y82.947 Z8.000 I0.447 J-1.374 F30000.000
G2 X17.947 Y81.126 Z8.000 I-1.374 J-0.447 F30000.000
G2 X16.056 Y82.440 Z8.000 I-0.447 J1.374 F30000.000
G1 X16.056 Y82.440 Z7.500 F24000.000
G2 X17.053 Y83.874 Z7.500 I1.444 J0.060 F30000.000
G2 X18.874 Y82.947 Z7.500 I0.447 J-1.374 F30000.000
G2 X17.947 Y81.126 Z7.500 I-1.374 J-0.447 F30000.000
G2 X16.056 Y82.440 Z7.500 I-0.447 J1.374 F30000.000
G1 X16.056 Y82.440 Z7.000 F24000.000
G2 X17.053 Y83.874 Z7.000 I1.444 J0.060 F30000.000
G2 X18.874 Y82.947 Z7.000 I0.447 J-1.374 F30000.000
G2 X17.947 Y81.126 Z7.000 I-1.374 J-0.447 F30000.000
G2 X16.056 Y82.440 Z7.000 I-0.447 J1.374 F30000.000
G1 X16.056 Y82.440 Z6.500 F24000.000
G2 X17.053 Y83.874 Z6.500 I1.444 J0.060 F30000.000
G2 X18.874 Y82.947 Z6.500 I0.447 J-1.374 F30000.000
G2 X17.947 Y81.126 Z6.500 I-1.374 J-0.447 F30000.000
G2 X16.056 Y82.440 Z6.500 I-0.447 J1.374 F30000.000
G1 X16.056 Y82.440 Z6.000 F24000.000
G2 X17.053 Y83.874 Z6.000 I1.444 J0.060 F30000.000
G2 X18.874 Y82.947 Z6.000 I0.447 J-1.374 F30000.000
G2 X17.947 Y81.126 Z6.000 I-1.374 J-0.447 F30000.000
G2 X16.056 Y82.440 Z6.000 I-0.447 J1.374 F30000.000
G1 X16.056 Y82.440 Z5.500 F24000.000
G2 X17.053 Y83.874 Z5.500 I1.444 J0.060 F30000.000
G2 X18.874 Y82.947 Z5.500 I0.447 J-1.374 F30000.000
G2 X17.947 Y81.126 Z5.500 I-1.374 J-0.447 F30000.000
G2 X16.056 Y82.440 Z5.500 I-0.447 J1.374 F30000.000
G1 X16.056 Y82.440 Z5.000 F24000.000
G2 X17.053 Y83.874 Z5.000 I1.444 J0.060 F30000.000
G2 X18.874 Y82.947 Z5.000 I0.447 J-1.374 F30000.000
G2 X17.947 Y81.126 Z5.000 I-1.374 J-0.447 F30000.000
G2 X16.056 Y82.440 Z5.000 I-0.447 J1.374 F30000.000
G1 X16.056 Y82.440 Z4.500 F24000.000
G2 X17.053 Y83.874 Z4.500 I1.444 J0.060 F30000.000
G2 X18.874 Y82.947 Z4.500 I0.447 J-1.374 F30000.000
G2 X17.947 Y81.126 Z4.500 I-1.374 J-0.447 F30000.000
G2 X16.056 Y82.440 Z4.500 I-0.447 J1.374 F30000.000
G1 X16.056 Y82.440 Z4.000 F24000.000
G2 X17.053 Y83.874 Z4.000 I1.444 J0.060 F30000.000
G2 X18.874 Y82.947 Z4.000 I0.447 J-1.374 F30000.000
G2 X17.947 Y81.126 Z4.000 I-1.374 J-0.447 F30000.000
G2 X16.056 Y82.440 Z4.000 I-0.447 J1.374 F30000.000
G1 X16.056 Y82.440 Z3.500 F24000.000
G2 X17.053 Y83.874 Z3.500 I1.444 J0.060 F30000.000
G2 X18.874 Y82.947 Z3.500 I0.447 J-1.374 F30000.000
G2 X17.947 Y81.126 Z3.500 I-1.374 J-0.447 F30000.000
G2 X16.056 Y82.440 Z3.500 I-0.447 J1.374 F30000.000
G1 X16.056 Y82.440 Z3.000 F24000.000
G2 X17.053 Y83.874 Z3.000 I1.444 J0.060 F30000.000
G2 X18.874 Y82.947 Z3.000 I0.447 J-1.374 F30000.000
G2 X17.947 Y81.126 Z3.000 I-1.374 J-0.447 F30000.000
G2 X16.056 Y82.440 Z3.000 I-0.447 J1.374 F30000.000
G1 X16.056 Y82.440 Z2.500 F24000.000
G2 X17.053 Y83.874 Z2.500 I1.444 J0.060 F30000.000
G2 X18.874 Y82.947 Z2.500 I0.447 J-1.374 F30000.000
G2 X17.947 Y81.126 Z2.500 I-1.374 J-0.447 F30000.000
G2 X16.056 Y82.440 Z2.500 I-0.447 J1.374 F30000.000
G1 X16.056 Y82.440 Z2.000 F24000.000
G2 X17.053 Y83.874 Z2.000 I1.444 J0.060 F30000.000
G2 X18.874 Y82.947 Z2.000 I0.447 J-1.374 F30000.000
G2 X17.947 Y81.126 Z2.000 I-1.374 J-0.447 F30000.000
G2 X16.056 Y82.440 Z2.000 I-0.447 J1.374 F30000.000
G1 X16.056 Y82.440 Z1.500 F24000.000
G2 X17.053 Y83.874 Z1.500 I1.444 J0.060 F30000.000
G2 X18.874 Y82.947 Z1.500 I0.447 J-1.374 F30000.000
G2 X17.947 Y81.126 Z1.500 I-1.374 J-0.447 F30000.000
G2 X16.056 Y82.440 Z1.500 I-0.447 J1.374 F30000.000
G1 X16.056 Y82.440 Z1.000 F24000.000
G2 X17.053 Y83.874 Z1.000 I1.444 J0.060 F30000.000
G2 X18.874 Y82.947 Z1.000 I0.447 J-1.374 F30000.000
G2 X17.947 Y81.126 Z1.000 I-1.374 J-0.447 F30000.000
G2 X16.056 Y82.440 Z1.000 I-0.447 J1.374 F30000.000
G1 X16.056 Y82.440 Z0.500 F24000.000
G2 X17.053 Y83.874 Z0.500 I1.444 J0.060 F30000.000
G2 X18.874 Y82.947 Z0.500 I0.447 J-1.374 F30000.000
G2 X17.947 Y81.126 Z0.500 I-1.374 J-0.447 F30000.000
G2 X16.056 Y82.440 Z0.500 I-0.447 J1.374 F30000.000
G1 X16.056 Y82.440 Z0.000 F24000.000
G2 X17.053 Y83.874 Z0.000 I1.444 J0.060 F30000.000
G2 X18.874 Y82.947 Z0.000 I0.447 J-1.374 F30000.000
G2 X17.947 Y81.126 Z0.000 I-1.374 J-0.447 F30000.000
G2 X16.056 Y82.440 Z0.000 I-0.447 J1.374 F30000.000
G1 X16.056 Y82.440 Z-0.250 F24000.000
G2 X17.053 Y83.874 Z-0.250 I1.444 J0.060 F30000.000
G2 X18.874 Y82.947 Z-0.250 I0.447 J-1.374 F30000.000
G2 X17.947 Y81.126 Z-0.250 I-1.374 J-0.447 F30000.000
G2 X16.056 Y82.440 Z-0.250 I-0.447 J1.374 F30000.000
G0 Z20.000
G0 Z20.000
(finish operation: Holes)
(begin operation: DressupTag)
(machine: not set, mm/min)
G0 Z20.000
G0 X25.096 Y91.096 Z20.000
G0 X25.096 Y91.096 Z18.000
G1 X25.096 Y91.096 Z12.500 F24000.000
G3 X24.000 Y91.550 Z12.500 I-1.096 J-1.096 F30000.000
G1 X-24.000 Y91.550 Z12.500 F30000.000
G3 X-25.550 Y90.000 Z12.500 I-0.000 J-1.550 F30000.000
G1 X-25.550 Y-90.000 Z12.500 F30000.000
G3 X-24.000 Y-91.550 Z12.500 I1.550 J-0.000 F30000.000
G1 X24.000 Y-91.550 Z12.500 F30000.000
G3 X25.550 Y-90.000 Z12.500 I0.000 J1.550 F30000.000
G1 X25.550 Y90.000 Z12.500 F30000.000
G3 X25.096 Y91.096 Z12.500 I-1.550 J0.000 F30000.000
G1 X25.096 Y91.096 Z12.000 F24000.000
G3 X24.000 Y91.550 Z12.000 I-1.096 J-1.096 F30000.000
G1 X-24.000 Y91.550 Z12.000 F30000.000
G3 X-25.550 Y90.000 Z12.000 I-0.000 J-1.550 F30000.000
G1 X-25.550 Y-90.000 Z12.000 F30000.000
G3 X-24.000 Y-91.550 Z12.000 I1.550 J-0.000 F30000.000
G1 X24.000 Y-91.550 Z12.000 F30000.000
G3 X25.550 Y-90.000 Z12.000 I0.000 J1.550 F30000.000
G1 X25.550 Y90.000 Z12.000 F30000.000
G3 X25.096 Y91.096 Z12.000 I-1.550 J0.000 F30000.000
G1 X25.096 Y91.096 Z11.500 F24000.000
G3 X24.000 Y91.550 Z11.500 I-1.096 J-1.096 F30000.000
G1 X-24.000 Y91.550 Z11.500 F30000.000
G3 X-25.550 Y90.000 Z11.500 I-0.000 J-1.550 F30000.000
G1 X-25.550 Y-90.000 Z11.500 F30000.000
G3 X-24.000 Y-91.550 Z11.500 I1.550 J-0.000 F30000.000
G1 X24.000 Y-91.550 Z11.500 F30000.000
G3 X25.550 Y-90.000 Z11.500 I0.000 J1.550 F30000.000
G1 X25.550 Y90.000 Z11.500 F30000.000
G3 X25.096 Y91.096 Z11.500 I-1.550 J0.000 F30000.000
G1 X25.096 Y91.096 Z11.000 F24000.000
G3 X24.000 Y91.550 Z11.000 I-1.096 J-1.096 F30000.000
G1 X-24.000 Y91.550 Z11.000 F30000.000
G3 X-25.550 Y90.000 Z11.000 I-0.000 J-1.550 F30000.000
G1 X-25.550 Y-90.000 Z11.000 F30000.000
G3 X-24.000 Y-91.550 Z11.000 I1.550 J-0.000 F30000.000
G1 X24.000 Y-91.550 Z11.000 F30000.000
G3 X25.550 Y-90.000 Z11.000 I0.000 J1.550 F30000.000
G1 X25.550 Y90.000 Z11.000 F30000.000
G3 X25.096 Y91.096 Z11.000 I-1.550 J0.000 F30000.000
G1 X25.096 Y91.096 Z10.500 F24000.000
G3 X24.000 Y91.550 Z10.500 I-1.096 J-1.096 F30000.000
G1 X-24.000 Y91.550 Z10.500 F30000.000
G3 X-25.550 Y90.000 Z10.500 I-0.000 J-1.550 F30000.000
G1 X-25.550 Y-90.000 Z10.500 F30000.000
G3 X-24.000 Y-91.550 Z10.500 I1.550 J-0.000 F30000.000
G1 X24.000 Y-91.550 Z10.500 F30000.000
G3 X25.550 Y-90.000 Z10.500 I0.000 J1.550 F30000.000
G1 X25.550 Y90.000 Z10.500 F30000.000
G3 X25.096 Y91.096 Z10.500 I-1.550 J0.000 F30000.000
G1 X25.096 Y91.096 Z10.000 F24000.000
G3 X24.000 Y91.550 Z10.000 I-1.096 J-1.096 F30000.000
G1 X-24.000 Y91.550 Z10.000 F30000.000
G3 X-25.550 Y90.000 Z10.000 I-0.000 J-1.550 F30000.000
G1 X-25.550 Y-90.000 Z10.000 F30000.000
G3 X-24.000 Y-91.550 Z10.000 I1.550 J-0.000 F30000.000
G1 X24.000 Y-91.550 Z10.000 F30000.000
G3 X25.550 Y-90.000 Z10.000 I0.000 J1.550 F30000.000
G1 X25.550 Y90.000 Z10.000 F30000.000
G3 X25.096 Y91.096 Z10.000 I-1.550 J0.000 F30000.000
G1 X25.096 Y91.096 Z9.500 F24000.000
G3 X24.000 Y91.550 Z9.500 I-1.096 J-1.096 F30000.000
G1 X-24.000 Y91.550 Z9.500 F30000.000
G3 X-25.550 Y90.000 Z9.500 I-0.000 J-1.550 F30000.000
G1 X-25.550 Y-90.000 Z9.500 F30000.000
G3 X-24.000 Y-91.550 Z9.500 I1.550 J-0.000 F30000.000
G1 X24.000 Y-91.550 Z9.500 F30000.000
G3 X25.550 Y-90.000 Z9.500 I0.000 J1.550 F30000.000
G1 X25.550 Y90.000 Z9.500 F30000.000
G3 X25.096 Y91.096 Z9.500 I-1.550 J0.000 F30000.000
G1 X25.096 Y91.096 Z9.000 F24000.000
G3 X24.000 Y91.550 Z9.000 I-1.096 J-1.096 F30000.000
G1 X-24.000 Y91.550 Z9.000 F30000.000
G3 X-25.550 Y90.000 Z9.000 I-0.000 J-1.550 F30000.000
G1 X-25.550 Y-90.000 Z9.000 F30000.000
G3 X-24.000 Y-91.550 Z9.000 I1.550 J-0.000 F30000.000
G1 X24.000 Y-91.550 Z9.000 F30000.000
G3 X25.550 Y-90.000 Z9.000 I0.000 J1.550 F30000.000
G1 X25.550 Y90.000 Z9.000 F30000.000
G3 X25.096 Y91.096 Z9.000 I-1.550 J0.000 F30000.000
G1 X25.096 Y91.096 Z8.500 F24000.000
G3 X24.000 Y91.550 Z8.500 I-1.096 J-1.096 F30000.000
G1 X-24.000 Y91.550 Z8.500 F30000.000
G3 X-25.550 Y90.000 Z8.500 I-0.000 J-1.550 F30000.000
G1 X-25.550 Y-90.000 Z8.500 F30000.000
G3 X-24.000 Y-91.550 Z8.500 I1.550 J-0.000 F30000.000
G1 X24.000 Y-91.550 Z8.500 F30000.000
G3 X25.550 Y-90.000 Z8.500 I0.000 J1.550 F30000.000
G1 X25.550 Y90.000 Z8.500 F30000.000
G3 X25.096 Y91.096 Z8.500 I-1.550 J0.000 F30000.000
G1 X25.096 Y91.096 Z8.000 F24000.000
G3 X24.000 Y91.550 Z8.000 I-1.096 J-1.096 F30000.000
G1 X-24.000 Y91.550 Z8.000 F30000.000
G3 X-25.550 Y90.000 Z8.000 I-0.000 J-1.550 F30000.000
G1 X-25.550 Y-90.000 Z8.000 F30000.000
G3 X-24.000 Y-91.550 Z8.000 I1.550 J-0.000 F30000.000
G1 X24.000 Y-91.550 Z8.000 F30000.000
G3 X25.550 Y-90.000 Z8.000 I0.000 J1.550 F30000.000
G1 X25.550 Y90.000 Z8.000 F30000.000
G3 X25.096 Y91.096 Z8.000 I-1.550 J0.000 F30000.000
G1 X25.096 Y91.096 Z7.500 F24000.000
G3 X24.000 Y91.550 Z7.500 I-1.096 J-1.096 F30000.000
G1 X-24.000 Y91.550 Z7.500 F30000.000
G3 X-25.550 Y90.000 Z7.500 I-0.000 J-1.550 F30000.000
G1 X-25.550 Y-90.000 Z7.500 F30000.000
G3 X-24.000 Y-91.550 Z7.500 I1.550 J-0.000 F30000.000
G1 X24.000 Y-91.550 Z7.500 F30000.000
G3 X25.550 Y-90.000 Z7.500 I0.000 J1.550 F30000.000
G1 X25.550 Y90.000 Z7.500 F30000.000
G3 X25.096 Y91.096 Z7.500 I-1.550 J0.000 F30000.000
G1 X25.096 Y91.096 Z7.000 F24000.000
G3 X24.000 Y91.550 Z7.000 I-1.096 J-1.096 F30000.000
G1 X-24.000 Y91.550 Z7.000 F30000.000
G3 X-25.550 Y90.000 Z7.000 I-0.000 J-1.550 F30000.000
G1 X-25.550 Y-90.000 Z7.000 F30000.000
G3 X-24.000 Y-91.550 Z7.000 I1.550 J-0.000 F30000.000
G1 X24.000 Y-91.550 Z7.000 F30000.000
G3 X25.550 Y-90.000 Z7.000 I0.000 J1.550 F30000.000
G1 X25.550 Y90.000 Z7.000 F30000.000
G3 X25.096 Y91.096 Z7.000 I-1.550 J0.000 F30000.000
G1 X25.096 Y91.096 Z6.500 F24000.000
G3 X24.000 Y91.550 Z6.500 I-1.096 J-1.096 F30000.000
G1 X-24.000 Y91.550 Z6.500 F30000.000
G3 X-25.550 Y90.000 Z6.500 I-0.000 J-1.550 F30000.000
G1 X-25.550 Y-90.000 Z6.500 F30000.000
G3 X-24.000 Y-91.550 Z6.500 I1.550 J-0.000 F30000.000
G1 X24.000 Y-91.550 Z6.500 F30000.000
G3 X25.550 Y-90.000 Z6.500 I0.000 J1.550 F30000.000
G1 X25.550 Y90.000 Z6.500 F30000.000
G3 X25.096 Y91.096 Z6.500 I-1.550 J0.000 F30000.000
G1 X25.096 Y91.096 Z6.000 F24000.000
G3 X24.000 Y91.550 Z6.000 I-1.096 J-1.096 F30000.000
G1 X-24.000 Y91.550 Z6.000 F30000.000
G3 X-25.550 Y90.000 Z6.000 I-0.000 J-1.550 F30000.000
G1 X-25.550 Y49.234 Z6.000 F30000.000
G1 X-25.550 Y48.854 Z6.380 F27000.000
G1 X-25.550 Y41.146 Z6.380 F30000.000
G1 X-25.550 Y40.766 Z6.000 F27000.000
G1 X-25.550 Y-40.766 Z6.000 F30000.000
G1 X-25.550 Y-41.146 Z6.380 F27000.000
G1 X-25.550 Y-48.854 Z6.380 F30000.000
G1 X-25.550 Y-49.234 Z6.000 F27000.000
G1 X-25.550 Y-90.000 Z6.000 F30000.000
G3 X-24.000 Y-91.550 Z6.000 I1.550 J-0.000 F30000.000
G1 X24.000 Y-91.550 Z6.000 F30000.000
G3 X25.550 Y-90.000 Z6.000 I0.000 J1.550 F30000.000
G1 X25.550 Y-49.234 Z6.000 F30000.000
G1 X25.550 Y-48.854 Z6.380 F27000.000
G1 X25.550 Y-41.146 Z6.380 F30000.000
G1 X25.550 Y-40.766 Z6.000 F27000.000
G1 X25.550 Y40.766 Z6.000 F30000.000
G1 X25.550 Y41.146 Z6.380 F27000.000
G1 X25.550 Y48.854 Z6.380 F30000.000
G1 X25.550 Y49.234 Z6.000 F27000.000
G1 X25.550 Y90.000 Z6.000 F30000.000
G3 X25.096 Y91.096 Z6.000 I-1.550 J0.000 F30000.000
G1 X25.096 Y91.096 Z5.500 F24000.000
G3 X24.000 Y91.550 Z5.500 I-1.096 J-1.096 F30000.000
G1 X-24.000 Y91.550 Z5.500 F30000.000
G3 X-25.550 Y90.000 Z5.500 I-0.000 J-1.550 F30000.000
G1 X-25.550 Y49.734 Z5.500 F30000.000
G1 X-25.550 Y48.854 Z6.380 F27000.000
G1 X-25.550 Y41.146 Z6.380 F30000.000
G1 X-25.550 Y40.266 Z5.500 F27000.000
G1 X-25.550 Y-40.266 Z5.500 F30000.000
G1 X-25.550 Y-41.146 Z6.380 F27000.000
G1 X-25.550 Y-48.854 Z6.380 F30000.000
G1 X-25.550 Y-49.734 Z5.500 F27000.000
G1 X-25.550 Y-90.000 Z5.500 F30000.000
G3 X-24.000 Y-91.550 Z5.500 I1.550 J-0.000 F30000.000
G1 X24.000 Y-91.550 Z5.500 F30000.000
G3 X25.550 Y-90.000 Z5.500 I0.000 J1.550 F30000.000
G1 X25.550 Y-49.734 Z5.500 F30000.000
G1 X25.550 Y-48.854 Z6.380 F27000.000
G1 X25.550 Y-41.146 Z6.380 F30000.000
G1 X25.550 Y-40.266 Z5.500 F27000.000
G1 X25.550 Y40.266 Z5.500 F30000.000
G1 X25.550 Y41.146 Z6.380 F27000.000
G1 X25.550 Y48.854 Z6.380 F30000.000
G1 X25.550 Y49.734 Z5.500 F27000.000
G1 X25.550 Y90.000 Z5.500 F30000.000
G3 X25.096 Y91.096 Z5.500 I-1.550 J0.000 F30000.000
G1 X25.096 Y91.096 Z5.000 F24000.000
G3 X24.000 Y91.550 Z5.000 I-1.096 J-1.096 F30000.000
G1 X-24.000 Y91.550 Z5.000 F30000.000
G3 X-25.550 Y90.000 Z5.000 I-0.000 J-1.550 F30000.000
G1 X-25.550 Y50.234 Z5.000 F30000.000
G1 X-25.550 Y48.854 Z6.380 F27000.000
G1 X-25.550 Y41.146 Z6.380 F30000.000
G1 X-25.550 Y39.766 Z5.000 F27000.000
G1 X-25.550 Y-39.766 Z5.000 F30000.000
G1 X-25.550 Y-41.146 Z6.380 F27000.000
G1 X-25.550 Y-48.854 Z6.380 F30000.000
G1 X-25.550 Y-50.234 Z5.000 F27000.000
G1 X-25.550 Y-90.000 Z5.000 F30000.000
G3 X-24.000 Y-91.550 Z5.000 I1.550 J-0.000 F30000.000
G1 X24.000 Y-91.550 Z5.000 F30000.000
G3 X25.550 Y-90.000 Z5.000 I0.000 J1.550 F30000.000
G1 X25.550 Y-50.234 Z5.000 F30000.000
G1 X25.550 Y-48.854 Z6.380 F27000.000
G1 X25.550 Y-41.146 Z6.380 F30000.000
G1 X25.550 Y-39.766 Z5.000 F27000.000
G1 X25.550 Y39.766 Z5.000 F30000.000
G1 X25.550 Y41.146 Z6.380 F27000.000
G1 X25.550 Y48.854 Z6.380 F30000.000
G1 X25.550 Y50.234 Z5.000 F27000.000
G1 X25.550 Y90.000 Z5.000 F30000.000
G3 X25.096 Y91.096 Z5.000 I-1.550 J0.000 F30000.000
G1 X25.096 Y91.096 Z4.500 F24000.000
G3 X24.000 Y91.550 Z4.500 I-1.096 J-1.096 F30000.000
G1 X-24.000 Y91.550 Z4.500 F30000.000
G3 X-25.550 Y90.000 Z4.500 I-0.000 J-1.550 F30000.000
G1 X-25.550 Y50.734 Z4.500 F30000.000
G1 X-25.550 Y48.854 Z6.380 F27000.000
G1 X-25.550 Y41.146 Z6.380 F30000.000
G1 X-25.550 Y39.266 Z4.500 F27000.000
G1 X-25.550 Y-39.266 Z4.500 F30000.000
G1 X-25.550 Y-41.146 Z6.380 F27000.000
G1 X-25.550 Y-48.854 Z6.380 F30000.000
G1 X-25.550 Y-50.734 Z4.500 F27000.000
G1 X-25.550 Y-90.000 Z4.500 F30000.000
G3 X-24.000 Y-91.550 Z4.500 I1.550 J-0.000 F30000.000
G1 X24.000 Y-91.550 Z4.500 F30000.000
G3 X25.550 Y-90.000 Z4.500 I0.000 J1.550 F30000.000
G1 X25.550 Y-50.734 Z4.500 F30000.000
G1 X25.550 Y-48.854 Z6.380 F27000.000
G1 X25.550 Y-41.146 Z6.380 F30000.000
G1 X25.550 Y-39.266 Z4.500 F27000.000
G1 X25.550 Y39.266 Z4.500 F30000.000
G1 X25.550 Y41.146 Z6.380 F27000.000
G1 X25.550 Y48.854 Z6.380 F30000.000
G1 X25.550 Y50.734 Z4.500 F27000.000
G1 X25.550 Y90.000 Z4.500 F30000.000
G3 X25.096 Y91.096 Z4.500 I-1.550 J0.000 F30000.000
G1 X25.096 Y91.096 Z4.000 F24000.000
G3 X24.000 Y91.550 Z4.000 I-1.096 J-1.096 F30000.000
G1 X-24.000 Y91.550 Z4.000 F30000.000
G3 X-25.550 Y90.000 Z4.000 I-0.000 J-1.550 F30000.000
G1 X-25.550 Y51.234 Z4.000 F30000.000
G1 X-25.550 Y48.854 Z6.380 F27000.000
G1 X-25.550 Y41.146 Z6.380 F30000.000
G1 X-25.550 Y38.766 Z4.000 F27000.000
G1 X-25.550 Y-38.766 Z4.000 F30000.000
G1 X-25.550 Y-41.146 Z6.380 F27000.000
G1 X-25.550 Y-48.854 Z6.380 F30000.000
G1 X-25.550 Y-51.234 Z4.000 F27000.000
G1 X-25.550 Y-90.000 Z4.000 F30000.000
G3 X-24.000 Y-91.550 Z4.000 I1.550 J-0.000 F30000.000
G1 X24.000 Y-91.550 Z4.000 F30000.000
G3 X25.550 Y-90.000 Z4.000 I0.000 J1.550 F30000.000
G1 X25.550 Y-51.234 Z4.000 F30000.000
G1 X25.550 Y-48.854 Z6.380 F27000.000
G1 X25.550 Y-41.146 Z6.380 F30000.000
G1 X25.550 Y-38.766 Z4.000 F27000.000
G1 X25.550 Y38.766 Z4.000 F30000.000
G1 X25.550 Y41.146 Z6.380 F27000.000
G1 X25.550 Y48.854 Z6.380 F30000.000
G1 X25.550 Y51.234 Z4.000 F27000.000
G1 X25.550 Y90.000 Z4.000 F30000.000
G3 X25.096 Y91.096 Z4.000 I-1.550 J0.000 F30000.000
G1 X25.096 Y91.096 Z3.500 F24000.000
G3 X24.000 Y91.550 Z3.500 I-1.096 J-1.096 F30000.000
G1 X-24.000 Y91.550 Z3.500 F30000.000
G3 X-25.550 Y90.000 Z3.500 I-0.000 J-1.550 F30000.000
G1 X-25.550 Y51.734 Z3.500 F30000.000
G1 X-25.550 Y48.854 Z6.380 F27000.000
G1 X-25.550 Y41.146 Z6.380 F30000.000
G1 X-25.550 Y38.266 Z3.500 F27000.000
G1 X-25.550 Y-38.266 Z3.500 F30000.000
G1 X-25.550 Y-41.146 Z6.380 F27000.000
G1 X-25.550 Y-48.854 Z6.380 F30000.000
G1 X-25.550 Y-51.734 Z3.500 F27000.000
G1 X-25.550 Y-90.000 Z3.500 F30000.000
G3 X-24.000 Y-91.550 Z3.500 I1.550 J-0.000 F30000.000
G1 X24.000 Y-91.550 Z3.500 F30000.000
G3 X25.550 Y-90.000 Z3.500 I0.000 J1.550 F30000.000
G1 X25.550 Y-51.734 Z3.500 F30000.000
G1 X25.550 Y-48.854 Z6.380 F27000.000
G1 X25.550 Y-41.146 Z6.380 F30000.000
G1 X25.550 Y-38.266 Z3.500 F27000.000
G1 X25.550 Y38.266 Z3.500 F30000.000
G1 X25.550 Y41.146 Z6.380 F27000.000
G1 X25.550 Y48.854 Z6.380 F30000.000
G1 X25.550 Y51.734 Z3.500 F27000.000
G1 X25.550 Y90.000 Z3.500 F30000.000
G3 X25.096 Y91.096 Z3.500 I-1.550 J0.000 F30000.000
G1 X25.096 Y91.096 Z3.000 F24000.000
G3 X24.000 Y91.550 Z3.000 I-1.096 J-1.096 F30000.000
G1 X-24.000 Y91.550 Z3.000 F30000.000
G3 X-25.550 Y90.000 Z3.000 I-0.000 J-1.550 F30000.000
G1 X-25.550 Y52.234 Z3.000 F30000.000
G1 X-25.550 Y48.854 Z6.380 F27000.000
G1 X-25.550 Y41.146 Z6.380 F30000.000
G1 X-25.550 Y37.766 Z3.000 F27000.000
G1 X-25.550 Y-37.766 Z3.000 F30000.000
G1 X-25.550 Y-41.146 Z6.380 F27000.000
G1 X-25.550 Y-48.854 Z6.380 F30000.000
G1 X-25.550 Y-52.234 Z3.000 F27000.000
G1 X-25.550 Y-90.000 Z3.000 F30000.000
G3 X-24.000 Y-91.550 Z3.000 I1.550 J-0.000 F30000.000
G1 X24.000 Y-91.550 Z3.000 F30000.000
G3 X25.550 Y-90.000 Z3.000 I0.000 J1.550 F30000.000
G1 X25.550 Y-52.234 Z3.000 F30000.000
G1 X25.550 Y-48.854 Z6.380 F27000.000
G1 X25.550 Y-41.146 Z6.380 F30000.000
G1 X25.550 Y-37.766 Z3.000 F27000.000
G1 X25.550 Y37.766 Z3.000 F30000.000
G1 X25.550 Y41.146 Z6.380 F27000.000
G1 X25.550 Y48.854 Z6.380 F30000.000
G1 X25.550 Y52.234 Z3.000 F27000.000
G1 X25.550 Y90.000 Z3.000 F30000.000
G3 X25.096 Y91.096 Z3.000 I-1.550 J0.000 F30000.000
G1 X25.096 Y91.096 Z2.500 F24000.000
G3 X24.000 Y91.550 Z2.500 I-1.096 J-1.096 F30000.000
G1 X-24.000 Y91.550 Z2.500 F30000.000
G3 X-25.550 Y90.000 Z2.500 I-0.000 J-1.550 F30000.000
G1 X-25.550 Y52.734 Z2.500 F30000.000
G1 X-25.550 Y48.854 Z6.380 F27000.000
G1 X-25.550 Y41.146 Z6.380 F30000.000
G1 X-25.550 Y37.266 Z2.500 F27000.000
G1 X-25.550 Y-37.266 Z2.500 F30000.000
G1 X-25.550 Y-41.146 Z6.380 F27000.000
G1 X-25.550 Y-48.854 Z6.380 F30000.000
G1 X-25.550 Y-52.734 Z2.500 F27000.000
G1 X-25.550 Y-90.000 Z2.500 F30000.000
G3 X-24.000 Y-91.550 Z2.500 I1.550 J-0.000 F30000.000
G1 X24.000 Y-91.550 Z2.500 F30000.000
G3 X25.550 Y-90.000 Z2.500 I0.000 J1.550 F30000.000
G1 X25.550 Y-52.734 Z2.500 F30000.000
G1 X25.550 Y-48.854 Z6.380 F27000.000
G1 X25.550 Y-41.146 Z6.380 F30000.000
G1 X25.550 Y-37.266 Z2.500 F27000.000
G1 X25.550 Y37.266 Z2.500 F30000.000
G1 X25.550 Y41.146 Z6.380 F27000.000
G1 X25.550 Y48.854 Z6.380 F30000.000
G1 X25.550 Y52.734 Z2.500 F27000.000
G1 X25.550 Y90.000 Z2.500 F30000.000
G3 X25.096 Y91.096 Z2.500 I-1.550 J0.000 F30000.000
G1 X25.096 Y91.096 Z2.000 F24000.000
G3 X24.000 Y91.550 Z2.000 I-1.096 J-1.096 F30000.000
G1 X-24.000 Y91.550 Z2.000 F30000.000
G3 X-25.550 Y90.000 Z2.000 I-0.000 J-1.550 F30000.000
G1 X-25.550 Y53.234 Z2.000 F30000.000
G1 X-25.550 Y48.854 Z6.380 F27000.000
G1 X-25.550 Y41.146 Z6.380 F30000.000
G1 X-25.550 Y36.766 Z2.000 F27000.000
G1 X-25.550 Y-36.766 Z2.000 F30000.000
G1 X-25.550 Y-41.146 Z6.380 F27000.000
G1 X-25.550 Y-48.854 Z6.380 F30000.000
G1 X-25.550 Y-53.234 Z2.000 F27000.000
G1 X-25.550 Y-90.000 Z2.000 F30000.000
G3 X-24.000 Y-91.550 Z2.000 I1.550 J-0.000 F30000.000
G1 X24.000 Y-91.550 Z2.000 F30000.000
G3 X25.550 Y-90.000 Z2.000 I0.000 J1.550 F30000.000
G1 X25.550 Y-53.234 Z2.000 F30000.000
G1 X25.550 Y-48.854 Z6.380 F27000.000
G1 X25.550 Y-41.146 Z6.380 F30000.000
G1 X25.550 Y-36.766 Z2.000 F27000.000
G1 X25.550 Y36.766 Z2.000 F30000.000
G1 X25.550 Y41.146 Z6.380 F27000.000
G1 X25.550 Y48.854 Z6.380 F30000.000
G1 X25.550 Y53.234 Z2.000 F27000.000
G1 X25.550 Y90.000 Z2.000 F30000.000
G3 X25.096 Y91.096 Z2.000 I-1.550 J0.000 F30000.000
G1 X25.096 Y91.096 Z1.500 F24000.000
G3 X24.000 Y91.550 Z1.500 I-1.096 J-1.096 F30000.000
G1 X-24.000 Y91.550 Z1.500 F30000.000
G3 X-25.550 Y90.000 Z1.500 I-0.000 J-1.550 F30000.000
G1 X-25.550 Y53.734 Z1.500 F30000.000
G1 X-25.550 Y48.854 Z6.380 F27000.000
G1 X-25.550 Y41.146 Z6.380 F30000.000
G1 X-25.550 Y36.266 Z1.500 F27000.000
G1 X-25.550 Y-36.266 Z1.500 F30000.000
G1 X-25.550 Y-41.146 Z6.380 F27000.000
G1 X-25.550 Y-48.854 Z6.380 F30000.000
G1 X-25.550 Y-53.734 Z1.500 F27000.000
G1 X-25.550 Y-90.000 Z1.500 F30000.000
G3 X-24.000 Y-91.550 Z1.500 I1.550 J-0.000 F30000.000
G1 X24.000 Y-91.550 Z1.500 F30000.000
G3 X25.550 Y-90.000 Z1.500 I0.000 J1.550 F30000.000
G1 X25.550 Y-53.734 Z1.500 F30000.000
G1 X25.550 Y-48.854 Z6.380 F27000.000
G1 X25.550 Y-41.146 Z6.380 F30000.000
G1 X25.550 Y-36.266 Z1.500 F27000.000
G1 X25.550 Y36.266 Z1.500 F30000.000
G1 X25.550 Y41.146 Z6.380 F27000.000
G1 X25.550 Y48.854 Z6.380 F30000.000
G1 X25.550 Y53.734 Z1.500 F27000.000
G1 X25.550 Y90.000 Z1.500 F30000.000
G3 X25.096 Y91.096 Z1.500 I-1.550 J0.000 F30000.000
G1 X25.096 Y91.096 Z1.000 F24000.000
G3 X24.000 Y91.550 Z1.000 I-1.096 J-1.096 F30000.000
G1 X-24.000 Y91.550 Z1.000 F30000.000
G3 X-25.550 Y90.000 Z1.000 I-0.000 J-1.550 F30000.000
G1 X-25.550 Y54.234 Z1.000 F30000.000
G1 X-25.550 Y48.854 Z6.380 F27000.000
G1 X-25.550 Y41.146 Z6.380 F30000.000
G1 X-25.550 Y35.766 Z1.000 F27000.000
G1 X-25.550 Y-35.766 Z1.000 F30000.000
G1 X-25.550 Y-41.146 Z6.380 F27000.000
G1 X-25.550 Y-48.854 Z6.380 F30000.000
G1 X-25.550 Y-54.234 Z1.000 F27000.000
G1 X-25.550 Y-90.000 Z1.000 F30000.000
G3 X-24.000 Y-91.550 Z1.000 I1.550 J-0.000 F30000.000
G1 X24.000 Y-91.550 Z1.000 F30000.000
G3 X25.550 Y-90.000 Z1.000 I0.000 J1.550 F30000.000
G1 X25.550 Y-54.234 Z1.000 F30000.000
G1 X25.550 Y-48.854 Z6.380 F27000.000
G1 X25.550 Y-41.146 Z6.380 F30000.000
G1 X25.550 Y-35.766 Z1.000 F27000.000
G1 X25.550 Y35.766 Z1.000 F30000.000
G1 X25.550 Y41.146 Z6.380 F27000.000
G1 X25.550 Y48.854 Z6.380 F30000.000
G1 X25.550 Y54.234 Z1.000 F27000.000
G1 X25.550 Y90.000 Z1.000 F30000.000
G3 X25.096 Y91.096 Z1.000 I-1.550 J0.000 F30000.000
G1 X25.096 Y91.096 Z0.500 F24000.000
G3 X24.000 Y91.550 Z0.500 I-1.096 J-1.096 F30000.000
G1 X-24.000 Y91.550 Z0.500 F30000.000
G3 X-25.550 Y90.000 Z0.500 I-0.000 J-1.550 F30000.000
G1 X-25.550 Y54.734 Z0.500 F30000.000
G1 X-25.550 Y48.854 Z6.380 F27000.000
G1 X-25.550 Y41.146 Z6.380 F30000.000
G1 X-25.550 Y35.266 Z0.500 F27000.000
G1 X-25.550 Y-35.266 Z0.500 F30000.000
G1 X-25.550 Y-41.146 Z6.380 F27000.000
G1 X-25.550 Y-48.854 Z6.380 F30000.000
G1 X-25.550 Y-54.734 Z0.500 F27000.000
G1 X-25.550 Y-90.000 Z0.500 F30000.000
G3 X-24.000 Y-91.550 Z0.500 I1.550 J-0.000 F30000.000
G1 X24.000 Y-91.550 Z0.500 F30000.000
G3 X25.550 Y-90.000 Z0.500 I0.000 J1.550 F30000.000
G1 X25.550 Y-54.734 Z0.500 F30000.000
G1 X25.550 Y-48.854 Z6.380 F27000.000
G1 X25.550 Y-41.146 Z6.380 F30000.000
G1 X25.550 Y-35.266 Z0.500 F27000.000
G1 X25.550 Y35.266 Z0.500 F30000.000
G1 X25.550 Y41.146 Z6.380 F27000.000
G1 X25.550 Y48.854 Z6.380 F30000.000
G1 X25.550 Y54.734 Z0.500 F27000.000
G1 X25.550 Y90.000 Z0.500 F30000.000
G3 X25.096 Y91.096 Z0.500 I-1.550 J0.000 F30000.000
G1 X25.096 Y91.096 Z0.000 F24000.000
G3 X24.000 Y91.550 Z0.000 I-1.096 J-1.096 F30000.000
G1 X-24.000 Y91.550 Z0.000 F30000.000
G3 X-25.550 Y90.000 Z0.000 I-0.000 J-1.550 F30000.000
G1 X-25.550 Y55.234 Z0.000 F30000.000
G1 X-25.550 Y48.854 Z6.380 F27000.000
G1 X-25.550 Y41.146 Z6.380 F30000.000
G1 X-25.550 Y34.766 Z-0.000 F27000.000
G1 X-25.550 Y-34.766 Z0.000 F30000.000
G1 X-25.550 Y-41.146 Z6.380 F27000.000
G1 X-25.550 Y-48.854 Z6.380 F30000.000
G1 X-25.550 Y-55.234 Z0.000 F27000.000
G1 X-25.550 Y-90.000 Z0.000 F30000.000
G3 X-24.000 Y-91.550 Z0.000 I1.550 J-0.000 F30000.000
G1 X24.000 Y-91.550 Z0.000 F30000.000
G3 X25.550 Y-90.000 Z0.000 I0.000 J1.550 F30000.000
G1 X25.550 Y-55.234 Z0.000 F30000.000
G1 X25.550 Y-48.854 Z6.380 F27000.000
G1 X25.550 Y-41.146 Z6.380 F30000.000
G1 X25.550 Y-34.766 Z-0.000 F27000.000
G1 X25.550 Y34.766 Z0.000 F30000.000
G1 X25.550 Y41.146 Z6.380 F27000.000
G1 X25.550 Y48.854 Z6.380 F30000.000
G1 X25.550 Y55.234 Z-0.000 F27000.000
G1 X25.550 Y90.000 Z0.000 F30000.000
G3 X25.096 Y91.096 Z0.000 I-1.550 J0.000 F30000.000
G1 X25.096 Y91.096 Z-0.250 F24000.000
G3 X24.000 Y91.550 Z-0.250 I-1.096 J-1.096 F30000.000
G1 X-24.000 Y91.550 Z-0.250 F30000.000
G3 X-25.550 Y90.000 Z-0.250 I-0.000 J-1.550 F30000.000
G1 X-25.550 Y55.484 Z-0.250 F30000.000
G1 X-25.550 Y48.854 Z6.380 F27000.000
G1 X-25.550 Y41.146 Z6.380 F30000.000
G1 X-25.550 Y34.516 Z-0.250 F27000.000
G1 X-25.550 Y-34.516 Z-0.250 F30000.000
G1 X-25.550 Y-41.146 Z6.380 F27000.000
G1 X-25.550 Y-48.854 Z6.380 F30000.000
G1 X-25.550 Y-55.484 Z-0.250 F27000.000
G1 X-25.550 Y-90.000 Z-0.250 F30000.000
G3 X-24.000 Y-91.550 Z-0.250 I1.550 J-0.000 F30000.000
G1 X24.000 Y-91.550 Z-0.250 F30000.000
G3 X25.550 Y-90.000 Z-0.250 I0.000 J1.550 F30000.000
G1 X25.550 Y-55.484 Z-0.250 F30000.000
G1 X25.550 Y-48.854 Z6.380 F27000.000
G1 X25.550 Y-41.146 Z6.380 F30000.000
G1 X25.550 Y-34.516 Z-0.250 F27000.000
G1 X25.550 Y34.516 Z-0.250 F30000.000
G1 X25.550 Y41.146 Z6.380 F27000.000
G1 X25.550 Y48.854 Z6.380 F30000.000
G1 X25.550 Y55.484 Z-0.250 F27000.000
G1 X25.550 Y90.000 Z-0.250 F30000.000
G3 X25.096 Y91.096 Z-0.250 I-1.550 J0.000 F30000.000
G0 X25.096 Y91.096 Z20.000
(finish operation: DressupTag)
(begin postamble)
M05 M09
G17 G90 G80 G40
M30
