(Exported by FreeCAD)
(Post Processor: KineticNCBeamicon2_post)
(Output Time:2024-09-03 16:33:14.759825)
(begin preamble)
%
G17 G21 G40 G49 G80 G90
M08
G21
(begin operation: Fixture)
(machine: not set, mm/min)
G54
(finish operation: Fixture)
(begin operation: 3.1)
(machine: not set, mm/min)
(3.1)
M05
M09M6 T1
M3 S25000
(finish operation: 3.1)
(begin operation: Holes)
(machine: not set, mm/min)
(Holes)
(Compensated Tool Path. Diameter: 3.1)
G0 Z20.000
G0 X-46.478 Y-16.478
G0 Z18.000
G1 X-46.478 Y-16.478 Z12.500 F24000.000
G2 X-47.053 Y-18.874 Z12.500 I-1.022 J-1.022 F30000.000
G2 X-47.947 Y-16.126 Z12.500 I-0.447 J1.374 F30000.000
G2 X-46.478 Y-16.478 Z12.500 I0.447 J-1.374 F30000.000
G1 X-46.478 Y-16.478 Z12.000 F24000.000
G2 X-47.053 Y-18.874 Z12.000 I-1.022 J-1.022 F30000.000
G2 X-47.947 Y-16.126 Z12.000 I-0.447 J1.374 F30000.000
G2 X-46.478 Y-16.478 Z12.000 I0.447 J-1.374 F30000.000
G1 X-46.478 Y-16.478 Z11.500 F24000.000
G2 X-47.053 Y-18.874 Z11.500 I-1.022 J-1.022 F30000.000
G2 X-47.947 Y-16.126 Z11.500 I-0.447 J1.374 F30000.000
G2 X-46.478 Y-16.478 Z11.500 I0.447 J-1.374 F30000.000
G1 X-46.478 Y-16.478 Z11.000 F24000.000
G2 X-47.053 Y-18.874 Z11.000 I-1.022 J-1.022 F30000.000
G2 X-47.947 Y-16.126 Z11.000 I-0.447 J1.374 F30000.000
G2 X-46.478 Y-16.478 Z11.000 I0.447 J-1.374 F30000.000
G1 X-46.478 Y-16.478 Z10.500 F24000.000
G2 X-47.053 Y-18.874 Z10.500 I-1.022 J-1.022 F30000.000
G2 X-47.947 Y-16.126 Z10.500 I-0.447 J1.374 F30000.000
G2 X-46.478 Y-16.478 Z10.500 I0.447 J-1.374 F30000.000
G1 X-46.478 Y-16.478 Z10.000 F24000.000
G2 X-47.053 Y-18.874 Z10.000 I-1.022 J-1.022 F30000.000
G2 X-47.947 Y-16.126 Z10.000 I-0.447 J1.374 F30000.000
G2 X-46.478 Y-16.478 Z10.000 I0.447 J-1.374 F30000.000
G1 X-46.478 Y-16.478 Z9.500 F24000.000
G2 X-47.053 Y-18.874 Z9.500 I-1.022 J-1.022 F30000.000
G2 X-47.947 Y-16.126 Z9.500 I-0.447 J1.374 F30000.000
G2 X-46.478 Y-16.478 Z9.500 I0.447 J-1.374 F30000.000
G1 X-46.478 Y-16.478 Z9.000 F24000.000
G2 X-47.053 Y-18.874 Z9.000 I-1.022 J-1.022 F30000.000
G2 X-47.947 Y-16.126 Z9.000 I-0.447 J1.374 F30000.000
G2 X-46.478 Y-16.478 Z9.000 I0.447 J-1.374 F30000.000
G1 X-46.478 Y-16.478 Z8.500 F24000.000
G2 X-47.053 Y-18.874 Z8.500 I-1.022 J-1.022 F30000.000
G2 X-47.947 Y-16.126 Z8.500 I-0.447 J1.374 F30000.000
G2 X-46.478 Y-16.478 Z8.500 I0.447 J-1.374 F30000.000
G1 X-46.478 Y-16.478 Z8.000 F24000.000
G2 X-47.053 Y-18.874 Z8.000 I-1.022 J-1.022 F30000.000
G2 X-47.947 Y-16.126 Z8.000 I-0.447 J1.374 F30000.000
G2 X-46.478 Y-16.478 Z8.000 I0.447 J-1.374 F30000.000
G1 X-46.478 Y-16.478 Z7.500 F24000.000
G2 X-47.053 Y-18.874 Z7.500 I-1.022 J-1.022 F30000.000
G2 X-47.947 Y-16.126 Z7.500 I-0.447 J1.374 F30000.000
G2 X-46.478 Y-16.478 Z7.500 I0.447 J-1.374 F30000.000
G1 X-46.478 Y-16.478 Z7.000 F24000.000
G2 X-47.053 Y-18.874 Z7.000 I-1.022 J-1.022 F30000.000
G2 X-47.947 Y-16.126 Z7.000 I-0.447 J1.374 F30000.000
G2 X-46.478 Y-16.478 Z7.000 I0.447 J-1.374 F30000.000
G1 X-46.478 Y-16.478 Z6.500 F24000.000
G2 X-47.053 Y-18.874 Z6.500 I-1.022 J-1.022 F30000.000
G2 X-47.947 Y-16.126 Z6.500 I-0.447 J1.374 F30000.000
G2 X-46.478 Y-16.478 Z6.500 I0.447 J-1.374 F30000.000
G1 X-46.478 Y-16.478 Z6.000 F24000.000
G2 X-47.053 Y-18.874 Z6.000 I-1.022 J-1.022 F30000.000
G2 X-47.947 Y-16.126 Z6.000 I-0.447 J1.374 F30000.000
G2 X-46.478 Y-16.478 Z6.000 I0.447 J-1.374 F30000.000
G1 X-46.478 Y-16.478 Z5.500 F24000.000
G2 X-47.053 Y-18.874 Z5.500 I-1.022 J-1.022 F30000.000
G2 X-47.947 Y-16.126 Z5.500 I-0.447 J1.374 F30000.000
G2 X-46.478 Y-16.478 Z5.500 I0.447 J-1.374 F30000.000
G1 X-46.478 Y-16.478 Z5.000 F24000.000
G2 X-47.053 Y-18.874 Z5.000 I-1.022 J-1.022 F30000.000
G2 X-47.947 Y-16.126 Z5.000 I-0.447 J1.374 F30000.000
G2 X-46.478 Y-16.478 Z5.000 I0.447 J-1.374 F30000.000
G1 X-46.478 Y-16.478 Z4.500 F24000.000
G2 X-47.053 Y-18.874 Z4.500 I-1.022 J-1.022 F30000.000
G2 X-47.947 Y-16.126 Z4.500 I-0.447 J1.374 F30000.000
G2 X-46.478 Y-16.478 Z4.500 I0.447 J-1.374 F30000.000
G1 X-46.478 Y-16.478 Z4.000 F24000.000
G2 X-47.053 Y-18.874 Z4.000 I-1.022 J-1.022 F30000.000
G2 X-47.947 Y-16.126 Z4.000 I-0.447 J1.374 F30000.000
G2 X-46.478 Y-16.478 Z4.000 I0.447 J-1.374 F30000.000
G1 X-46.478 Y-16.478 Z3.500 F24000.000
G2 X-47.053 Y-18.874 Z3.500 I-1.022 J-1.022 F30000.000
G2 X-47.947 Y-16.126 Z3.500 I-0.447 J1.374 F30000.000
G2 X-46.478 Y-16.478 Z3.500 I0.447 J-1.374 F30000.000
G1 X-46.478 Y-16.478 Z3.000 F24000.000
G2 X-47.053 Y-18.874 Z3.000 I-1.022 J-1.022 F30000.000
G2 X-47.947 Y-16.126 Z3.000 I-0.447 J1.374 F30000.000
G2 X-46.478 Y-16.478 Z3.000 I0.447 J-1.374 F30000.000
G1 X-46.478 Y-16.478 Z2.500 F24000.000
G2 X-47.053 Y-18.874 Z2.500 I-1.022 J-1.022 F30000.000
G2 X-47.947 Y-16.126 Z2.500 I-0.447 J1.374 F30000.000
G2 X-46.478 Y-16.478 Z2.500 I0.447 J-1.374 F30000.000
G1 X-46.478 Y-16.478 Z2.000 F24000.000
G2 X-47.053 Y-18.874 Z2.000 I-1.022 J-1.022 F30000.000
G2 X-47.947 Y-16.126 Z2.000 I-0.447 J1.374 F30000.000
G2 X-46.478 Y-16.478 Z2.000 I0.447 J-1.374 F30000.000
G1 X-46.478 Y-16.478 Z1.500 F24000.000
G2 X-47.053 Y-18.874 Z1.500 I-1.022 J-1.022 F30000.000
G2 X-47.947 Y-16.126 Z1.500 I-0.447 J1.374 F30000.000
G2 X-46.478 Y-16.478 Z1.500 I0.447 J-1.374 F30000.000
G1 X-46.478 Y-16.478 Z1.000 F24000.000
G2 X-47.053 Y-18.874 Z1.000 I-1.022 J-1.022 F30000.000
G2 X-47.947 Y-16.126 Z1.000 I-0.447 J1.374 F30000.000
G2 X-46.478 Y-16.478 Z1.000 I0.447 J-1.374 F30000.000
G1 X-46.478 Y-16.478 Z0.500 F24000.000
G2 X-47.053 Y-18.874 Z0.500 I-1.022 J-1.022 F30000.000
G2 X-47.947 Y-16.126 Z0.500 I-0.447 J1.374 F30000.000
G2 X-46.478 Y-16.478 Z0.500 I0.447 J-1.374 F30000.000
G1 X-46.478 Y-16.478 Z0.000 F24000.000
G2 X-47.053 Y-18.874 Z0.000 I-1.022 J-1.022 F30000.000
G2 X-47.947 Y-16.126 Z0.000 I-0.447 J1.374 F30000.000
G2 X-46.478 Y-16.478 Z0.000 I0.447 J-1.374 F30000.000
G1 X-46.478 Y-16.478 Z-0.250 F24000.000
G2 X-47.053 Y-18.874 Z-0.250 I-1.022 J-1.022 F30000.000
G2 X-47.947 Y-16.126 Z-0.250 I-0.447 J1.374 F30000.000
G2 X-46.478 Y-16.478 Z-0.250 I0.447 J-1.374 F30000.000
G0 Z20.000
G0 Z20.000
G0 X-46.478 Y-16.478
G0 X-47.457 Y16.055
G0 X-47.457 Y16.055 Z18.000
G1 X-47.457 Y16.055 Z12.500 F24000.000
G2 X-47.947 Y18.874 Z12.500 I-0.043 J1.445 F30000.000
G2 X-46.126 Y17.947 Z12.500 I0.447 J-1.374 F30000.000
G2 X-47.053 Y16.126 Z12.500 I-1.374 J-0.447 F30000.000
G2 X-47.457 Y16.055 Z12.500 I-0.447 J1.374 F30000.000
G1 X-47.457 Y16.055 Z12.000 F24000.000
G2 X-47.947 Y18.874 Z12.000 I-0.043 J1.445 F30000.000
G2 X-46.126 Y17.947 Z12.000 I0.447 J-1.374 F30000.000
G2 X-47.053 Y16.126 Z12.000 I-1.374 J-0.447 F30000.000
G2 X-47.457 Y16.055 Z12.000 I-0.447 J1.374 F30000.000
G1 X-47.457 Y16.055 Z11.500 F24000.000
G2 X-47.947 Y18.874 Z11.500 I-0.043 J1.445 F30000.000
G2 X-46.126 Y17.947 Z11.500 I0.447 J-1.374 F30000.000
G2 X-47.053 Y16.126 Z11.500 I-1.374 J-0.447 F30000.000
G2 X-47.457 Y16.055 Z11.500 I-0.447 J1.374 F30000.000
G1 X-47.457 Y16.055 Z11.000 F24000.000
G2 X-47.947 Y18.874 Z11.000 I-0.043 J1.445 F30000.000
G2 X-46.126 Y17.947 Z11.000 I0.447 J-1.374 F30000.000
G2 X-47.053 Y16.126 Z11.000 I-1.374 J-0.447 F30000.000
G2 X-47.457 Y16.055 Z11.000 I-0.447 J1.374 F30000.000
G1 X-47.457 Y16.055 Z10.500 F24000.000
G2 X-47.947 Y18.874 Z10.500 I-0.043 J1.445 F30000.000
G2 X-46.126 Y17.947 Z10.500 I0.447 J-1.374 F30000.000
G2 X-47.053 Y16.126 Z10.500 I-1.374 J-0.447 F30000.000
G2 X-47.457 Y16.055 Z10.500 I-0.447 J1.374 F30000.000
G1 X-47.457 Y16.055 Z10.000 F24000.000
G2 X-47.947 Y18.874 Z10.000 I-0.043 J1.445 F30000.000
G2 X-46.126 Y17.947 Z10.000 I0.447 J-1.374 F30000.000
G2 X-47.053 Y16.126 Z10.000 I-1.374 J-0.447 F30000.000
G2 X-47.457 Y16.055 Z10.000 I-0.447 J1.374 F30000.000
G1 X-47.457 Y16.055 Z9.500 F24000.000
G2 X-47.947 Y18.874 Z9.500 I-0.043 J1.445 F30000.000
G2 X-46.126 Y17.947 Z9.500 I0.447 J-1.374 F30000.000
G2 X-47.053 Y16.126 Z9.500 I-1.374 J-0.447 F30000.000
G2 X-47.457 Y16.055 Z9.500 I-0.447 J1.374 F30000.000
G1 X-47.457 Y16.055 Z9.000 F24000.000
G2 X-47.947 Y18.874 Z9.000 I-0.043 J1.445 F30000.000
G2 X-46.126 Y17.947 Z9.000 I0.447 J-1.374 F30000.000
G2 X-47.053 Y16.126 Z9.000 I-1.374 J-0.447 F30000.000
G2 X-47.457 Y16.055 Z9.000 I-0.447 J1.374 F30000.000
G1 X-47.457 Y16.055 Z8.500 F24000.000
G2 X-47.947 Y18.874 Z8.500 I-0.043 J1.445 F30000.000
G2 X-46.126 Y17.947 Z8.500 I0.447 J-1.374 F30000.000
G2 X-47.053 Y16.126 Z8.500 I-1.374 J-0.447 F30000.000
G2 X-47.457 Y16.055 Z8.500 I-0.447 J1.374 F30000.000
G1 X-47.457 Y16.055 Z8.000 F24000.000
G2 X-47.947 Y18.874 Z8.000 I-0.043 J1.445 F30000.000
G2 X-46.126 Y17.947 Z8.000 I0.447 J-1.374 F30000.000
G2 X-47.053 Y16.126 Z8.000 I-1.374 J-0.447 F30000.000
G2 X-47.457 Y16.055 Z8.000 I-0.447 J1.374 F30000.000
G1 X-47.457 Y16.055 Z7.500 F24000.000
G2 X-47.947 Y18.874 Z7.500 I-0.043 J1.445 F30000.000
G2 X-46.126 Y17.947 Z7.500 I0.447 J-1.374 F30000.000
G2 X-47.053 Y16.126 Z7.500 I-1.374 J-0.447 F30000.000
G2 X-47.457 Y16.055 Z7.500 I-0.447 J1.374 F30000.000
G1 X-47.457 Y16.055 Z7.000 F24000.000
G2 X-47.947 Y18.874 Z7.000 I-0.043 J1.445 F30000.000
G2 X-46.126 Y17.947 Z7.000 I0.447 J-1.374 F30000.000
G2 X-47.053 Y16.126 Z7.000 I-1.374 J-0.447 F30000.000
G2 X-47.457 Y16.055 Z7.000 I-0.447 J1.374 F30000.000
G1 X-47.457 Y16.055 Z6.500 F24000.000
G2 X-47.947 Y18.874 Z6.500 I-0.043 J1.445 F30000.000
G2 X-46.126 Y17.947 Z6.500 I0.447 J-1.374 F30000.000
G2 X-47.053 Y16.126 Z6.500 I-1.374 J-0.447 F30000.000
G2 X-47.457 Y16.055 Z6.500 I-0.447 J1.374 F30000.000
G1 X-47.457 Y16.055 Z6.000 F24000.000
G2 X-47.947 Y18.874 Z6.000 I-0.043 J1.445 F30000.000
G2 X-46.126 Y17.947 Z6.000 I0.447 J-1.374 F30000.000
G2 X-47.053 Y16.126 Z6.000 I-1.374 J-0.447 F30000.000
G2 X-47.457 Y16.055 Z6.000 I-0.447 J1.374 F30000.000
G1 X-47.457 Y16.055 Z5.500 F24000.000
G2 X-47.947 Y18.874 Z5.500 I-0.043 J1.445 F30000.000
G2 X-46.126 Y17.947 Z5.500 I0.447 J-1.374 F30000.000
G2 X-47.053 Y16.126 Z5.500 I-1.374 J-0.447 F30000.000
G2 X-47.457 Y16.055 Z5.500 I-0.447 J1.374 F30000.000
G1 X-47.457 Y16.055 Z5.000 F24000.000
G2 X-47.947 Y18.874 Z5.000 I-0.043 J1.445 F30000.000
G2 X-46.126 Y17.947 Z5.000 I0.447 J-1.374 F30000.000
G2 X-47.053 Y16.126 Z5.000 I-1.374 J-0.447 F30000.000
G2 X-47.457 Y16.055 Z5.000 I-0.447 J1.374 F30000.000
G1 X-47.457 Y16.055 Z4.500 F24000.000
G2 X-47.947 Y18.874 Z4.500 I-0.043 J1.445 F30000.000
G2 X-46.126 Y17.947 Z4.500 I0.447 J-1.374 F30000.000
G2 X-47.053 Y16.126 Z4.500 I-1.374 J-0.447 F30000.000
G2 X-47.457 Y16.055 Z4.500 I-0.447 J1.374 F30000.000
G1 X-47.457 Y16.055 Z4.000 F24000.000
G2 X-47.947 Y18.874 Z4.000 I-0.043 J1.445 F30000.000
G2 X-46.126 Y17.947 Z4.000 I0.447 J-1.374 F30000.000
G2 X-47.053 Y16.126 Z4.000 I-1.374 J-0.447 F30000.000
G2 X-47.457 Y16.055 Z4.000 I-0.447 J1.374 F30000.000
G1 X-47.457 Y16.055 Z3.500 F24000.000
G2 X-47.947 Y18.874 Z3.500 I-0.043 J1.445 F30000.000
G2 X-46.126 Y17.947 Z3.500 I0.447 J-1.374 F30000.000
G2 X-47.053 Y16.126 Z3.500 I-1.374 J-0.447 F30000.000
G2 X-47.457 Y16.055 Z3.500 I-0.447 J1.374 F30000.000
G1 X-47.457 Y16.055 Z3.000 F24000.000
G2 X-47.947 Y18.874 Z3.000 I-0.043 J1.445 F30000.000
G2 X-46.126 Y17.947 Z3.000 I0.447 J-1.374 F30000.000
G2 X-47.053 Y16.126 Z3.000 I-1.374 J-0.447 F30000.000
G2 X-47.457 Y16.055 Z3.000 I-0.447 J1.374 F30000.000
G1 X-47.457 Y16.055 Z2.500 F24000.000
G2 X-47.947 Y18.874 Z2.500 I-0.043 J1.445 F30000.000
G2 X-46.126 Y17.947 Z2.500 I0.447 J-1.374 F30000.000
G2 X-47.053 Y16.126 Z2.500 I-1.374 J-0.447 F30000.000
G2 X-47.457 Y16.055 Z2.500 I-0.447 J1.374 F30000.000
G1 X-47.457 Y16.055 Z2.000 F24000.000
G2 X-47.947 Y18.874 Z2.000 I-0.043 J1.445 F30000.000
G2 X-46.126 Y17.947 Z2.000 I0.447 J-1.374 F30000.000
G2 X-47.053 Y16.126 Z2.000 I-1.374 J-0.447 F30000.000
G2 X-47.457 Y16.055 Z2.000 I-0.447 J1.374 F30000.000
G1 X-47.457 Y16.055 Z1.500 F24000.000
G2 X-47.947 Y18.874 Z1.500 I-0.043 J1.445 F30000.000
G2 X-46.126 Y17.947 Z1.500 I0.447 J-1.374 F30000.000
G2 X-47.053 Y16.126 Z1.500 I-1.374 J-0.447 F30000.000
G2 X-47.457 Y16.055 Z1.500 I-0.447 J1.374 F30000.000
G1 X-47.457 Y16.055 Z1.000 F24000.000
G2 X-47.947 Y18.874 Z1.000 I-0.043 J1.445 F30000.000
G2 X-46.126 Y17.947 Z1.000 I0.447 J-1.374 F30000.000
G2 X-47.053 Y16.126 Z1.000 I-1.374 J-0.447 F30000.000
G2 X-47.457 Y16.055 Z1.000 I-0.447 J1.374 F30000.000
G1 X-47.457 Y16.055 Z0.500 F24000.000
G2 X-47.947 Y18.874 Z0.500 I-0.043 J1.445 F30000.000
G2 X-46.126 Y17.947 Z0.500 I0.447 J-1.374 F30000.000
G2 X-47.053 Y16.126 Z0.500 I-1.374 J-0.447 F30000.000
G2 X-47.457 Y16.055 Z0.500 I-0.447 J1.374 F30000.000
G1 X-47.457 Y16.055 Z0.000 F24000.000
G2 X-47.947 Y18.874 Z0.000 I-0.043 J1.445 F30000.000
G2 X-46.126 Y17.947 Z0.000 I0.447 J-1.374 F30000.000
G2 X-47.053 Y16.126 Z0.000 I-1.374 J-0.447 F30000.000
G2 X-47.457 Y16.055 Z0.000 I-0.447 J1.374 F30000.000
G1 X-47.457 Y16.055 Z-0.250 F24000.000
G2 X-47.947 Y18.874 Z-0.250 I-0.043 J1.445 F30000.000
G2 X-46.126 Y17.947 Z-0.250 I0.447 J-1.374 F30000.000
G2 X-47.053 Y16.126 Z-0.250 I-1.374 J-0.447 F30000.000
G2 X-47.457 Y16.055 Z-0.250 I-0.447 J1.374 F30000.000
G0 Z20.000
G0 Z20.000
G0 X-47.457 Y16.055
G0 X-81.056 Y17.440
G0 X-81.056 Y17.440 Z18.000
G1 X-81.056 Y17.440 Z12.500 F24000.000
G2 X-82.053 Y16.126 Z12.500 I-1.444 J0.060 F30000.000
G2 X-82.947 Y18.874 Z12.500 I-0.447 J1.374 F30000.000
G2 X-81.056 Y17.440 Z12.500 I0.447 J-1.374 F30000.000
G1 X-81.056 Y17.440 Z12.000 F24000.000
G2 X-82.053 Y16.126 Z12.000 I-1.444 J0.060 F30000.000
G2 X-82.947 Y18.874 Z12.000 I-0.447 J1.374 F30000.000
G2 X-81.056 Y17.440 Z12.000 I0.447 J-1.374 F30000.000
G1 X-81.056 Y17.440 Z11.500 F24000.000
G2 X-82.053 Y16.126 Z11.500 I-1.444 J0.060 F30000.000
G2 X-82.947 Y18.874 Z11.500 I-0.447 J1.374 F30000.000
G2 X-81.056 Y17.440 Z11.500 I0.447 J-1.374 F30000.000
G1 X-81.056 Y17.440 Z11.000 F24000.000
G2 X-82.053 Y16.126 Z11.000 I-1.444 J0.060 F30000.000
G2 X-82.947 Y18.874 Z11.000 I-0.447 J1.374 F30000.000
G2 X-81.056 Y17.440 Z11.000 I0.447 J-1.374 F30000.000
G1 X-81.056 Y17.440 Z10.500 F24000.000
G2 X-82.053 Y16.126 Z10.500 I-1.444 J0.060 F30000.000
G2 X-82.947 Y18.874 Z10.500 I-0.447 J1.374 F30000.000
G2 X-81.056 Y17.440 Z10.500 I0.447 J-1.374 F30000.000
G1 X-81.056 Y17.440 Z10.000 F24000.000
G2 X-82.053 Y16.126 Z10.000 I-1.444 J0.060 F30000.000
G2 X-82.947 Y18.874 Z10.000 I-0.447 J1.374 F30000.000
G2 X-81.056 Y17.440 Z10.000 I0.447 J-1.374 F30000.000
G1 X-81.056 Y17.440 Z9.500 F24000.000
G2 X-82.053 Y16.126 Z9.500 I-1.444 J0.060 F30000.000
G2 X-82.947 Y18.874 Z9.500 I-0.447 J1.374 F30000.000
G2 X-81.056 Y17.440 Z9.500 I0.447 J-1.374 F30000.000
G1 X-81.056 Y17.440 Z9.000 F24000.000
G2 X-82.053 Y16.126 Z9.000 I-1.444 J0.060 F30000.000
G2 X-82.947 Y18.874 Z9.000 I-0.447 J1.374 F30000.000
G2 X-81.056 Y17.440 Z9.000 I0.447 J-1.374 F30000.000
G1 X-81.056 Y17.440 Z8.500 F24000.000
G2 X-82.053 Y16.126 Z8.500 I-1.444 J0.060 F30000.000
G2 X-82.947 Y18.874 Z8.500 I-0.447 J1.374 F30000.000
G2 X-81.056 Y17.440 Z8.500 I0.447 J-1.374 F30000.000
G1 X-81.056 Y17.440 Z8.000 F24000.000
G2 X-82.053 Y16.126 Z8.000 I-1.444 J0.060 F30000.000
G2 X-82.947 Y18.874 Z8.000 I-0.447 J1.374 F30000.000
G2 X-81.056 Y17.440 Z8.000 I0.447 J-1.374 F30000.000
G1 X-81.056 Y17.440 Z7.500 F24000.000
G2 X-82.053 Y16.126 Z7.500 I-1.444 J0.060 F30000.000
G2 X-82.947 Y18.874 Z7.500 I-0.447 J1.374 F30000.000
G2 X-81.056 Y17.440 Z7.500 I0.447 J-1.374 F30000.000
G1 X-81.056 Y17.440 Z7.000 F24000.000
G2 X-82.053 Y16.126 Z7.000 I-1.444 J0.060 F30000.000
G2 X-82.947 Y18.874 Z7.000 I-0.447 J1.374 F30000.000
G2 X-81.056 Y17.440 Z7.000 I0.447 J-1.374 F30000.000
G1 X-81.056 Y17.440 Z6.500 F24000.000
G2 X-82.053 Y16.126 Z6.500 I-1.444 J0.060 F30000.000
G2 X-82.947 Y18.874 Z6.500 I-0.447 J1.374 F30000.000
G2 X-81.056 Y17.440 Z6.500 I0.447 J-1.374 F30000.000
G1 X-81.056 Y17.440 Z6.000 F24000.000
G2 X-82.053 Y16.126 Z6.000 I-1.444 J0.060 F30000.000
G2 X-82.947 Y18.874 Z6.000 I-0.447 J1.374 F30000.000
G2 X-81.056 Y17.440 Z6.000 I0.447 J-1.374 F30000.000
G1 X-81.056 Y17.440 Z5.500 F24000.000
G2 X-82.053 Y16.126 Z5.500 I-1.444 J0.060 F30000.000
G2 X-82.947 Y18.874 Z5.500 I-0.447 J1.374 F30000.000
G2 X-81.056 Y17.440 Z5.500 I0.447 J-1.374 F30000.000
G1 X-81.056 Y17.440 Z5.000 F24000.000
G2 X-82.053 Y16.126 Z5.000 I-1.444 J0.060 F30000.000
G2 X-82.947 Y18.874 Z5.000 I-0.447 J1.374 F30000.000
G2 X-81.056 Y17.440 Z5.000 I0.447 J-1.374 F30000.000
G1 X-81.056 Y17.440 Z4.500 F24000.000
G2 X-82.053 Y16.126 Z4.500 I-1.444 J0.060 F30000.000
G2 X-82.947 Y18.874 Z4.500 I-0.447 J1.374 F30000.000
G2 X-81.056 Y17.440 Z4.500 I0.447 J-1.374 F30000.000
G1 X-81.056 Y17.440 Z4.000 F24000.000
G2 X-82.053 Y16.126 Z4.000 I-1.444 J0.060 F30000.000
G2 X-82.947 Y18.874 Z4.000 I-0.447 J1.374 F30000.000
G2 X-81.056 Y17.440 Z4.000 I0.447 J-1.374 F30000.000
G1 X-81.056 Y17.440 Z3.500 F24000.000
G2 X-82.053 Y16.126 Z3.500 I-1.444 J0.060 F30000.000
G2 X-82.947 Y18.874 Z3.500 I-0.447 J1.374 F30000.000
G2 X-81.056 Y17.440 Z3.500 I0.447 J-1.374 F30000.000
G1 X-81.056 Y17.440 Z3.000 F24000.000
G2 X-82.053 Y16.126 Z3.000 I-1.444 J0.060 F30000.000
G2 X-82.947 Y18.874 Z3.000 I-0.447 J1.374 F30000.000
G2 X-81.056 Y17.440 Z3.000 I0.447 J-1.374 F30000.000
G1 X-81.056 Y17.440 Z2.500 F24000.000
G2 X-82.053 Y16.126 Z2.500 I-1.444 J0.060 F30000.000
G2 X-82.947 Y18.874 Z2.500 I-0.447 J1.374 F30000.000
G2 X-81.056 Y17.440 Z2.500 I0.447 J-1.374 F30000.000
G1 X-81.056 Y17.440 Z2.000 F24000.000
G2 X-82.053 Y16.126 Z2.000 I-1.444 J0.060 F30000.000
G2 X-82.947 Y18.874 Z2.000 I-0.447 J1.374 F30000.000
G2 X-81.056 Y17.440 Z2.000 I0.447 J-1.374 F30000.000
G1 X-81.056 Y17.440 Z1.500 F24000.000
G2 X-82.053 Y16.126 Z1.500 I-1.444 J0.060 F30000.000
G2 X-82.947 Y18.874 Z1.500 I-0.447 J1.374 F30000.000
G2 X-81.056 Y17.440 Z1.500 I0.447 J-1.374 F30000.000
G1 X-81.056 Y17.440 Z1.000 F24000.000
G2 X-82.053 Y16.126 Z1.000 I-1.444 J0.060 F30000.000
G2 X-82.947 Y18.874 Z1.000 I-0.447 J1.374 F30000.000
G2 X-81.056 Y17.440 Z1.000 I0.447 J-1.374 F30000.000
G1 X-81.056 Y17.440 Z0.500 F24000.000
G2 X-82.053 Y16.126 Z0.500 I-1.444 J0.060 F30000.000
G2 X-82.947 Y18.874 Z0.500 I-0.447 J1.374 F30000.000
G2 X-81.056 Y17.440 Z0.500 I0.447 J-1.374 F30000.000
G1 X-81.056 Y17.440 Z0.000 F24000.000
G2 X-82.053 Y16.126 Z0.000 I-1.444 J0.060 F30000.000
G2 X-82.947 Y18.874 Z0.000 I-0.447 J1.374 F30000.000
G2 X-81.056 Y17.440 Z0.000 I0.447 J-1.374 F30000.000
G1 X-81.056 Y17.440 Z-0.250 F24000.000
G2 X-82.053 Y16.126 Z-0.250 I-1.444 J0.060 F30000.000
G2 X-82.947 Y18.874 Z-0.250 I-0.447 J1.374 F30000.000
G2 X-81.056 Y17.440 Z-0.250 I0.447 J-1.374 F30000.000
G0 Z20.000
G0 Z20.000
G0 X-81.056 Y17.440
G0 X-82.440 Y-16.056
G0 X-82.440 Y-16.056 Z18.000
G1 X-82.440 Y-16.056 Z12.500 F24000.000
G2 X-82.053 Y-18.874 Z12.500 I-0.060 J-1.444 F30000.000
G2 X-82.947 Y-16.126 Z12.500 I-0.447 J1.374 F30000.000
G2 X-82.440 Y-16.056 Z12.500 I0.447 J-1.374 F30000.000
G1 X-82.440 Y-16.056 Z12.000 F24000.000
G2 X-82.053 Y-18.874 Z12.000 I-0.060 J-1.444 F30000.000
G2 X-82.947 Y-16.126 Z12.000 I-0.447 J1.374 F30000.000
G2 X-82.440 Y-16.056 Z12.000 I0.447 J-1.374 F30000.000
G1 X-82.440 Y-16.056 Z11.500 F24000.000
G2 X-82.053 Y-18.874 Z11.500 I-0.060 J-1.444 F30000.000
G2 X-82.947 Y-16.126 Z11.500 I-0.447 J1.374 F30000.000
G2 X-82.440 Y-16.056 Z11.500 I0.447 J-1.374 F30000.000
G1 X-82.440 Y-16.056 Z11.000 F24000.000
G2 X-82.053 Y-18.874 Z11.000 I-0.060 J-1.444 F30000.000
G2 X-82.947 Y-16.126 Z11.000 I-0.447 J1.374 F30000.000
G2 X-82.440 Y-16.056 Z11.000 I0.447 J-1.374 F30000.000
G1 X-82.440 Y-16.056 Z10.500 F24000.000
G2 X-82.053 Y-18.874 Z10.500 I-0.060 J-1.444 F30000.000
G2 X-82.947 Y-16.126 Z10.500 I-0.447 J1.374 F30000.000
G2 X-82.440 Y-16.056 Z10.500 I0.447 J-1.374 F30000.000
G1 X-82.440 Y-16.056 Z10.000 F24000.000
G2 X-82.053 Y-18.874 Z10.000 I-0.060 J-1.444 F30000.000
G2 X-82.947 Y-16.126 Z10.000 I-0.447 J1.374 F30000.000
G2 X-82.440 Y-16.056 Z10.000 I0.447 J-1.374 F30000.000
G1 X-82.440 Y-16.056 Z9.500 F24000.000
G2 X-82.053 Y-18.874 Z9.500 I-0.060 J-1.444 F30000.000
G2 X-82.947 Y-16.126 Z9.500 I-0.447 J1.374 F30000.000
G2 X-82.440 Y-16.056 Z9.500 I0.447 J-1.374 F30000.000
G1 X-82.440 Y-16.056 Z9.000 F24000.000
G2 X-82.053 Y-18.874 Z9.000 I-0.060 J-1.444 F30000.000
G2 X-82.947 Y-16.126 Z9.000 I-0.447 J1.374 F30000.000
G2 X-82.440 Y-16.056 Z9.000 I0.447 J-1.374 F30000.000
G1 X-82.440 Y-16.056 Z8.500 F24000.000
G2 X-82.053 Y-18.874 Z8.500 I-0.060 J-1.444 F30000.000
G2 X-82.947 Y-16.126 Z8.500 I-0.447 J1.374 F30000.000
G2 X-82.440 Y-16.056 Z8.500 I0.447 J-1.374 F30000.000
G1 X-82.440 Y-16.056 Z8.000 F24000.000
G2 X-82.053 Y-18.874 Z8.000 I-0.060 J-1.444 F30000.000
G2 X-82.947 Y-16.126 Z8.000 I-0.447 J1.374 F30000.000
G2 X-82.440 Y-16.056 Z8.000 I0.447 J-1.374 F30000.000
G1 X-82.440 Y-16.056 Z7.500 F24000.000
G2 X-82.053 Y-18.874 Z7.500 I-0.060 J-1.444 F30000.000
G2 X-82.947 Y-16.126 Z7.500 I-0.447 J1.374 F30000.000
G2 X-82.440 Y-16.056 Z7.500 I0.447 J-1.374 F30000.000
G1 X-82.440 Y-16.056 Z7.000 F24000.000
G2 X-82.053 Y-18.874 Z7.000 I-0.060 J-1.444 F30000.000
G2 X-82.947 Y-16.126 Z7.000 I-0.447 J1.374 F30000.000
G2 X-82.440 Y-16.056 Z7.000 I0.447 J-1.374 F30000.000
G1 X-82.440 Y-16.056 Z6.500 F24000.000
G2 X-82.053 Y-18.874 Z6.500 I-0.060 J-1.444 F30000.000
G2 X-82.947 Y-16.126 Z6.500 I-0.447 J1.374 F30000.000
G2 X-82.440 Y-16.056 Z6.500 I0.447 J-1.374 F30000.000
G1 X-82.440 Y-16.056 Z6.000 F24000.000
G2 X-82.053 Y-18.874 Z6.000 I-0.060 J-1.444 F30000.000
G2 X-82.947 Y-16.126 Z6.000 I-0.447 J1.374 F30000.000
G2 X-82.440 Y-16.056 Z6.000 I0.447 J-1.374 F30000.000
G1 X-82.440 Y-16.056 Z5.500 F24000.000
G2 X-82.053 Y-18.874 Z5.500 I-0.060 J-1.444 F30000.000
G2 X-82.947 Y-16.126 Z5.500 I-0.447 J1.374 F30000.000
G2 X-82.440 Y-16.056 Z5.500 I0.447 J-1.374 F30000.000
G1 X-82.440 Y-16.056 Z5.000 F24000.000
G2 X-82.053 Y-18.874 Z5.000 I-0.060 J-1.444 F30000.000
G2 X-82.947 Y-16.126 Z5.000 I-0.447 J1.374 F30000.000
G2 X-82.440 Y-16.056 Z5.000 I0.447 J-1.374 F30000.000
G1 X-82.440 Y-16.056 Z4.500 F24000.000
G2 X-82.053 Y-18.874 Z4.500 I-0.060 J-1.444 F30000.000
G2 X-82.947 Y-16.126 Z4.500 I-0.447 J1.374 F30000.000
G2 X-82.440 Y-16.056 Z4.500 I0.447 J-1.374 F30000.000
G1 X-82.440 Y-16.056 Z4.000 F24000.000
G2 X-82.053 Y-18.874 Z4.000 I-0.060 J-1.444 F30000.000
G2 X-82.947 Y-16.126 Z4.000 I-0.447 J1.374 F30000.000
G2 X-82.440 Y-16.056 Z4.000 I0.447 J-1.374 F30000.000
G1 X-82.440 Y-16.056 Z3.500 F24000.000
G2 X-82.053 Y-18.874 Z3.500 I-0.060 J-1.444 F30000.000
G2 X-82.947 Y-16.126 Z3.500 I-0.447 J1.374 F30000.000
G2 X-82.440 Y-16.056 Z3.500 I0.447 J-1.374 F30000.000
G1 X-82.440 Y-16.056 Z3.000 F24000.000
G2 X-82.053 Y-18.874 Z3.000 I-0.060 J-1.444 F30000.000
G2 X-82.947 Y-16.126 Z3.000 I-0.447 J1.374 F30000.000
G2 X-82.440 Y-16.056 Z3.000 I0.447 J-1.374 F30000.000
G1 X-82.440 Y-16.056 Z2.500 F24000.000
G2 X-82.053 Y-18.874 Z2.500 I-0.060 J-1.444 F30000.000
G2 X-82.947 Y-16.126 Z2.500 I-0.447 J1.374 F30000.000
G2 X-82.440 Y-16.056 Z2.500 I0.447 J-1.374 F30000.000
G1 X-82.440 Y-16.056 Z2.000 F24000.000
G2 X-82.053 Y-18.874 Z2.000 I-0.060 J-1.444 F30000.000
G2 X-82.947 Y-16.126 Z2.000 I-0.447 J1.374 F30000.000
G2 X-82.440 Y-16.056 Z2.000 I0.447 J-1.374 F30000.000
G1 X-82.440 Y-16.056 Z1.500 F24000.000
G2 X-82.053 Y-18.874 Z1.500 I-0.060 J-1.444 F30000.000
G2 X-82.947 Y-16.126 Z1.500 I-0.447 J1.374 F30000.000
G2 X-82.440 Y-16.056 Z1.500 I0.447 J-1.374 F30000.000
G1 X-82.440 Y-16.056 Z1.000 F24000.000
G2 X-82.053 Y-18.874 Z1.000 I-0.060 J-1.444 F30000.000
G2 X-82.947 Y-16.126 Z1.000 I-0.447 J1.374 F30000.000
G2 X-82.440 Y-16.056 Z1.000 I0.447 J-1.374 F30000.000
G1 X-82.440 Y-16.056 Z0.500 F24000.000
G2 X-82.053 Y-18.874 Z0.500 I-0.060 J-1.444 F30000.000
G2 X-82.947 Y-16.126 Z0.500 I-0.447 J1.374 F30000.000
G2 X-82.440 Y-16.056 Z0.500 I0.447 J-1.374 F30000.000
G1 X-82.440 Y-16.056 Z0.000 F24000.000
G2 X-82.053 Y-18.874 Z0.000 I-0.060 J-1.444 F30000.000
G2 X-82.947 Y-16.126 Z0.000 I-0.447 J1.374 F30000.000
G2 X-82.440 Y-16.056 Z0.000 I0.447 J-1.374 F30000.000
G1 X-82.440 Y-16.056 Z-0.250 F24000.000
G2 X-82.053 Y-18.874 Z-0.250 I-0.060 J-1.444 F30000.000
G2 X-82.947 Y-16.126 Z-0.250 I-0.447 J1.374 F30000.000
G2 X-82.440 Y-16.056 Z-0.250 I0.447 J-1.374 F30000.000
G0 Z20.000
G0 Z20.000
G0 X-82.440 Y-16.056
G0 X46.055 Y-17.484
G0 X46.055 Y-17.484 Z18.000
G1 X46.055 Y-17.484 Z12.500 F24000.000
G2 X47.053 Y-16.126 Z12.500 I1.445 J-0.016 F30000.000
G2 X48.874 Y-17.053 Z12.500 I0.447 J-1.374 F30000.000
G2 X47.947 Y-18.874 Z12.500 I-1.374 J-0.447 F30000.000
G2 X46.055 Y-17.484 Z12.500 I-0.447 J1.374 F30000.000
G1 X46.055 Y-17.484 Z12.000 F24000.000
G2 X47.053 Y-16.126 Z12.000 I1.445 J-0.016 F30000.000
G2 X48.874 Y-17.053 Z12.000 I0.447 J-1.374 F30000.000
G2 X47.947 Y-18.874 Z12.000 I-1.374 J-0.447 F30000.000
G2 X46.055 Y-17.484 Z12.000 I-0.447 J1.374 F30000.000
G1 X46.055 Y-17.484 Z11.500 F24000.000
G2 X47.053 Y-16.126 Z11.500 I1.445 J-0.016 F30000.000
G2 X48.874 Y-17.053 Z11.500 I0.447 J-1.374 F30000.000
G2 X47.947 Y-18.874 Z11.500 I-1.374 J-0.447 F30000.000
G2 X46.055 Y-17.484 Z11.500 I-0.447 J1.374 F30000.000
G1 X46.055 Y-17.484 Z11.000 F24000.000
G2 X47.053 Y-16.126 Z11.000 I1.445 J-0.016 F30000.000
G2 X48.874 Y-17.053 Z11.000 I0.447 J-1.374 F30000.000
G2 X47.947 Y-18.874 Z11.000 I-1.374 J-0.447 F30000.000
G2 X46.055 Y-17.484 Z11.000 I-0.447 J1.374 F30000.000
G1 X46.055 Y-17.484 Z10.500 F24000.000
G2 X47.053 Y-16.126 Z10.500 I1.445 J-0.016 F30000.000
G2 X48.874 Y-17.053 Z10.500 I0.447 J-1.374 F30000.000
G2 X47.947 Y-18.874 Z10.500 I-1.374 J-0.447 F30000.000
G2 X46.055 Y-17.484 Z10.500 I-0.447 J1.374 F30000.000
G1 X46.055 Y-17.484 Z10.000 F24000.000
G2 X47.053 Y-16.126 Z10.000 I1.445 J-0.016 F30000.000
G2 X48.874 Y-17.053 Z10.000 I0.447 J-1.374 F30000.000
G2 X47.947 Y-18.874 Z10.000 I-1.374 J-0.447 F30000.000
G2 X46.055 Y-17.484 Z10.000 I-0.447 J1.374 F30000.000
G1 X46.055 Y-17.484 Z9.500 F24000.000
G2 X47.053 Y-16.126 Z9.500 I1.445 J-0.016 F30000.000
G2 X48.874 Y-17.053 Z9.500 I0.447 J-1.374 F30000.000
G2 X47.947 Y-18.874 Z9.500 I-1.374 J-0.447 F30000.000
G2 X46.055 Y-17.484 Z9.500 I-0.447 J1.374 F30000.000
G1 X46.055 Y-17.484 Z9.000 F24000.000
G2 X47.053 Y-16.126 Z9.000 I1.445 J-0.016 F30000.000
G2 X48.874 Y-17.053 Z9.000 I0.447 J-1.374 F30000.000
G2 X47.947 Y-18.874 Z9.000 I-1.374 J-0.447 F30000.000
G2 X46.055 Y-17.484 Z9.000 I-0.447 J1.374 F30000.000
G1 X46.055 Y-17.484 Z8.500 F24000.000
G2 X47.053 Y-16.126 Z8.500 I1.445 J-0.016 F30000.000
G2 X48.874 Y-17.053 Z8.500 I0.447 J-1.374 F30000.000
G2 X47.947 Y-18.874 Z8.500 I-1.374 J-0.447 F30000.000
G2 X46.055 Y-17.484 Z8.500 I-0.447 J1.374 F30000.000
G1 X46.055 Y-17.484 Z8.000 F24000.000
G2 X47.053 Y-16.126 Z8.000 I1.445 J-0.016 F30000.000
G2 X48.874 Y-17.053 Z8.000 I0.447 J-1.374 F30000.000
G2 X47.947 Y-18.874 Z8.000 I-1.374 J-0.447 F30000.000
G2 X46.055 Y-17.484 Z8.000 I-0.447 J1.374 F30000.000
G1 X46.055 Y-17.484 Z7.500 F24000.000
G2 X47.053 Y-16.126 Z7.500 I1.445 J-0.016 F30000.000
G2 X48.874 Y-17.053 Z7.500 I0.447 J-1.374 F30000.000
G2 X47.947 Y-18.874 Z7.500 I-1.374 J-0.447 F30000.000
G2 X46.055 Y-17.484 Z7.500 I-0.447 J1.374 F30000.000
G1 X46.055 Y-17.484 Z7.000 F24000.000
G2 X47.053 Y-16.126 Z7.000 I1.445 J-0.016 F30000.000
G2 X48.874 Y-17.053 Z7.000 I0.447 J-1.374 F30000.000
G2 X47.947 Y-18.874 Z7.000 I-1.374 J-0.447 F30000.000
G2 X46.055 Y-17.484 Z7.000 I-0.447 J1.374 F30000.000
G1 X46.055 Y-17.484 Z6.500 F24000.000
G2 X47.053 Y-16.126 Z6.500 I1.445 J-0.016 F30000.000
G2 X48.874 Y-17.053 Z6.500 I0.447 J-1.374 F30000.000
G2 X47.947 Y-18.874 Z6.500 I-1.374 J-0.447 F30000.000
G2 X46.055 Y-17.484 Z6.500 I-0.447 J1.374 F30000.000
G1 X46.055 Y-17.484 Z6.000 F24000.000
G2 X47.053 Y-16.126 Z6.000 I1.445 J-0.016 F30000.000
G2 X48.874 Y-17.053 Z6.000 I0.447 J-1.374 F30000.000
G2 X47.947 Y-18.874 Z6.000 I-1.374 J-0.447 F30000.000
G2 X46.055 Y-17.484 Z6.000 I-0.447 J1.374 F30000.000
G1 X46.055 Y-17.484 Z5.500 F24000.000
G2 X47.053 Y-16.126 Z5.500 I1.445 J-0.016 F30000.000
G2 X48.874 Y-17.053 Z5.500 I0.447 J-1.374 F30000.000
G2 X47.947 Y-18.874 Z5.500 I-1.374 J-0.447 F30000.000
G2 X46.055 Y-17.484 Z5.500 I-0.447 J1.374 F30000.000
G1 X46.055 Y-17.484 Z5.000 F24000.000
G2 X47.053 Y-16.126 Z5.000 I1.445 J-0.016 F30000.000
G2 X48.874 Y-17.053 Z5.000 I0.447 J-1.374 F30000.000
G2 X47.947 Y-18.874 Z5.000 I-1.374 J-0.447 F30000.000
G2 X46.055 Y-17.484 Z5.000 I-0.447 J1.374 F30000.000
G1 X46.055 Y-17.484 Z4.500 F24000.000
G2 X47.053 Y-16.126 Z4.500 I1.445 J-0.016 F30000.000
G2 X48.874 Y-17.053 Z4.500 I0.447 J-1.374 F30000.000
G2 X47.947 Y-18.874 Z4.500 I-1.374 J-0.447 F30000.000
G2 X46.055 Y-17.484 Z4.500 I-0.447 J1.374 F30000.000
G1 X46.055 Y-17.484 Z4.000 F24000.000
G2 X47.053 Y-16.126 Z4.000 I1.445 J-0.016 F30000.000
G2 X48.874 Y-17.053 Z4.000 I0.447 J-1.374 F30000.000
G2 X47.947 Y-18.874 Z4.000 I-1.374 J-0.447 F30000.000
G2 X46.055 Y-17.484 Z4.000 I-0.447 J1.374 F30000.000
G1 X46.055 Y-17.484 Z3.500 F24000.000
G2 X47.053 Y-16.126 Z3.500 I1.445 J-0.016 F30000.000
G2 X48.874 Y-17.053 Z3.500 I0.447 J-1.374 F30000.000
G2 X47.947 Y-18.874 Z3.500 I-1.374 J-0.447 F30000.000
G2 X46.055 Y-17.484 Z3.500 I-0.447 J1.374 F30000.000
G1 X46.055 Y-17.484 Z3.000 F24000.000
G2 X47.053 Y-16.126 Z3.000 I1.445 J-0.016 F30000.000
G2 X48.874 Y-17.053 Z3.000 I0.447 J-1.374 F30000.000
G2 X47.947 Y-18.874 Z3.000 I-1.374 J-0.447 F30000.000
G2 X46.055 Y-17.484 Z3.000 I-0.447 J1.374 F30000.000
G1 X46.055 Y-17.484 Z2.500 F24000.000
G2 X47.053 Y-16.126 Z2.500 I1.445 J-0.016 F30000.000
G2 X48.874 Y-17.053 Z2.500 I0.447 J-1.374 F30000.000
G2 X47.947 Y-18.874 Z2.500 I-1.374 J-0.447 F30000.000
G2 X46.055 Y-17.484 Z2.500 I-0.447 J1.374 F30000.000
G1 X46.055 Y-17.484 Z2.000 F24000.000
G2 X47.053 Y-16.126 Z2.000 I1.445 J-0.016 F30000.000
G2 X48.874 Y-17.053 Z2.000 I0.447 J-1.374 F30000.000
G2 X47.947 Y-18.874 Z2.000 I-1.374 J-0.447 F30000.000
G2 X46.055 Y-17.484 Z2.000 I-0.447 J1.374 F30000.000
G1 X46.055 Y-17.484 Z1.500 F24000.000
G2 X47.053 Y-16.126 Z1.500 I1.445 J-0.016 F30000.000
G2 X48.874 Y-17.053 Z1.500 I0.447 J-1.374 F30000.000
G2 X47.947 Y-18.874 Z1.500 I-1.374 J-0.447 F30000.000
G2 X46.055 Y-17.484 Z1.500 I-0.447 J1.374 F30000.000
G1 X46.055 Y-17.484 Z1.000 F24000.000
G2 X47.053 Y-16.126 Z1.000 I1.445 J-0.016 F30000.000
G2 X48.874 Y-17.053 Z1.000 I0.447 J-1.374 F30000.000
G2 X47.947 Y-18.874 Z1.000 I-1.374 J-0.447 F30000.000
G2 X46.055 Y-17.484 Z1.000 I-0.447 J1.374 F30000.000
G1 X46.055 Y-17.484 Z0.500 F24000.000
G2 X47.053 Y-16.126 Z0.500 I1.445 J-0.016 F30000.000
G2 X48.874 Y-17.053 Z0.500 I0.447 J-1.374 F30000.000
G2 X47.947 Y-18.874 Z0.500 I-1.374 J-0.447 F30000.000
G2 X46.055 Y-17.484 Z0.500 I-0.447 J1.374 F30000.000
G1 X46.055 Y-17.484 Z0.000 F24000.000
G2 X47.053 Y-16.126 Z0.000 I1.445 J-0.016 F30000.000
G2 X48.874 Y-17.053 Z0.000 I0.447 J-1.374 F30000.000
G2 X47.947 Y-18.874 Z0.000 I-1.374 J-0.447 F30000.000
G2 X46.055 Y-17.484 Z0.000 I-0.447 J1.374 F30000.000
G1 X46.055 Y-17.484 Z-0.250 F24000.000
G2 X47.053 Y-16.126 Z-0.250 I1.445 J-0.016 F30000.000
G2 X48.874 Y-17.053 Z-0.250 I0.447 J-1.374 F30000.000
G2 X47.947 Y-18.874 Z-0.250 I-1.374 J-0.447 F30000.000
G2 X46.055 Y-17.484 Z-0.250 I-0.447 J1.374 F30000.000
G0 Z20.000
G0 Z20.000
G0 X46.055 Y-17.484
G0 X47.440 Y16.056
G0 X47.440 Y16.056 Z18.000
G1 X47.440 Y16.056 Z12.500 F24000.000
G2 X47.053 Y18.874 Z12.500 I0.060 J1.444 F30000.000
G2 X47.947 Y16.126 Z12.500 I0.447 J-1.374 F30000.000
G2 X47.440 Y16.056 Z12.500 I-0.447 J1.374 F30000.000
G1 X47.440 Y16.056 Z12.000 F24000.000
G2 X47.053 Y18.874 Z12.000 I0.060 J1.444 F30000.000
G2 X47.947 Y16.126 Z12.000 I0.447 J-1.374 F30000.000
G2 X47.440 Y16.056 Z12.000 I-0.447 J1.374 F30000.000
G1 X47.440 Y16.056 Z11.500 F24000.000
G2 X47.053 Y18.874 Z11.500 I0.060 J1.444 F30000.000
G2 X47.947 Y16.126 Z11.500 I0.447 J-1.374 F30000.000
G2 X47.440 Y16.056 Z11.500 I-0.447 J1.374 F30000.000
G1 X47.440 Y16.056 Z11.000 F24000.000
G2 X47.053 Y18.874 Z11.000 I0.060 J1.444 F30000.000
G2 X47.947 Y16.126 Z11.000 I0.447 J-1.374 F30000.000
G2 X47.440 Y16.056 Z11.000 I-0.447 J1.374 F30000.000
G1 X47.440 Y16.056 Z10.500 F24000.000
G2 X47.053 Y18.874 Z10.500 I0.060 J1.444 F30000.000
G2 X47.947 Y16.126 Z10.500 I0.447 J-1.374 F30000.000
G2 X47.440 Y16.056 Z10.500 I-0.447 J1.374 F30000.000
G1 X47.440 Y16.056 Z10.000 F24000.000
G2 X47.053 Y18.874 Z10.000 I0.060 J1.444 F30000.000
G2 X47.947 Y16.126 Z10.000 I0.447 J-1.374 F30000.000
G2 X47.440 Y16.056 Z10.000 I-0.447 J1.374 F30000.000
G1 X47.440 Y16.056 Z9.500 F24000.000
G2 X47.053 Y18.874 Z9.500 I0.060 J1.444 F30000.000
G2 X47.947 Y16.126 Z9.500 I0.447 J-1.374 F30000.000
G2 X47.440 Y16.056 Z9.500 I-0.447 J1.374 F30000.000
G1 X47.440 Y16.056 Z9.000 F24000.000
G2 X47.053 Y18.874 Z9.000 I0.060 J1.444 F30000.000
G2 X47.947 Y16.126 Z9.000 I0.447 J-1.374 F30000.000
G2 X47.440 Y16.056 Z9.000 I-0.447 J1.374 F30000.000
G1 X47.440 Y16.056 Z8.500 F24000.000
G2 X47.053 Y18.874 Z8.500 I0.060 J1.444 F30000.000
G2 X47.947 Y16.126 Z8.500 I0.447 J-1.374 F30000.000
G2 X47.440 Y16.056 Z8.500 I-0.447 J1.374 F30000.000
G1 X47.440 Y16.056 Z8.000 F24000.000
G2 X47.053 Y18.874 Z8.000 I0.060 J1.444 F30000.000
G2 X47.947 Y16.126 Z8.000 I0.447 J-1.374 F30000.000
G2 X47.440 Y16.056 Z8.000 I-0.447 J1.374 F30000.000
G1 X47.440 Y16.056 Z7.500 F24000.000
G2 X47.053 Y18.874 Z7.500 I0.060 J1.444 F30000.000
G2 X47.947 Y16.126 Z7.500 I0.447 J-1.374 F30000.000
G2 X47.440 Y16.056 Z7.500 I-0.447 J1.374 F30000.000
G1 X47.440 Y16.056 Z7.000 F24000.000
G2 X47.053 Y18.874 Z7.000 I0.060 J1.444 F30000.000
G2 X47.947 Y16.126 Z7.000 I0.447 J-1.374 F30000.000
G2 X47.440 Y16.056 Z7.000 I-0.447 J1.374 F30000.000
G1 X47.440 Y16.056 Z6.500 F24000.000
G2 X47.053 Y18.874 Z6.500 I0.060 J1.444 F30000.000
G2 X47.947 Y16.126 Z6.500 I0.447 J-1.374 F30000.000
G2 X47.440 Y16.056 Z6.500 I-0.447 J1.374 F30000.000
G1 X47.440 Y16.056 Z6.000 F24000.000
G2 X47.053 Y18.874 Z6.000 I0.060 J1.444 F30000.000
G2 X47.947 Y16.126 Z6.000 I0.447 J-1.374 F30000.000
G2 X47.440 Y16.056 Z6.000 I-0.447 J1.374 F30000.000
G1 X47.440 Y16.056 Z5.500 F24000.000
G2 X47.053 Y18.874 Z5.500 I0.060 J1.444 F30000.000
G2 X47.947 Y16.126 Z5.500 I0.447 J-1.374 F30000.000
G2 X47.440 Y16.056 Z5.500 I-0.447 J1.374 F30000.000
G1 X47.440 Y16.056 Z5.000 F24000.000
G2 X47.053 Y18.874 Z5.000 I0.060 J1.444 F30000.000
G2 X47.947 Y16.126 Z5.000 I0.447 J-1.374 F30000.000
G2 X47.440 Y16.056 Z5.000 I-0.447 J1.374 F30000.000
G1 X47.440 Y16.056 Z4.500 F24000.000
G2 X47.053 Y18.874 Z4.500 I0.060 J1.444 F30000.000
G2 X47.947 Y16.126 Z4.500 I0.447 J-1.374 F30000.000
G2 X47.440 Y16.056 Z4.500 I-0.447 J1.374 F30000.000
G1 X47.440 Y16.056 Z4.000 F24000.000
G2 X47.053 Y18.874 Z4.000 I0.060 J1.444 F30000.000
G2 X47.947 Y16.126 Z4.000 I0.447 J-1.374 F30000.000
G2 X47.440 Y16.056 Z4.000 I-0.447 J1.374 F30000.000
G1 X47.440 Y16.056 Z3.500 F24000.000
G2 X47.053 Y18.874 Z3.500 I0.060 J1.444 F30000.000
G2 X47.947 Y16.126 Z3.500 I0.447 J-1.374 F30000.000
G2 X47.440 Y16.056 Z3.500 I-0.447 J1.374 F30000.000
G1 X47.440 Y16.056 Z3.000 F24000.000
G2 X47.053 Y18.874 Z3.000 I0.060 J1.444 F30000.000
G2 X47.947 Y16.126 Z3.000 I0.447 J-1.374 F30000.000
G2 X47.440 Y16.056 Z3.000 I-0.447 J1.374 F30000.000
G1 X47.440 Y16.056 Z2.500 F24000.000
G2 X47.053 Y18.874 Z2.500 I0.060 J1.444 F30000.000
G2 X47.947 Y16.126 Z2.500 I0.447 J-1.374 F30000.000
G2 X47.440 Y16.056 Z2.500 I-0.447 J1.374 F30000.000
G1 X47.440 Y16.056 Z2.000 F24000.000
G2 X47.053 Y18.874 Z2.000 I0.060 J1.444 F30000.000
G2 X47.947 Y16.126 Z2.000 I0.447 J-1.374 F30000.000
G2 X47.440 Y16.056 Z2.000 I-0.447 J1.374 F30000.000
G1 X47.440 Y16.056 Z1.500 F24000.000
G2 X47.053 Y18.874 Z1.500 I0.060 J1.444 F30000.000
G2 X47.947 Y16.126 Z1.500 I0.447 J-1.374 F30000.000
G2 X47.440 Y16.056 Z1.500 I-0.447 J1.374 F30000.000
G1 X47.440 Y16.056 Z1.000 F24000.000
G2 X47.053 Y18.874 Z1.000 I0.060 J1.444 F30000.000
G2 X47.947 Y16.126 Z1.000 I0.447 J-1.374 F30000.000
G2 X47.440 Y16.056 Z1.000 I-0.447 J1.374 F30000.000
G1 X47.440 Y16.056 Z0.500 F24000.000
G2 X47.053 Y18.874 Z0.500 I0.060 J1.444 F30000.000
G2 X47.947 Y16.126 Z0.500 I0.447 J-1.374 F30000.000
G2 X47.440 Y16.056 Z0.500 I-0.447 J1.374 F30000.000
G1 X47.440 Y16.056 Z0.000 F24000.000
G2 X47.053 Y18.874 Z0.000 I0.060 J1.444 F30000.000
G2 X47.947 Y16.126 Z0.000 I0.447 J-1.374 F30000.000
G2 X47.440 Y16.056 Z0.000 I-0.447 J1.374 F30000.000
G1 X47.440 Y16.056 Z-0.250 F24000.000
G2 X47.053 Y18.874 Z-0.250 I0.060 J1.444 F30000.000
G2 X47.947 Y16.126 Z-0.250 I0.447 J-1.374 F30000.000
G2 X47.440 Y16.056 Z-0.250 I-0.447 J1.374 F30000.000
G0 Z20.000
G0 Z20.000
G0 X47.440 Y16.056
G0 X81.056 Y17.441
G0 X81.056 Y17.441 Z18.000
G1 X81.056 Y17.441 Z12.500 F24000.000
G2 X82.053 Y18.874 Z12.500 I1.444 J0.059 F30000.000
G2 X83.874 Y17.947 Z12.500 I0.447 J-1.374 F30000.000
G2 X82.947 Y16.126 Z12.500 I-1.374 J-0.447 F30000.000
G2 X81.056 Y17.441 Z12.500 I-0.447 J1.374 F30000.000
G1 X81.056 Y17.441 Z12.000 F24000.000
G2 X82.053 Y18.874 Z12.000 I1.444 J0.059 F30000.000
G2 X83.874 Y17.947 Z12.000 I0.447 J-1.374 F30000.000
G2 X82.947 Y16.126 Z12.000 I-1.374 J-0.447 F30000.000
G2 X81.056 Y17.441 Z12.000 I-0.447 J1.374 F30000.000
G1 X81.056 Y17.441 Z11.500 F24000.000
G2 X82.053 Y18.874 Z11.500 I1.444 J0.059 F30000.000
G2 X83.874 Y17.947 Z11.500 I0.447 J-1.374 F30000.000
G2 X82.947 Y16.126 Z11.500 I-1.374 J-0.447 F30000.000
G2 X81.056 Y17.441 Z11.500 I-0.447 J1.374 F30000.000
G1 X81.056 Y17.441 Z11.000 F24000.000
G2 X82.053 Y18.874 Z11.000 I1.444 J0.059 F30000.000
G2 X83.874 Y17.947 Z11.000 I0.447 J-1.374 F30000.000
G2 X82.947 Y16.126 Z11.000 I-1.374 J-0.447 F30000.000
G2 X81.056 Y17.441 Z11.000 I-0.447 J1.374 F30000.000
G1 X81.056 Y17.441 Z10.500 F24000.000
G2 X82.053 Y18.874 Z10.500 I1.444 J0.059 F30000.000
G2 X83.874 Y17.947 Z10.500 I0.447 J-1.374 F30000.000
G2 X82.947 Y16.126 Z10.500 I-1.374 J-0.447 F30000.000
G2 X81.056 Y17.441 Z10.500 I-0.447 J1.374 F30000.000
G1 X81.056 Y17.441 Z10.000 F24000.000
G2 X82.053 Y18.874 Z10.000 I1.444 J0.059 F30000.000
G2 X83.874 Y17.947 Z10.000 I0.447 J-1.374 F30000.000
G2 X82.947 Y16.126 Z10.000 I-1.374 J-0.447 F30000.000
G2 X81.056 Y17.441 Z10.000 I-0.447 J1.374 F30000.000
G1 X81.056 Y17.441 Z9.500 F24000.000
G2 X82.053 Y18.874 Z9.500 I1.444 J0.059 F30000.000
G2 X83.874 Y17.947 Z9.500 I0.447 J-1.374 F30000.000
G2 X82.947 Y16.126 Z9.500 I-1.374 J-0.447 F30000.000
G2 X81.056 Y17.441 Z9.500 I-0.447 J1.374 F30000.000
G1 X81.056 Y17.441 Z9.000 F24000.000
G2 X82.053 Y18.874 Z9.000 I1.444 J0.059 F30000.000
G2 X83.874 Y17.947 Z9.000 I0.447 J-1.374 F30000.000
G2 X82.947 Y16.126 Z9.000 I-1.374 J-0.447 F30000.000
G2 X81.056 Y17.441 Z9.000 I-0.447 J1.374 F30000.000
G1 X81.056 Y17.441 Z8.500 F24000.000
G2 X82.053 Y18.874 Z8.500 I1.444 J0.059 F30000.000
G2 X83.874 Y17.947 Z8.500 I0.447 J-1.374 F30000.000
G2 X82.947 Y16.126 Z8.500 I-1.374 J-0.447 F30000.000
G2 X81.056 Y17.441 Z8.500 I-0.447 J1.374 F30000.000
G1 X81.056 Y17.441 Z8.000 F24000.000
G2 X82.053 Y18.874 Z8.000 I1.444 J0.059 F30000.000
G2 X83.874 Y17.947 Z8.000 I0.447 J-1.374 F30000.000
G2 X82.947 Y16.126 Z8.000 I-1.374 J-0.447 F30000.000
G2 X81.056 Y17.441 Z8.000 I-0.447 J1.374 F30000.000
G1 X81.056 Y17.441 Z7.500 F24000.000
G2 X82.053 Y18.874 Z7.500 I1.444 J0.059 F30000.000
G2 X83.874 Y17.947 Z7.500 I0.447 J-1.374 F30000.000
G2 X82.947 Y16.126 Z7.500 I-1.374 J-0.447 F30000.000
G2 X81.056 Y17.441 Z7.500 I-0.447 J1.374 F30000.000
G1 X81.056 Y17.441 Z7.000 F24000.000
G2 X82.053 Y18.874 Z7.000 I1.444 J0.059 F30000.000
G2 X83.874 Y17.947 Z7.000 I0.447 J-1.374 F30000.000
G2 X82.947 Y16.126 Z7.000 I-1.374 J-0.447 F30000.000
G2 X81.056 Y17.441 Z7.000 I-0.447 J1.374 F30000.000
G1 X81.056 Y17.441 Z6.500 F24000.000
G2 X82.053 Y18.874 Z6.500 I1.444 J0.059 F30000.000
G2 X83.874 Y17.947 Z6.500 I0.447 J-1.374 F30000.000
G2 X82.947 Y16.126 Z6.500 I-1.374 J-0.447 F30000.000
G2 X81.056 Y17.441 Z6.500 I-0.447 J1.374 F30000.000
G1 X81.056 Y17.441 Z6.000 F24000.000
G2 X82.053 Y18.874 Z6.000 I1.444 J0.059 F30000.000
G2 X83.874 Y17.947 Z6.000 I0.447 J-1.374 F30000.000
G2 X82.947 Y16.126 Z6.000 I-1.374 J-0.447 F30000.000
G2 X81.056 Y17.441 Z6.000 I-0.447 J1.374 F30000.000
G1 X81.056 Y17.441 Z5.500 F24000.000
G2 X82.053 Y18.874 Z5.500 I1.444 J0.059 F30000.000
G2 X83.874 Y17.947 Z5.500 I0.447 J-1.374 F30000.000
G2 X82.947 Y16.126 Z5.500 I-1.374 J-0.447 F30000.000
G2 X81.056 Y17.441 Z5.500 I-0.447 J1.374 F30000.000
G1 X81.056 Y17.441 Z5.000 F24000.000
G2 X82.053 Y18.874 Z5.000 I1.444 J0.059 F30000.000
G2 X83.874 Y17.947 Z5.000 I0.447 J-1.374 F30000.000
G2 X82.947 Y16.126 Z5.000 I-1.374 J-0.447 F30000.000
G2 X81.056 Y17.441 Z5.000 I-0.447 J1.374 F30000.000
G1 X81.056 Y17.441 Z4.500 F24000.000
G2 X82.053 Y18.874 Z4.500 I1.444 J0.059 F30000.000
G2 X83.874 Y17.947 Z4.500 I0.447 J-1.374 F30000.000
G2 X82.947 Y16.126 Z4.500 I-1.374 J-0.447 F30000.000
G2 X81.056 Y17.441 Z4.500 I-0.447 J1.374 F30000.000
G1 X81.056 Y17.441 Z4.000 F24000.000
G2 X82.053 Y18.874 Z4.000 I1.444 J0.059 F30000.000
G2 X83.874 Y17.947 Z4.000 I0.447 J-1.374 F30000.000
G2 X82.947 Y16.126 Z4.000 I-1.374 J-0.447 F30000.000
G2 X81.056 Y17.441 Z4.000 I-0.447 J1.374 F30000.000
G1 X81.056 Y17.441 Z3.500 F24000.000
G2 X82.053 Y18.874 Z3.500 I1.444 J0.059 F30000.000
G2 X83.874 Y17.947 Z3.500 I0.447 J-1.374 F30000.000
G2 X82.947 Y16.126 Z3.500 I-1.374 J-0.447 F30000.000
G2 X81.056 Y17.441 Z3.500 I-0.447 J1.374 F30000.000
G1 X81.056 Y17.441 Z3.000 F24000.000
G2 X82.053 Y18.874 Z3.000 I1.444 J0.059 F30000.000
G2 X83.874 Y17.947 Z3.000 I0.447 J-1.374 F30000.000
G2 X82.947 Y16.126 Z3.000 I-1.374 J-0.447 F30000.000
G2 X81.056 Y17.441 Z3.000 I-0.447 J1.374 F30000.000
G1 X81.056 Y17.441 Z2.500 F24000.000
G2 X82.053 Y18.874 Z2.500 I1.444 J0.059 F30000.000
G2 X83.874 Y17.947 Z2.500 I0.447 J-1.374 F30000.000
G2 X82.947 Y16.126 Z2.500 I-1.374 J-0.447 F30000.000
G2 X81.056 Y17.441 Z2.500 I-0.447 J1.374 F30000.000
G1 X81.056 Y17.441 Z2.000 F24000.000
G2 X82.053 Y18.874 Z2.000 I1.444 J0.059 F30000.000
G2 X83.874 Y17.947 Z2.000 I0.447 J-1.374 F30000.000
G2 X82.947 Y16.126 Z2.000 I-1.374 J-0.447 F30000.000
G2 X81.056 Y17.441 Z2.000 I-0.447 J1.374 F30000.000
G1 X81.056 Y17.441 Z1.500 F24000.000
G2 X82.053 Y18.874 Z1.500 I1.444 J0.059 F30000.000
G2 X83.874 Y17.947 Z1.500 I0.447 J-1.374 F30000.000
G2 X82.947 Y16.126 Z1.500 I-1.374 J-0.447 F30000.000
G2 X81.056 Y17.441 Z1.500 I-0.447 J1.374 F30000.000
G1 X81.056 Y17.441 Z1.000 F24000.000
G2 X82.053 Y18.874 Z1.000 I1.444 J0.059 F30000.000
G2 X83.874 Y17.947 Z1.000 I0.447 J-1.374 F30000.000
G2 X82.947 Y16.126 Z1.000 I-1.374 J-0.447 F30000.000
G2 X81.056 Y17.441 Z1.000 I-0.447 J1.374 F30000.000
G1 X81.056 Y17.441 Z0.500 F24000.000
G2 X82.053 Y18.874 Z0.500 I1.444 J0.059 F30000.000
G2 X83.874 Y17.947 Z0.500 I0.447 J-1.374 F30000.000
G2 X82.947 Y16.126 Z0.500 I-1.374 J-0.447 F30000.000
G2 X81.056 Y17.441 Z0.500 I-0.447 J1.374 F30000.000
G1 X81.056 Y17.441 Z0.000 F24000.000
G2 X82.053 Y18.874 Z0.000 I1.444 J0.059 F30000.000
G2 X83.874 Y17.947 Z0.000 I0.447 J-1.374 F30000.000
G2 X82.947 Y16.126 Z0.000 I-1.374 J-0.447 F30000.000
G2 X81.056 Y17.441 Z0.000 I-0.447 J1.374 F30000.000
G1 X81.056 Y17.441 Z-0.250 F24000.000
G2 X82.053 Y18.874 Z-0.250 I1.444 J0.059 F30000.000
G2 X83.874 Y17.947 Z-0.250 I0.447 J-1.374 F30000.000
G2 X82.947 Y16.126 Z-0.250 I-1.374 J-0.447 F30000.000
G2 X81.056 Y17.441 Z-0.250 I-0.447 J1.374 F30000.000
G0 Z20.000
G0 Z20.000
G0 X81.056 Y17.441
G0 X82.440 Y-16.056
G0 X82.440 Y-16.056 Z18.000
G1 X82.440 Y-16.056 Z12.500 F24000.000
G2 X82.947 Y-18.874 Z12.500 I0.060 J-1.444 F30000.000
G2 X82.053 Y-16.126 Z12.500 I-0.447 J1.374 F30000.000
G2 X82.440 Y-16.056 Z12.500 I0.447 J-1.374 F30000.000
G1 X82.440 Y-16.056 Z12.000 F24000.000
G2 X82.947 Y-18.874 Z12.000 I0.060 J-1.444 F30000.000
G2 X82.053 Y-16.126 Z12.000 I-0.447 J1.374 F30000.000
G2 X82.440 Y-16.056 Z12.000 I0.447 J-1.374 F30000.000
G1 X82.440 Y-16.056 Z11.500 F24000.000
G2 X82.947 Y-18.874 Z11.500 I0.060 J-1.444 F30000.000
G2 X82.053 Y-16.126 Z11.500 I-0.447 J1.374 F30000.000
G2 X82.440 Y-16.056 Z11.500 I0.447 J-1.374 F30000.000
G1 X82.440 Y-16.056 Z11.000 F24000.000
G2 X82.947 Y-18.874 Z11.000 I0.060 J-1.444 F30000.000
G2 X82.053 Y-16.126 Z11.000 I-0.447 J1.374 F30000.000
G2 X82.440 Y-16.056 Z11.000 I0.447 J-1.374 F30000.000
G1 X82.440 Y-16.056 Z10.500 F24000.000
G2 X82.947 Y-18.874 Z10.500 I0.060 J-1.444 F30000.000
G2 X82.053 Y-16.126 Z10.500 I-0.447 J1.374 F30000.000
G2 X82.440 Y-16.056 Z10.500 I0.447 J-1.374 F30000.000
G1 X82.440 Y-16.056 Z10.000 F24000.000
G2 X82.947 Y-18.874 Z10.000 I0.060 J-1.444 F30000.000
G2 X82.053 Y-16.126 Z10.000 I-0.447 J1.374 F30000.000
G2 X82.440 Y-16.056 Z10.000 I0.447 J-1.374 F30000.000
G1 X82.440 Y-16.056 Z9.500 F24000.000
G2 X82.947 Y-18.874 Z9.500 I0.060 J-1.444 F30000.000
G2 X82.053 Y-16.126 Z9.500 I-0.447 J1.374 F30000.000
G2 X82.440 Y-16.056 Z9.500 I0.447 J-1.374 F30000.000
G1 X82.440 Y-16.056 Z9.000 F24000.000
G2 X82.947 Y-18.874 Z9.000 I0.060 J-1.444 F30000.000
G2 X82.053 Y-16.126 Z9.000 I-0.447 J1.374 F30000.000
G2 X82.440 Y-16.056 Z9.000 I0.447 J-1.374 F30000.000
G1 X82.440 Y-16.056 Z8.500 F24000.000
G2 X82.947 Y-18.874 Z8.500 I0.060 J-1.444 F30000.000
G2 X82.053 Y-16.126 Z8.500 I-0.447 J1.374 F30000.000
G2 X82.440 Y-16.056 Z8.500 I0.447 J-1.374 F30000.000
G1 X82.440 Y-16.056 Z8.000 F24000.000
G2 X82.947 Y-18.874 Z8.000 I0.060 J-1.444 F30000.000
G2 X82.053 Y-16.126 Z8.000 I-0.447 J1.374 F30000.000
G2 X82.440 Y-16.056 Z8.000 I0.447 J-1.374 F30000.000
G1 X82.440 Y-16.056 Z7.500 F24000.000
G2 X82.947 Y-18.874 Z7.500 I0.060 J-1.444 F30000.000
G2 X82.053 Y-16.126 Z7.500 I-0.447 J1.374 F30000.000
G2 X82.440 Y-16.056 Z7.500 I0.447 J-1.374 F30000.000
G1 X82.440 Y-16.056 Z7.000 F24000.000
G2 X82.947 Y-18.874 Z7.000 I0.060 J-1.444 F30000.000
G2 X82.053 Y-16.126 Z7.000 I-0.447 J1.374 F30000.000
G2 X82.440 Y-16.056 Z7.000 I0.447 J-1.374 F30000.000
G1 X82.440 Y-16.056 Z6.500 F24000.000
G2 X82.947 Y-18.874 Z6.500 I0.060 J-1.444 F30000.000
G2 X82.053 Y-16.126 Z6.500 I-0.447 J1.374 F30000.000
G2 X82.440 Y-16.056 Z6.500 I0.447 J-1.374 F30000.000
G1 X82.440 Y-16.056 Z6.000 F24000.000
G2 X82.947 Y-18.874 Z6.000 I0.060 J-1.444 F30000.000
G2 X82.053 Y-16.126 Z6.000 I-0.447 J1.374 F30000.000
G2 X82.440 Y-16.056 Z6.000 I0.447 J-1.374 F30000.000
G1 X82.440 Y-16.056 Z5.500 F24000.000
G2 X82.947 Y-18.874 Z5.500 I0.060 J-1.444 F30000.000
G2 X82.053 Y-16.126 Z5.500 I-0.447 J1.374 F30000.000
G2 X82.440 Y-16.056 Z5.500 I0.447 J-1.374 F30000.000
G1 X82.440 Y-16.056 Z5.000 F24000.000
G2 X82.947 Y-18.874 Z5.000 I0.060 J-1.444 F30000.000
G2 X82.053 Y-16.126 Z5.000 I-0.447 J1.374 F30000.000
G2 X82.440 Y-16.056 Z5.000 I0.447 J-1.374 F30000.000
G1 X82.440 Y-16.056 Z4.500 F24000.000
G2 X82.947 Y-18.874 Z4.500 I0.060 J-1.444 F30000.000
G2 X82.053 Y-16.126 Z4.500 I-0.447 J1.374 F30000.000
G2 X82.440 Y-16.056 Z4.500 I0.447 J-1.374 F30000.000
G1 X82.440 Y-16.056 Z4.000 F24000.000
G2 X82.947 Y-18.874 Z4.000 I0.060 J-1.444 F30000.000
G2 X82.053 Y-16.126 Z4.000 I-0.447 J1.374 F30000.000
G2 X82.440 Y-16.056 Z4.000 I0.447 J-1.374 F30000.000
G1 X82.440 Y-16.056 Z3.500 F24000.000
G2 X82.947 Y-18.874 Z3.500 I0.060 J-1.444 F30000.000
G2 X82.053 Y-16.126 Z3.500 I-0.447 J1.374 F30000.000
G2 X82.440 Y-16.056 Z3.500 I0.447 J-1.374 F30000.000
G1 X82.440 Y-16.056 Z3.000 F24000.000
G2 X82.947 Y-18.874 Z3.000 I0.060 J-1.444 F30000.000
G2 X82.053 Y-16.126 Z3.000 I-0.447 J1.374 F30000.000
G2 X82.440 Y-16.056 Z3.000 I0.447 J-1.374 F30000.000
G1 X82.440 Y-16.056 Z2.500 F24000.000
G2 X82.947 Y-18.874 Z2.500 I0.060 J-1.444 F30000.000
G2 X82.053 Y-16.126 Z2.500 I-0.447 J1.374 F30000.000
G2 X82.440 Y-16.056 Z2.500 I0.447 J-1.374 F30000.000
G1 X82.440 Y-16.056 Z2.000 F24000.000
G2 X82.947 Y-18.874 Z2.000 I0.060 J-1.444 F30000.000
G2 X82.053 Y-16.126 Z2.000 I-0.447 J1.374 F30000.000
G2 X82.440 Y-16.056 Z2.000 I0.447 J-1.374 F30000.000
G1 X82.440 Y-16.056 Z1.500 F24000.000
G2 X82.947 Y-18.874 Z1.500 I0.060 J-1.444 F30000.000
G2 X82.053 Y-16.126 Z1.500 I-0.447 J1.374 F30000.000
G2 X82.440 Y-16.056 Z1.500 I0.447 J-1.374 F30000.000
G1 X82.440 Y-16.056 Z1.000 F24000.000
G2 X82.947 Y-18.874 Z1.000 I0.060 J-1.444 F30000.000
G2 X82.053 Y-16.126 Z1.000 I-0.447 J1.374 F30000.000
G2 X82.440 Y-16.056 Z1.000 I0.447 J-1.374 F30000.000
G1 X82.440 Y-16.056 Z0.500 F24000.000
G2 X82.947 Y-18.874 Z0.500 I0.060 J-1.444 F30000.000
G2 X82.053 Y-16.126 Z0.500 I-0.447 J1.374 F30000.000
G2 X82.440 Y-16.056 Z0.500 I0.447 J-1.374 F30000.000
G1 X82.440 Y-16.056 Z0.000 F24000.000
G2 X82.947 Y-18.874 Z0.000 I0.060 J-1.444 F30000.000
G2 X82.053 Y-16.126 Z0.000 I-0.447 J1.374 F30000.000
G2 X82.440 Y-16.056 Z0.000 I0.447 J-1.374 F30000.000
G1 X82.440 Y-16.056 Z-0.250 F24000.000
G2 X82.947 Y-18.874 Z-0.250 I0.060 J-1.444 F30000.000
G2 X82.053 Y-16.126 Z-0.250 I-0.447 J1.374 F30000.000
G2 X82.440 Y-16.056 Z-0.250 I0.447 J-1.374 F30000.000
G0 Z20.000
G0 Z20.000
(finish operation: Holes)
(begin operation: DressupTag)
(machine: not set, mm/min)
G0 Z20.000
G0 X91.096 Y25.096 Z20.000
G0 X91.096 Y25.096 Z18.000
G1 X91.096 Y25.096 Z12.500 F24000.000
G3 X90.000 Y25.550 Z12.500 I-1.096 J-1.096 F30000.000
G1 X-90.000 Y25.550 Z12.500 F30000.000
G3 X-91.550 Y24.000 Z12.500 I-0.000 J-1.550 F30000.000
G1 X-91.550 Y-24.000 Z12.500 F30000.000
G3 X-90.000 Y-25.550 Z12.500 I1.550 J-0.000 F30000.000
G1 X90.000 Y-25.550 Z12.500 F30000.000
G3 X91.550 Y-24.000 Z12.500 I0.000 J1.550 F30000.000
G1 X91.550 Y24.000 Z12.500 F30000.000
G3 X91.096 Y25.096 Z12.500 I-1.550 J0.000 F30000.000
G1 X91.096 Y25.096 Z12.000 F24000.000
G3 X90.000 Y25.550 Z12.000 I-1.096 J-1.096 F30000.000
G1 X-90.000 Y25.550 Z12.000 F30000.000
G3 X-91.550 Y24.000 Z12.000 I-0.000 J-1.550 F30000.000
G1 X-91.550 Y-24.000 Z12.000 F30000.000
G3 X-90.000 Y-25.550 Z12.000 I1.550 J-0.000 F30000.000
G1 X90.000 Y-25.550 Z12.000 F30000.000
G3 X91.550 Y-24.000 Z12.000 I0.000 J1.550 F30000.000
G1 X91.550 Y24.000 Z12.000 F30000.000
G3 X91.096 Y25.096 Z12.000 I-1.550 J0.000 F30000.000
G1 X91.096 Y25.096 Z11.500 F24000.000
G3 X90.000 Y25.550 Z11.500 I-1.096 J-1.096 F30000.000
G1 X-90.000 Y25.550 Z11.500 F30000.000
G3 X-91.550 Y24.000 Z11.500 I-0.000 J-1.550 F30000.000
G1 X-91.550 Y-24.000 Z11.500 F30000.000
G3 X-90.000 Y-25.550 Z11.500 I1.550 J-0.000 F30000.000
G1 X90.000 Y-25.550 Z11.500 F30000.000
G3 X91.550 Y-24.000 Z11.500 I0.000 J1.550 F30000.000
G1 X91.550 Y24.000 Z11.500 F30000.000
G3 X91.096 Y25.096 Z11.500 I-1.550 J0.000 F30000.000
G1 X91.096 Y25.096 Z11.000 F24000.000
G3 X90.000 Y25.550 Z11.000 I-1.096 J-1.096 F30000.000
G1 X-90.000 Y25.550 Z11.000 F30000.000
G3 X-91.550 Y24.000 Z11.000 I-0.000 J-1.550 F30000.000
G1 X-91.550 Y-24.000 Z11.000 F30000.000
G3 X-90.000 Y-25.550 Z11.000 I1.550 J-0.000 F30000.000
G1 X90.000 Y-25.550 Z11.000 F30000.000
G3 X91.550 Y-24.000 Z11.000 I0.000 J1.550 F30000.000
G1 X91.550 Y24.000 Z11.000 F30000.000
G3 X91.096 Y25.096 Z11.000 I-1.550 J0.000 F30000.000
G1 X91.096 Y25.096 Z10.500 F24000.000
G3 X90.000 Y25.550 Z10.500 I-1.096 J-1.096 F30000.000
G1 X-90.000 Y25.550 Z10.500 F30000.000
G3 X-91.550 Y24.000 Z10.500 I-0.000 J-1.550 F30000.000
G1 X-91.550 Y-24.000 Z10.500 F30000.000
G3 X-90.000 Y-25.550 Z10.500 I1.550 J-0.000 F30000.000
G1 X90.000 Y-25.550 Z10.500 F30000.000
G3 X91.550 Y-24.000 Z10.500 I0.000 J1.550 F30000.000
G1 X91.550 Y24.000 Z10.500 F30000.000
G3 X91.096 Y25.096 Z10.500 I-1.550 J0.000 F30000.000
G1 X91.096 Y25.096 Z10.000 F24000.000
G3 X90.000 Y25.550 Z10.000 I-1.096 J-1.096 F30000.000
G1 X-90.000 Y25.550 Z10.000 F30000.000
G3 X-91.550 Y24.000 Z10.000 I-0.000 J-1.550 F30000.000
G1 X-91.550 Y-24.000 Z10.000 F30000.000
G3 X-90.000 Y-25.550 Z10.000 I1.550 J-0.000 F30000.000
G1 X90.000 Y-25.550 Z10.000 F30000.000
G3 X91.550 Y-24.000 Z10.000 I0.000 J1.550 F30000.000
G1 X91.550 Y24.000 Z10.000 F30000.000
G3 X91.096 Y25.096 Z10.000 I-1.550 J0.000 F30000.000
G1 X91.096 Y25.096 Z9.500 F24000.000
G3 X90.000 Y25.550 Z9.500 I-1.096 J-1.096 F30000.000
G1 X-90.000 Y25.550 Z9.500 F30000.000
G3 X-91.550 Y24.000 Z9.500 I-0.000 J-1.550 F30000.000
G1 X-91.550 Y-24.000 Z9.500 F30000.000
G3 X-90.000 Y-25.550 Z9.500 I1.550 J-0.000 F30000.000
G1 X90.000 Y-25.550 Z9.500 F30000.000
G3 X91.550 Y-24.000 Z9.500 I0.000 J1.550 F30000.000
G1 X91.550 Y24.000 Z9.500 F30000.000
G3 X91.096 Y25.096 Z9.500 I-1.550 J0.000 F30000.000
G1 X91.096 Y25.096 Z9.000 F24000.000
G3 X90.000 Y25.550 Z9.000 I-1.096 J-1.096 F30000.000
G1 X-90.000 Y25.550 Z9.000 F30000.000
G3 X-91.550 Y24.000 Z9.000 I-0.000 J-1.550 F30000.000
G1 X-91.550 Y-24.000 Z9.000 F30000.000
G3 X-90.000 Y-25.550 Z9.000 I1.550 J-0.000 F30000.000
G1 X90.000 Y-25.550 Z9.000 F30000.000
G3 X91.550 Y-24.000 Z9.000 I0.000 J1.550 F30000.000
G1 X91.550 Y24.000 Z9.000 F30000.000
G3 X91.096 Y25.096 Z9.000 I-1.550 J0.000 F30000.000
G1 X91.096 Y25.096 Z8.500 F24000.000
G3 X90.000 Y25.550 Z8.500 I-1.096 J-1.096 F30000.000
G1 X-90.000 Y25.550 Z8.500 F30000.000
G3 X-91.550 Y24.000 Z8.500 I-0.000 J-1.550 F30000.000
G1 X-91.550 Y-24.000 Z8.500 F30000.000
G3 X-90.000 Y-25.550 Z8.500 I1.550 J-0.000 F30000.000
G1 X90.000 Y-25.550 Z8.500 F30000.000
G3 X91.550 Y-24.000 Z8.500 I0.000 J1.550 F30000.000
G1 X91.550 Y24.000 Z8.500 F30000.000
G3 X91.096 Y25.096 Z8.500 I-1.550 J0.000 F30000.000
G1 X91.096 Y25.096 Z8.000 F24000.000
G3 X90.000 Y25.550 Z8.000 I-1.096 J-1.096 F30000.000
G1 X-90.000 Y25.550 Z8.000 F30000.000
G3 X-91.550 Y24.000 Z8.000 I-0.000 J-1.550 F30000.000
G1 X-91.550 Y-24.000 Z8.000 F30000.000
G3 X-90.000 Y-25.550 Z8.000 I1.550 J-0.000 F30000.000
G1 X90.000 Y-25.550 Z8.000 F30000.000
G3 X91.550 Y-24.000 Z8.000 I0.000 J1.550 F30000.000
G1 X91.550 Y24.000 Z8.000 F30000.000
G3 X91.096 Y25.096 Z8.000 I-1.550 J0.000 F30000.000
G1 X91.096 Y25.096 Z7.500 F24000.000
G3 X90.000 Y25.550 Z7.500 I-1.096 J-1.096 F30000.000
G1 X-90.000 Y25.550 Z7.500 F30000.000
G3 X-91.550 Y24.000 Z7.500 I-0.000 J-1.550 F30000.000
G1 X-91.550 Y-24.000 Z7.500 F30000.000
G3 X-90.000 Y-25.550 Z7.500 I1.550 J-0.000 F30000.000
G1 X90.000 Y-25.550 Z7.500 F30000.000
G3 X91.550 Y-24.000 Z7.500 I0.000 J1.550 F30000.000
G1 X91.550 Y24.000 Z7.500 F30000.000
G3 X91.096 Y25.096 Z7.500 I-1.550 J0.000 F30000.000
G1 X91.096 Y25.096 Z7.000 F24000.000
G3 X90.000 Y25.550 Z7.000 I-1.096 J-1.096 F30000.000
G1 X-90.000 Y25.550 Z7.000 F30000.000
G3 X-91.550 Y24.000 Z7.000 I-0.000 J-1.550 F30000.000
G1 X-91.550 Y-24.000 Z7.000 F30000.000
G3 X-90.000 Y-25.550 Z7.000 I1.550 J-0.000 F30000.000
G1 X90.000 Y-25.550 Z7.000 F30000.000
G3 X91.550 Y-24.000 Z7.000 I0.000 J1.550 F30000.000
G1 X91.550 Y24.000 Z7.000 F30000.000
G3 X91.096 Y25.096 Z7.000 I-1.550 J0.000 F30000.000
G1 X91.096 Y25.096 Z6.500 F24000.000
G3 X90.000 Y25.550 Z6.500 I-1.096 J-1.096 F30000.000
G1 X-90.000 Y25.550 Z6.500 F30000.000
G3 X-91.550 Y24.000 Z6.500 I-0.000 J-1.550 F30000.000
G1 X-91.550 Y-24.000 Z6.500 F30000.000
G3 X-90.000 Y-25.550 Z6.500 I1.550 J-0.000 F30000.000
G1 X90.000 Y-25.550 Z6.500 F30000.000
G3 X91.550 Y-24.000 Z6.500 I0.000 J1.550 F30000.000
G1 X91.550 Y24.000 Z6.500 F30000.000
G3 X91.096 Y25.096 Z6.500 I-1.550 J0.000 F30000.000
G1 X91.096 Y25.096 Z6.000 F24000.000
G3 X90.000 Y25.550 Z6.000 I-1.096 J-1.096 F30000.000
G1 X-90.000 Y25.550 Z6.000 F30000.000
G3 X-91.550 Y24.000 Z6.000 I-0.000 J-1.550 F30000.000
G1 X-91.550 Y-24.000 Z6.000 F30000.000
G3 X-90.000 Y-25.550 Z6.000 I1.550 J-0.000 F30000.000
G1 X90.000 Y-25.550 Z6.000 F30000.000
G3 X91.550 Y-24.000 Z6.000 I0.000 J1.550 F30000.000
G1 X91.550 Y24.000 Z6.000 F30000.000
G3 X91.096 Y25.096 Z6.000 I-1.550 J0.000 F30000.000
G1 X91.096 Y25.096 Z5.500 F24000.000
G3 X90.000 Y25.550 Z5.500 I-1.096 J-1.096 F30000.000
G1 X-90.000 Y25.550 Z5.500 F30000.000
G3 X-91.550 Y24.000 Z5.500 I-0.000 J-1.550 F30000.000
G1 X-91.550 Y-24.000 Z5.500 F30000.000
G3 X-90.000 Y-25.550 Z5.500 I1.550 J-0.000 F30000.000
G1 X90.000 Y-25.550 Z5.500 F30000.000
G3 X91.550 Y-24.000 Z5.500 I0.000 J1.550 F30000.000
G1 X91.550 Y24.000 Z5.500 F30000.000
G3 X91.096 Y25.096 Z5.500 I-1.550 J0.000 F30000.000
G1 X91.096 Y25.096 Z5.000 F24000.000
G3 X90.000 Y25.550 Z5.000 I-1.096 J-1.096 F30000.000
G1 X-90.000 Y25.550 Z5.000 F30000.000
G3 X-91.550 Y24.000 Z5.000 I-0.000 J-1.550 F30000.000
G1 X-91.550 Y-24.000 Z5.000 F30000.000
G3 X-90.000 Y-25.550 Z5.000 I1.550 J-0.000 F30000.000
G1 X90.000 Y-25.550 Z5.000 F30000.000
G3 X91.550 Y-24.000 Z5.000 I0.000 J1.550 F30000.000
G1 X91.550 Y24.000 Z5.000 F30000.000
G3 X91.096 Y25.096 Z5.000 I-1.550 J0.000 F30000.000
G1 X91.096 Y25.096 Z4.500 F24000.000
G3 X90.000 Y25.550 Z4.500 I-1.096 J-1.096 F30000.000
G1 X-90.000 Y25.550 Z4.500 F30000.000
G3 X-91.550 Y24.000 Z4.500 I-0.000 J-1.550 F30000.000
G1 X-91.550 Y-24.000 Z4.500 F30000.000
G3 X-90.000 Y-25.550 Z4.500 I1.550 J-0.000 F30000.000
G1 X90.000 Y-25.550 Z4.500 F30000.000
G3 X91.550 Y-24.000 Z4.500 I0.000 J1.550 F30000.000
G1 X91.550 Y24.000 Z4.500 F30000.000
G3 X91.096 Y25.096 Z4.500 I-1.550 J0.000 F30000.000
G1 X91.096 Y25.096 Z4.000 F24000.000
G3 X90.000 Y25.550 Z4.000 I-1.096 J-1.096 F30000.000
G1 X-90.000 Y25.550 Z4.000 F30000.000
G3 X-91.550 Y24.000 Z4.000 I-0.000 J-1.550 F30000.000
G1 X-91.550 Y-24.000 Z4.000 F30000.000
G3 X-90.000 Y-25.550 Z4.000 I1.550 J-0.000 F30000.000
G1 X90.000 Y-25.550 Z4.000 F30000.000
G3 X91.550 Y-24.000 Z4.000 I0.000 J1.550 F30000.000
G1 X91.550 Y24.000 Z4.000 F30000.000
G3 X91.096 Y25.096 Z4.000 I-1.550 J0.000 F30000.000
G1 X91.096 Y25.096 Z3.500 F24000.000
G3 X90.000 Y25.550 Z3.500 I-1.096 J-1.096 F30000.000
G1 X-90.000 Y25.550 Z3.500 F30000.000
G3 X-91.550 Y24.000 Z3.500 I-0.000 J-1.550 F30000.000
G1 X-91.550 Y-24.000 Z3.500 F30000.000
G3 X-90.000 Y-25.550 Z3.500 I1.550 J-0.000 F30000.000
G1 X90.000 Y-25.550 Z3.500 F30000.000
G3 X91.550 Y-24.000 Z3.500 I0.000 J1.550 F30000.000
G1 X91.550 Y24.000 Z3.500 F30000.000
G3 X91.096 Y25.096 Z3.500 I-1.550 J0.000 F30000.000
G1 X91.096 Y25.096 Z3.000 F24000.000
G3 X90.000 Y25.550 Z3.000 I-1.096 J-1.096 F30000.000
G1 X-90.000 Y25.550 Z3.000 F30000.000
G3 X-91.550 Y24.000 Z3.000 I-0.000 J-1.550 F30000.000
G1 X-91.550 Y-24.000 Z3.000 F30000.000
G3 X-90.000 Y-25.550 Z3.000 I1.550 J-0.000 F30000.000
G1 X90.000 Y-25.550 Z3.000 F30000.000
G3 X91.550 Y-24.000 Z3.000 I0.000 J1.550 F30000.000
G1 X91.550 Y24.000 Z3.000 F30000.000
G3 X91.096 Y25.096 Z3.000 I-1.550 J0.000 F30000.000
G1 X91.096 Y25.096 Z2.500 F24000.000
G3 X90.000 Y25.550 Z2.500 I-1.096 J-1.096 F30000.000
G1 X-90.000 Y25.550 Z2.500 F30000.000
G3 X-91.550 Y24.000 Z2.500 I-0.000 J-1.550 F30000.000
G1 X-91.550 Y-24.000 Z2.500 F30000.000
G3 X-90.000 Y-25.550 Z2.500 I1.550 J-0.000 F30000.000
G1 X90.000 Y-25.550 Z2.500 F30000.000
G3 X91.550 Y-24.000 Z2.500 I0.000 J1.550 F30000.000
G1 X91.550 Y24.000 Z2.500 F30000.000
G3 X91.096 Y25.096 Z2.500 I-1.550 J0.000 F30000.000
G1 X91.096 Y25.096 Z2.000 F24000.000
G3 X90.000 Y25.550 Z2.000 I-1.096 J-1.096 F30000.000
G1 X-90.000 Y25.550 Z2.000 F30000.000
G3 X-91.550 Y24.000 Z2.000 I-0.000 J-1.550 F30000.000
G1 X-91.550 Y-24.000 Z2.000 F30000.000
G3 X-90.000 Y-25.550 Z2.000 I1.550 J-0.000 F30000.000
G1 X90.000 Y-25.550 Z2.000 F30000.000
G3 X91.550 Y-24.000 Z2.000 I0.000 J1.550 F30000.000
G1 X91.550 Y24.000 Z2.000 F30000.000
G3 X91.096 Y25.096 Z2.000 I-1.550 J0.000 F30000.000
G1 X91.096 Y25.096 Z1.500 F24000.000
G3 X90.000 Y25.550 Z1.500 I-1.096 J-1.096 F30000.000
G1 X-90.000 Y25.550 Z1.500 F30000.000
G3 X-91.550 Y24.000 Z1.500 I-0.000 J-1.550 F30000.000
G1 X-91.550 Y-24.000 Z1.500 F30000.000
G3 X-90.000 Y-25.550 Z1.500 I1.550 J-0.000 F30000.000
G1 X90.000 Y-25.550 Z1.500 F30000.000
G3 X91.550 Y-24.000 Z1.500 I0.000 J1.550 F30000.000
G1 X91.550 Y24.000 Z1.500 F30000.000
G3 X91.096 Y25.096 Z1.500 I-1.550 J0.000 F30000.000
G1 X91.096 Y25.096 Z1.000 F24000.000
G3 X90.000 Y25.550 Z1.000 I-1.096 J-1.096 F30000.000
G1 X-90.000 Y25.550 Z1.000 F30000.000
G3 X-91.550 Y24.000 Z1.000 I-0.000 J-1.550 F30000.000
G1 X-91.550 Y-24.000 Z1.000 F30000.000
G3 X-90.000 Y-25.550 Z1.000 I1.550 J-0.000 F30000.000
G1 X90.000 Y-25.550 Z1.000 F30000.000
G3 X91.550 Y-24.000 Z1.000 I0.000 J1.550 F30000.000
G1 X91.550 Y24.000 Z1.000 F30000.000
G3 X91.096 Y25.096 Z1.000 I-1.550 J0.000 F30000.000
G1 X91.096 Y25.096 Z0.500 F24000.000
G3 X90.000 Y25.550 Z0.500 I-1.096 J-1.096 F30000.000
G1 X-90.000 Y25.550 Z0.500 F30000.000
G3 X-91.550 Y24.000 Z0.500 I-0.000 J-1.550 F30000.000
G1 X-91.550 Y-24.000 Z0.500 F30000.000
G3 X-90.000 Y-25.550 Z0.500 I1.550 J-0.000 F30000.000
G1 X90.000 Y-25.550 Z0.500 F30000.000
G3 X91.550 Y-24.000 Z0.500 I0.000 J1.550 F30000.000
G1 X91.550 Y24.000 Z0.500 F30000.000
G3 X91.096 Y25.096 Z0.500 I-1.550 J0.000 F30000.000
G1 X91.096 Y25.096 Z0.000 F24000.000
G3 X90.000 Y25.550 Z0.000 I-1.096 J-1.096 F30000.000
G1 X-90.000 Y25.550 Z0.000 F30000.000
G3 X-91.550 Y24.000 Z0.000 I-0.000 J-1.550 F30000.000
G1 X-91.550 Y-24.000 Z0.000 F30000.000
G3 X-90.000 Y-25.550 Z0.000 I1.550 J-0.000 F30000.000
G1 X90.000 Y-25.550 Z0.000 F30000.000
G3 X91.550 Y-24.000 Z0.000 I0.000 J1.550 F30000.000
G1 X91.550 Y24.000 Z0.000 F30000.000
G3 X91.096 Y25.096 Z0.000 I-1.550 J0.000 F30000.000
G1 X91.096 Y25.096 Z-0.250 F24000.000
G3 X90.000 Y25.550 Z-0.250 I-1.096 J-1.096 F30000.000
G1 X-90.000 Y25.550 Z-0.250 F30000.000
G3 X-91.550 Y24.000 Z-0.250 I-0.000 J-1.550 F30000.000
G1 X-91.550 Y-24.000 Z-0.250 F30000.000
G3 X-90.000 Y-25.550 Z-0.250 I1.550 J-0.000 F30000.000
G1 X90.000 Y-25.550 Z-0.250 F30000.000
G3 X91.550 Y-24.000 Z-0.250 I0.000 J1.550 F30000.000
G1 X91.550 Y24.000 Z-0.250 F30000.000
G3 X91.096 Y25.096 Z-0.250 I-1.550 J0.000 F30000.000
G0 X91.096 Y25.096 Z20.000
(finish operation: DressupTag)
(begin postamble)
M05 M09
G17 G90 G80 G40
M30
