(Exported by FreeCAD)
(Post Processor: KineticNCBeamicon2_post)
(Output Time:2024-09-06 18:59:13.074481)
(begin preamble)
%
G17 G21 G40 G49 G80 G90
M08
G21
(begin operation: Fixture)
(machine: not set, mm/min)
G54
(finish operation: Fixture)
(begin operation: TC: Default Tool)
(machine: not set, mm/min)
(TC: Default Tool)
M05
M09M6 T1
M3 S2500
(finish operation: TC: Default Tool)
(begin operation: DressupTag)
(machine: not set, mm/min)
G0 Z20.000
G0 X161.096 Y1201.096 Z20.000
G0 X161.096 Y1201.096 Z18.000
G1 X161.096 Y1201.096 Z12.500 F24000.000
G2 X161.550 Y1200.000 Z12.500 I-1.096 J-1.096 F30000.000
G1 X161.550 Y0.000 Z12.500 F30000.000
G2 X160.000 Y-1.550 Z12.500 I-1.550 J0.000 F30000.000
G1 X0.000 Y-1.550 Z12.500 F30000.000
G2 X-1.550 Y0.000 Z12.500 I0.000 J1.550 F30000.000
G1 X-1.550 Y1200.000 Z12.500 F30000.000
G2 X0.000 Y1201.550 Z12.500 I1.550 J0.000 F30000.000
G1 X160.000 Y1201.550 Z12.500 F30000.000
G2 X161.096 Y1201.096 Z12.500 I0.000 J-1.550 F30000.000
G1 X161.096 Y1201.096 Z12.000 F24000.000
G2 X161.550 Y1200.000 Z12.000 I-1.096 J-1.096 F30000.000
G1 X161.550 Y0.000 Z12.000 F30000.000
G2 X160.000 Y-1.550 Z12.000 I-1.550 J0.000 F30000.000
G1 X0.000 Y-1.550 Z12.000 F30000.000
G2 X-1.550 Y0.000 Z12.000 I0.000 J1.550 F30000.000
G1 X-1.550 Y1200.000 Z12.000 F30000.000
G2 X0.000 Y1201.550 Z12.000 I1.550 J0.000 F30000.000
G1 X160.000 Y1201.550 Z12.000 F30000.000
G2 X161.096 Y1201.096 Z12.000 I0.000 J-1.550 F30000.000
G1 X161.096 Y1201.096 Z11.500 F24000.000
G2 X161.550 Y1200.000 Z11.500 I-1.096 J-1.096 F30000.000
G1 X161.550 Y0.000 Z11.500 F30000.000
G2 X160.000 Y-1.550 Z11.500 I-1.550 J0.000 F30000.000
G1 X0.000 Y-1.550 Z11.500 F30000.000
G2 X-1.550 Y0.000 Z11.500 I0.000 J1.550 F30000.000
G1 X-1.550 Y1200.000 Z11.500 F30000.000
G2 X0.000 Y1201.550 Z11.500 I1.550 J0.000 F30000.000
G1 X160.000 Y1201.550 Z11.500 F30000.000
G2 X161.096 Y1201.096 Z11.500 I0.000 J-1.550 F30000.000
G1 X161.096 Y1201.096 Z11.000 F24000.000
G2 X161.550 Y1200.000 Z11.000 I-1.096 J-1.096 F30000.000
G1 X161.550 Y0.000 Z11.000 F30000.000
G2 X160.000 Y-1.550 Z11.000 I-1.550 J0.000 F30000.000
G1 X0.000 Y-1.550 Z11.000 F30000.000
G2 X-1.550 Y0.000 Z11.000 I0.000 J1.550 F30000.000
G1 X-1.550 Y1200.000 Z11.000 F30000.000
G2 X0.000 Y1201.550 Z11.000 I1.550 J0.000 F30000.000
G1 X160.000 Y1201.550 Z11.000 F30000.000
G2 X161.096 Y1201.096 Z11.000 I0.000 J-1.550 F30000.000
G1 X161.096 Y1201.096 Z10.500 F24000.000
G2 X161.550 Y1200.000 Z10.500 I-1.096 J-1.096 F30000.000
G1 X161.550 Y0.000 Z10.500 F30000.000
G2 X160.000 Y-1.550 Z10.500 I-1.550 J0.000 F30000.000
G1 X0.000 Y-1.550 Z10.500 F30000.000
G2 X-1.550 Y0.000 Z10.500 I0.000 J1.550 F30000.000
G1 X-1.550 Y1200.000 Z10.500 F30000.000
G2 X0.000 Y1201.550 Z10.500 I1.550 J0.000 F30000.000
G1 X160.000 Y1201.550 Z10.500 F30000.000
G2 X161.096 Y1201.096 Z10.500 I0.000 J-1.550 F30000.000
G1 X161.096 Y1201.096 Z10.000 F24000.000
G2 X161.550 Y1200.000 Z10.000 I-1.096 J-1.096 F30000.000
G1 X161.550 Y0.000 Z10.000 F30000.000
G2 X160.000 Y-1.550 Z10.000 I-1.550 J0.000 F30000.000
G1 X0.000 Y-1.550 Z10.000 F30000.000
G2 X-1.550 Y0.000 Z10.000 I0.000 J1.550 F30000.000
G1 X-1.550 Y1200.000 Z10.000 F30000.000
G2 X0.000 Y1201.550 Z10.000 I1.550 J0.000 F30000.000
G1 X160.000 Y1201.550 Z10.000 F30000.000
G2 X161.096 Y1201.096 Z10.000 I0.000 J-1.550 F30000.000
G1 X161.096 Y1201.096 Z9.500 F24000.000
G2 X161.550 Y1200.000 Z9.500 I-1.096 J-1.096 F30000.000
G1 X161.550 Y0.000 Z9.500 F30000.000
G2 X160.000 Y-1.550 Z9.500 I-1.550 J0.000 F30000.000
G1 X0.000 Y-1.550 Z9.500 F30000.000
G2 X-1.550 Y0.000 Z9.500 I0.000 J1.550 F30000.000
G1 X-1.550 Y1200.000 Z9.500 F30000.000
G2 X0.000 Y1201.550 Z9.500 I1.550 J0.000 F30000.000
G1 X160.000 Y1201.550 Z9.500 F30000.000
G2 X161.096 Y1201.096 Z9.500 I0.000 J-1.550 F30000.000
G1 X161.096 Y1201.096 Z9.000 F24000.000
G2 X161.550 Y1200.000 Z9.000 I-1.096 J-1.096 F30000.000
G1 X161.550 Y0.000 Z9.000 F30000.000
G2 X160.000 Y-1.550 Z9.000 I-1.550 J0.000 F30000.000
G1 X0.000 Y-1.550 Z9.000 F30000.000
G2 X-1.550 Y0.000 Z9.000 I0.000 J1.550 F30000.000
G1 X-1.550 Y1200.000 Z9.000 F30000.000
G2 X0.000 Y1201.550 Z9.000 I1.550 J0.000 F30000.000
G1 X160.000 Y1201.550 Z9.000 F30000.000
G2 X161.096 Y1201.096 Z9.000 I0.000 J-1.550 F30000.000
G1 X161.096 Y1201.096 Z8.500 F24000.000
G2 X161.550 Y1200.000 Z8.500 I-1.096 J-1.096 F30000.000
G1 X161.550 Y0.000 Z8.500 F30000.000
G2 X160.000 Y-1.550 Z8.500 I-1.550 J0.000 F30000.000
G1 X0.000 Y-1.550 Z8.500 F30000.000
G2 X-1.550 Y0.000 Z8.500 I0.000 J1.550 F30000.000
G1 X-1.550 Y1200.000 Z8.500 F30000.000
G2 X0.000 Y1201.550 Z8.500 I1.550 J0.000 F30000.000
G1 X160.000 Y1201.550 Z8.500 F30000.000
G2 X161.096 Y1201.096 Z8.500 I0.000 J-1.550 F30000.000
G1 X161.096 Y1201.096 Z8.000 F24000.000
G2 X161.550 Y1200.000 Z8.000 I-1.096 J-1.096 F30000.000
G1 X161.550 Y0.000 Z8.000 F30000.000
G2 X160.000 Y-1.550 Z8.000 I-1.550 J0.000 F30000.000
G1 X0.000 Y-1.550 Z8.000 F30000.000
G2 X-1.550 Y0.000 Z8.000 I0.000 J1.550 F30000.000
G1 X-1.550 Y1200.000 Z8.000 F30000.000
G2 X0.000 Y1201.550 Z8.000 I1.550 J0.000 F30000.000
G1 X160.000 Y1201.550 Z8.000 F30000.000
G2 X161.096 Y1201.096 Z8.000 I0.000 J-1.550 F30000.000
G1 X161.096 Y1201.096 Z7.500 F24000.000
G2 X161.550 Y1200.000 Z7.500 I-1.096 J-1.096 F30000.000
G1 X161.550 Y0.000 Z7.500 F30000.000
G2 X160.000 Y-1.550 Z7.500 I-1.550 J0.000 F30000.000
G1 X0.000 Y-1.550 Z7.500 F30000.000
G2 X-1.550 Y0.000 Z7.500 I0.000 J1.550 F30000.000
G1 X-1.550 Y1200.000 Z7.500 F30000.000
G2 X0.000 Y1201.550 Z7.500 I1.550 J0.000 F30000.000
G1 X160.000 Y1201.550 Z7.500 F30000.000
G2 X161.096 Y1201.096 Z7.500 I0.000 J-1.550 F30000.000
G1 X161.096 Y1201.096 Z7.000 F24000.000
G2 X161.550 Y1200.000 Z7.000 I-1.096 J-1.096 F30000.000
G1 X161.550 Y0.000 Z7.000 F30000.000
G2 X160.000 Y-1.550 Z7.000 I-1.550 J0.000 F30000.000
G1 X0.000 Y-1.550 Z7.000 F30000.000
G2 X-1.550 Y0.000 Z7.000 I0.000 J1.550 F30000.000
G1 X-1.550 Y1200.000 Z7.000 F30000.000
G2 X0.000 Y1201.550 Z7.000 I1.550 J0.000 F30000.000
G1 X160.000 Y1201.550 Z7.000 F30000.000
G2 X161.096 Y1201.096 Z7.000 I0.000 J-1.550 F30000.000
G1 X161.096 Y1201.096 Z6.500 F24000.000
G2 X161.550 Y1200.000 Z6.500 I-1.096 J-1.096 F30000.000
G1 X161.550 Y0.000 Z6.500 F30000.000
G2 X160.000 Y-1.550 Z6.500 I-1.550 J0.000 F30000.000
G1 X0.000 Y-1.550 Z6.500 F30000.000
G2 X-1.550 Y0.000 Z6.500 I0.000 J1.550 F30000.000
G1 X-1.550 Y1200.000 Z6.500 F30000.000
G2 X0.000 Y1201.550 Z6.500 I1.550 J0.000 F30000.000
G1 X160.000 Y1201.550 Z6.500 F30000.000
G2 X161.096 Y1201.096 Z6.500 I0.000 J-1.550 F30000.000
G1 X161.096 Y1201.096 Z6.000 F24000.000
G2 X161.550 Y1200.000 Z6.000 I-1.096 J-1.096 F30000.000
G1 X161.550 Y955.234 Z6.000 F30000.000
G1 X161.550 Y954.854 Z6.380 F27000.000
G1 X161.550 Y845.146 Z6.380 F30000.000
G1 X161.550 Y844.766 Z6.000 F27000.000
G1 X161.550 Y355.234 Z6.000 F30000.000
G1 X161.550 Y354.854 Z6.380 F27000.000
G1 X161.550 Y245.146 Z6.380 F30000.000
G1 X161.550 Y244.766 Z6.000 F27000.000
G1 X161.550 Y0.000 Z6.000 F30000.000
G2 X160.000 Y-1.550 Z6.000 I-1.550 J0.000 F30000.000
G1 X0.000 Y-1.550 Z6.000 F30000.000
G2 X-1.550 Y0.000 Z6.000 I0.000 J1.550 F30000.000
G1 X-1.550 Y244.766 Z6.000 F30000.000
G1 X-1.550 Y245.146 Z6.380 F27000.000
G1 X-1.550 Y354.854 Z6.380 F30000.000
G1 X-1.550 Y355.234 Z6.000 F27000.000
G1 X-1.550 Y844.766 Z6.000 F30000.000
G1 X-1.550 Y845.146 Z6.380 F27000.000
G1 X-1.550 Y954.854 Z6.380 F30000.000
G1 X-1.550 Y955.234 Z6.000 F27000.000
G1 X-1.550 Y1200.000 Z6.000 F30000.000
G2 X0.000 Y1201.550 Z6.000 I1.550 J0.000 F30000.000
G1 X160.000 Y1201.550 Z6.000 F30000.000
G2 X161.096 Y1201.096 Z6.000 I0.000 J-1.550 F30000.000
G1 X161.096 Y1201.096 Z5.500 F24000.000
G2 X161.550 Y1200.000 Z5.500 I-1.096 J-1.096 F30000.000
G1 X161.550 Y955.734 Z5.500 F30000.000
G1 X161.550 Y954.854 Z6.380 F27000.000
G1 X161.550 Y845.146 Z6.380 F30000.000
G1 X161.550 Y844.266 Z5.500 F27000.000
G1 X161.550 Y355.734 Z5.500 F30000.000
G1 X161.550 Y354.854 Z6.380 F27000.000
G1 X161.550 Y245.146 Z6.380 F30000.000
G1 X161.550 Y244.266 Z5.500 F27000.000
G1 X161.550 Y0.000 Z5.500 F30000.000
G2 X160.000 Y-1.550 Z5.500 I-1.550 J0.000 F30000.000
G1 X0.000 Y-1.550 Z5.500 F30000.000
G2 X-1.550 Y0.000 Z5.500 I0.000 J1.550 F30000.000
G1 X-1.550 Y244.266 Z5.500 F30000.000
G1 X-1.550 Y245.146 Z6.380 F27000.000
G1 X-1.550 Y354.854 Z6.380 F30000.000
G1 X-1.550 Y355.734 Z5.500 F27000.000
G1 X-1.550 Y844.266 Z5.500 F30000.000
G1 X-1.550 Y845.146 Z6.380 F27000.000
G1 X-1.550 Y954.854 Z6.380 F30000.000
G1 X-1.550 Y955.734 Z5.500 F27000.000
G1 X-1.550 Y1200.000 Z5.500 F30000.000
G2 X0.000 Y1201.550 Z5.500 I1.550 J0.000 F30000.000
G1 X160.000 Y1201.550 Z5.500 F30000.000
G2 X161.096 Y1201.096 Z5.500 I0.000 J-1.550 F30000.000
G1 X161.096 Y1201.096 Z5.000 F24000.000
G2 X161.550 Y1200.000 Z5.000 I-1.096 J-1.096 F30000.000
G1 X161.550 Y956.234 Z5.000 F30000.000
G1 X161.550 Y954.854 Z6.380 F27000.000
G1 X161.550 Y845.146 Z6.380 F30000.000
G1 X161.550 Y843.766 Z5.000 F27000.000
G1 X161.550 Y356.234 Z5.000 F30000.000
G1 X161.550 Y354.854 Z6.380 F27000.000
G1 X161.550 Y245.146 Z6.380 F30000.000
G1 X161.550 Y243.766 Z5.000 F27000.000
G1 X161.550 Y0.000 Z5.000 F30000.000
G2 X160.000 Y-1.550 Z5.000 I-1.550 J0.000 F30000.000
G1 X0.000 Y-1.550 Z5.000 F30000.000
G2 X-1.550 Y0.000 Z5.000 I0.000 J1.550 F30000.000
G1 X-1.550 Y243.766 Z5.000 F30000.000
G1 X-1.550 Y245.146 Z6.380 F27000.000
G1 X-1.550 Y354.854 Z6.380 F30000.000
G1 X-1.550 Y356.234 Z5.000 F27000.000
G1 X-1.550 Y843.766 Z5.000 F30000.000
G1 X-1.550 Y845.146 Z6.380 F27000.000
G1 X-1.550 Y954.854 Z6.380 F30000.000
G1 X-1.550 Y956.234 Z5.000 F27000.000
G1 X-1.550 Y1200.000 Z5.000 F30000.000
G2 X0.000 Y1201.550 Z5.000 I1.550 J0.000 F30000.000
G1 X160.000 Y1201.550 Z5.000 F30000.000
G2 X161.096 Y1201.096 Z5.000 I0.000 J-1.550 F30000.000
G1 X161.096 Y1201.096 Z4.500 F24000.000
G2 X161.550 Y1200.000 Z4.500 I-1.096 J-1.096 F30000.000
G1 X161.550 Y956.734 Z4.500 F30000.000
G1 X161.550 Y954.854 Z6.380 F27000.000
G1 X161.550 Y845.146 Z6.380 F30000.000
G1 X161.550 Y843.266 Z4.500 F27000.000
G1 X161.550 Y356.734 Z4.500 F30000.000
G1 X161.550 Y354.854 Z6.380 F27000.000
G1 X161.550 Y245.146 Z6.380 F30000.000
G1 X161.550 Y243.266 Z4.500 F27000.000
G1 X161.550 Y0.000 Z4.500 F30000.000
G2 X160.000 Y-1.550 Z4.500 I-1.550 J0.000 F30000.000
G1 X0.000 Y-1.550 Z4.500 F30000.000
G2 X-1.550 Y0.000 Z4.500 I0.000 J1.550 F30000.000
G1 X-1.550 Y243.266 Z4.500 F30000.000
G1 X-1.550 Y245.146 Z6.380 F27000.000
G1 X-1.550 Y354.854 Z6.380 F30000.000
G1 X-1.550 Y356.734 Z4.500 F27000.000
G1 X-1.550 Y843.266 Z4.500 F30000.000
G1 X-1.550 Y845.146 Z6.380 F27000.000
G1 X-1.550 Y954.854 Z6.380 F30000.000
G1 X-1.550 Y956.734 Z4.500 F27000.000
G1 X-1.550 Y1200.000 Z4.500 F30000.000
G2 X0.000 Y1201.550 Z4.500 I1.550 J0.000 F30000.000
G1 X160.000 Y1201.550 Z4.500 F30000.000
G2 X161.096 Y1201.096 Z4.500 I0.000 J-1.550 F30000.000
G1 X161.096 Y1201.096 Z4.000 F24000.000
G2 X161.550 Y1200.000 Z4.000 I-1.096 J-1.096 F30000.000
G1 X161.550 Y957.234 Z4.000 F30000.000
G1 X161.550 Y954.854 Z6.380 F27000.000
G1 X161.550 Y845.146 Z6.380 F30000.000
G1 X161.550 Y842.766 Z4.000 F27000.000
G1 X161.550 Y357.234 Z4.000 F30000.000
G1 X161.550 Y354.854 Z6.380 F27000.000
G1 X161.550 Y245.146 Z6.380 F30000.000
G1 X161.550 Y242.766 Z4.000 F27000.000
G1 X161.550 Y0.000 Z4.000 F30000.000
G2 X160.000 Y-1.550 Z4.000 I-1.550 J0.000 F30000.000
G1 X0.000 Y-1.550 Z4.000 F30000.000
G2 X-1.550 Y0.000 Z4.000 I0.000 J1.550 F30000.000
G1 X-1.550 Y242.766 Z4.000 F30000.000
G1 X-1.550 Y245.146 Z6.380 F27000.000
G1 X-1.550 Y354.854 Z6.380 F30000.000
G1 X-1.550 Y357.234 Z4.000 F27000.000
G1 X-1.550 Y842.766 Z4.000 F30000.000
G1 X-1.550 Y845.146 Z6.380 F27000.000
G1 X-1.550 Y954.854 Z6.380 F30000.000
G1 X-1.550 Y957.234 Z4.000 F27000.000
G1 X-1.550 Y1200.000 Z4.000 F30000.000
G2 X0.000 Y1201.550 Z4.000 I1.550 J0.000 F30000.000
G1 X160.000 Y1201.550 Z4.000 F30000.000
G2 X161.096 Y1201.096 Z4.000 I0.000 J-1.550 F30000.000
G1 X161.096 Y1201.096 Z3.500 F24000.000
G2 X161.550 Y1200.000 Z3.500 I-1.096 J-1.096 F30000.000
G1 X161.550 Y957.734 Z3.500 F30000.000
G1 X161.550 Y954.854 Z6.380 F27000.000
G1 X161.550 Y845.146 Z6.380 F30000.000
G1 X161.550 Y842.266 Z3.500 F27000.000
G1 X161.550 Y357.734 Z3.500 F30000.000
G1 X161.550 Y354.854 Z6.380 F27000.000
G1 X161.550 Y245.146 Z6.380 F30000.000
G1 X161.550 Y242.266 Z3.500 F27000.000
G1 X161.550 Y0.000 Z3.500 F30000.000
G2 X160.000 Y-1.550 Z3.500 I-1.550 J0.000 F30000.000
G1 X0.000 Y-1.550 Z3.500 F30000.000
G2 X-1.550 Y0.000 Z3.500 I0.000 J1.550 F30000.000
G1 X-1.550 Y242.266 Z3.500 F30000.000
G1 X-1.550 Y245.146 Z6.380 F27000.000
G1 X-1.550 Y354.854 Z6.380 F30000.000
G1 X-1.550 Y357.734 Z3.500 F27000.000
G1 X-1.550 Y842.266 Z3.500 F30000.000
G1 X-1.550 Y845.146 Z6.380 F27000.000
G1 X-1.550 Y954.854 Z6.380 F30000.000
G1 X-1.550 Y957.734 Z3.500 F27000.000
G1 X-1.550 Y1200.000 Z3.500 F30000.000
G2 X0.000 Y1201.550 Z3.500 I1.550 J0.000 F30000.000
G1 X160.000 Y1201.550 Z3.500 F30000.000
G2 X161.096 Y1201.096 Z3.500 I0.000 J-1.550 F30000.000
G1 X161.096 Y1201.096 Z3.000 F24000.000
G2 X161.550 Y1200.000 Z3.000 I-1.096 J-1.096 F30000.000
G1 X161.550 Y958.234 Z3.000 F30000.000
G1 X161.550 Y954.854 Z6.380 F27000.000
G1 X161.550 Y845.146 Z6.380 F30000.000
G1 X161.550 Y841.766 Z3.000 F27000.000
G1 X161.550 Y358.234 Z3.000 F30000.000
G1 X161.550 Y354.854 Z6.380 F27000.000
G1 X161.550 Y245.146 Z6.380 F30000.000
G1 X161.550 Y241.766 Z3.000 F27000.000
G1 X161.550 Y0.000 Z3.000 F30000.000
G2 X160.000 Y-1.550 Z3.000 I-1.550 J0.000 F30000.000
G1 X0.000 Y-1.550 Z3.000 F30000.000
G2 X-1.550 Y0.000 Z3.000 I0.000 J1.550 F30000.000
G1 X-1.550 Y241.766 Z3.000 F30000.000
G1 X-1.550 Y245.146 Z6.380 F27000.000
G1 X-1.550 Y354.854 Z6.380 F30000.000
G1 X-1.550 Y358.234 Z3.000 F27000.000
G1 X-1.550 Y841.766 Z3.000 F30000.000
G1 X-1.550 Y845.146 Z6.380 F27000.000
G1 X-1.550 Y954.854 Z6.380 F30000.000
G1 X-1.550 Y958.234 Z3.000 F27000.000
G1 X-1.550 Y1200.000 Z3.000 F30000.000
G2 X0.000 Y1201.550 Z3.000 I1.550 J0.000 F30000.000
G1 X160.000 Y1201.550 Z3.000 F30000.000
G2 X161.096 Y1201.096 Z3.000 I0.000 J-1.550 F30000.000
G1 X161.096 Y1201.096 Z2.500 F24000.000
G2 X161.550 Y1200.000 Z2.500 I-1.096 J-1.096 F30000.000
G1 X161.550 Y958.734 Z2.500 F30000.000
G1 X161.550 Y954.854 Z6.380 F27000.000
G1 X161.550 Y845.146 Z6.380 F30000.000
G1 X161.550 Y841.266 Z2.500 F27000.000
G1 X161.550 Y358.734 Z2.500 F30000.000
G1 X161.550 Y354.854 Z6.380 F27000.000
G1 X161.550 Y245.146 Z6.380 F30000.000
G1 X161.550 Y241.266 Z2.500 F27000.000
G1 X161.550 Y0.000 Z2.500 F30000.000
G2 X160.000 Y-1.550 Z2.500 I-1.550 J0.000 F30000.000
G1 X0.000 Y-1.550 Z2.500 F30000.000
G2 X-1.550 Y0.000 Z2.500 I0.000 J1.550 F30000.000
G1 X-1.550 Y241.266 Z2.500 F30000.000
G1 X-1.550 Y245.146 Z6.380 F27000.000
G1 X-1.550 Y354.854 Z6.380 F30000.000
G1 X-1.550 Y358.734 Z2.500 F27000.000
G1 X-1.550 Y841.266 Z2.500 F30000.000
G1 X-1.550 Y845.146 Z6.380 F27000.000
G1 X-1.550 Y954.854 Z6.380 F30000.000
G1 X-1.550 Y958.734 Z2.500 F27000.000
G1 X-1.550 Y1200.000 Z2.500 F30000.000
G2 X0.000 Y1201.550 Z2.500 I1.550 J0.000 F30000.000
G1 X160.000 Y1201.550 Z2.500 F30000.000
G2 X161.096 Y1201.096 Z2.500 I0.000 J-1.550 F30000.000
G1 X161.096 Y1201.096 Z2.000 F24000.000
G2 X161.550 Y1200.000 Z2.000 I-1.096 J-1.096 F30000.000
G1 X161.550 Y959.234 Z2.000 F30000.000
G1 X161.550 Y954.854 Z6.380 F27000.000
G1 X161.550 Y845.146 Z6.380 F30000.000
G1 X161.550 Y840.766 Z2.000 F27000.000
G1 X161.550 Y359.234 Z2.000 F30000.000
G1 X161.550 Y354.854 Z6.380 F27000.000
G1 X161.550 Y245.146 Z6.380 F30000.000
G1 X161.550 Y240.766 Z2.000 F27000.000
G1 X161.550 Y0.000 Z2.000 F30000.000
G2 X160.000 Y-1.550 Z2.000 I-1.550 J0.000 F30000.000
G1 X0.000 Y-1.550 Z2.000 F30000.000
G2 X-1.550 Y0.000 Z2.000 I0.000 J1.550 F30000.000
G1 X-1.550 Y240.766 Z2.000 F30000.000
G1 X-1.550 Y245.146 Z6.380 F27000.000
G1 X-1.550 Y354.854 Z6.380 F30000.000
G1 X-1.550 Y359.234 Z2.000 F27000.000
G1 X-1.550 Y840.766 Z2.000 F30000.000
G1 X-1.550 Y845.146 Z6.380 F27000.000
G1 X-1.550 Y954.854 Z6.380 F30000.000
G1 X-1.550 Y959.234 Z2.000 F27000.000
G1 X-1.550 Y1200.000 Z2.000 F30000.000
G2 X0.000 Y1201.550 Z2.000 I1.550 J0.000 F30000.000
G1 X160.000 Y1201.550 Z2.000 F30000.000
G2 X161.096 Y1201.096 Z2.000 I0.000 J-1.550 F30000.000
G1 X161.096 Y1201.096 Z1.500 F24000.000
G2 X161.550 Y1200.000 Z1.500 I-1.096 J-1.096 F30000.000
G1 X161.550 Y959.734 Z1.500 F30000.000
G1 X161.550 Y954.854 Z6.380 F27000.000
G1 X161.550 Y845.146 Z6.380 F30000.000
G1 X161.550 Y840.266 Z1.500 F27000.000
G1 X161.550 Y359.734 Z1.500 F30000.000
G1 X161.550 Y354.854 Z6.380 F27000.000
G1 X161.550 Y245.146 Z6.380 F30000.000
G1 X161.550 Y240.266 Z1.500 F27000.000
G1 X161.550 Y0.000 Z1.500 F30000.000
G2 X160.000 Y-1.550 Z1.500 I-1.550 J0.000 F30000.000
G1 X0.000 Y-1.550 Z1.500 F30000.000
G2 X-1.550 Y0.000 Z1.500 I0.000 J1.550 F30000.000
G1 X-1.550 Y240.266 Z1.500 F30000.000
G1 X-1.550 Y245.146 Z6.380 F27000.000
G1 X-1.550 Y354.854 Z6.380 F30000.000
G1 X-1.550 Y359.734 Z1.500 F27000.000
G1 X-1.550 Y840.266 Z1.500 F30000.000
G1 X-1.550 Y845.146 Z6.380 F27000.000
G1 X-1.550 Y954.854 Z6.380 F30000.000
G1 X-1.550 Y959.734 Z1.500 F27000.000
G1 X-1.550 Y1200.000 Z1.500 F30000.000
G2 X0.000 Y1201.550 Z1.500 I1.550 J0.000 F30000.000
G1 X160.000 Y1201.550 Z1.500 F30000.000
G2 X161.096 Y1201.096 Z1.500 I0.000 J-1.550 F30000.000
G1 X161.096 Y1201.096 Z1.000 F24000.000
G2 X161.550 Y1200.000 Z1.000 I-1.096 J-1.096 F30000.000
G1 X161.550 Y960.234 Z1.000 F30000.000
G1 X161.550 Y954.854 Z6.380 F27000.000
G1 X161.550 Y845.146 Z6.380 F30000.000
G1 X161.550 Y839.766 Z1.000 F27000.000
G1 X161.550 Y360.234 Z1.000 F30000.000
G1 X161.550 Y354.854 Z6.380 F27000.000
G1 X161.550 Y245.146 Z6.380 F30000.000
G1 X161.550 Y239.766 Z1.000 F27000.000
G1 X161.550 Y0.000 Z1.000 F30000.000
G2 X160.000 Y-1.550 Z1.000 I-1.550 J0.000 F30000.000
G1 X0.000 Y-1.550 Z1.000 F30000.000
G2 X-1.550 Y0.000 Z1.000 I0.000 J1.550 F30000.000
G1 X-1.550 Y239.766 Z1.000 F30000.000
G1 X-1.550 Y245.146 Z6.380 F27000.000
G1 X-1.550 Y354.854 Z6.380 F30000.000
G1 X-1.550 Y360.234 Z1.000 F27000.000
G1 X-1.550 Y839.766 Z1.000 F30000.000
G1 X-1.550 Y845.146 Z6.380 F27000.000
G1 X-1.550 Y954.854 Z6.380 F30000.000
G1 X-1.550 Y960.234 Z1.000 F27000.000
G1 X-1.550 Y1200.000 Z1.000 F30000.000
G2 X0.000 Y1201.550 Z1.000 I1.550 J0.000 F30000.000
G1 X160.000 Y1201.550 Z1.000 F30000.000
G2 X161.096 Y1201.096 Z1.000 I0.000 J-1.550 F30000.000
G1 X161.096 Y1201.096 Z0.500 F24000.000
G2 X161.550 Y1200.000 Z0.500 I-1.096 J-1.096 F30000.000
G1 X161.550 Y960.734 Z0.500 F30000.000
G1 X161.550 Y954.854 Z6.380 F27000.000
G1 X161.550 Y845.146 Z6.380 F30000.000
G1 X161.550 Y839.266 Z0.500 F27000.000
G1 X161.550 Y360.734 Z0.500 F30000.000
G1 X161.550 Y354.854 Z6.380 F27000.000
G1 X161.550 Y245.146 Z6.380 F30000.000
G1 X161.550 Y239.266 Z0.500 F27000.000
G1 X161.550 Y0.000 Z0.500 F30000.000
G2 X160.000 Y-1.550 Z0.500 I-1.550 J0.000 F30000.000
G1 X0.000 Y-1.550 Z0.500 F30000.000
G2 X-1.550 Y0.000 Z0.500 I0.000 J1.550 F30000.000
G1 X-1.550 Y239.266 Z0.500 F30000.000
G1 X-1.550 Y245.146 Z6.380 F27000.000
G1 X-1.550 Y354.854 Z6.380 F30000.000
G1 X-1.550 Y360.734 Z0.500 F27000.000
G1 X-1.550 Y839.266 Z0.500 F30000.000
G1 X-1.550 Y845.146 Z6.380 F27000.000
G1 X-1.550 Y954.854 Z6.380 F30000.000
G1 X-1.550 Y960.734 Z0.500 F27000.000
G1 X-1.550 Y1200.000 Z0.500 F30000.000
G2 X0.000 Y1201.550 Z0.500 I1.550 J0.000 F30000.000
G1 X160.000 Y1201.550 Z0.500 F30000.000
G2 X161.096 Y1201.096 Z0.500 I0.000 J-1.550 F30000.000
G1 X161.096 Y1201.096 Z0.000 F24000.000
G2 X161.550 Y1200.000 Z0.000 I-1.096 J-1.096 F30000.000
G1 X161.550 Y961.234 Z0.000 F30000.000
G1 X161.550 Y954.854 Z6.380 F27000.000
G1 X161.550 Y845.146 Z6.380 F30000.000
G1 X161.550 Y838.766 Z0.000 F27000.000
G1 X161.550 Y361.234 Z0.000 F30000.000
G1 X161.550 Y354.854 Z6.380 F27000.000
G1 X161.550 Y245.146 Z6.380 F30000.000
G1 X161.550 Y238.766 Z0.000 F27000.000
G1 X161.550 Y0.000 Z0.000 F30000.000
G2 X160.000 Y-1.550 Z0.000 I-1.550 J0.000 F30000.000
G1 X0.000 Y-1.550 Z0.000 F30000.000
G2 X-1.550 Y0.000 Z0.000 I0.000 J1.550 F30000.000
G1 X-1.550 Y238.766 Z0.000 F30000.000
G1 X-1.550 Y245.146 Z6.380 F27000.000
G1 X-1.550 Y354.854 Z6.380 F30000.000
G1 X-1.550 Y361.234 Z0.000 F27000.000
G1 X-1.550 Y838.766 Z0.000 F30000.000
G1 X-1.550 Y845.146 Z6.380 F27000.000
G1 X-1.550 Y954.854 Z6.380 F30000.000
G1 X-1.550 Y961.234 Z0.000 F27000.000
G1 X-1.550 Y1200.000 Z0.000 F30000.000
G2 X0.000 Y1201.550 Z0.000 I1.550 J0.000 F30000.000
G1 X160.000 Y1201.550 Z0.000 F30000.000
G2 X161.096 Y1201.096 Z0.000 I0.000 J-1.550 F30000.000
G1 X161.096 Y1201.096 Z-0.250 F24000.000
G2 X161.550 Y1200.000 Z-0.250 I-1.096 J-1.096 F30000.000
G1 X161.550 Y961.484 Z-0.250 F30000.000
G1 X161.550 Y954.854 Z6.380 F27000.000
G1 X161.550 Y845.146 Z6.380 F30000.000
G1 X161.550 Y838.516 Z-0.250 F27000.000
G1 X161.550 Y361.484 Z-0.250 F30000.000
G1 X161.550 Y354.854 Z6.380 F27000.000
G1 X161.550 Y245.146 Z6.380 F30000.000
G1 X161.550 Y238.516 Z-0.250 F27000.000
G1 X161.550 Y0.000 Z-0.250 F30000.000
G2 X160.000 Y-1.550 Z-0.250 I-1.550 J0.000 F30000.000
G1 X0.000 Y-1.550 Z-0.250 F30000.000
G2 X-1.550 Y0.000 Z-0.250 I0.000 J1.550 F30000.000
G1 X-1.550 Y238.516 Z-0.250 F30000.000
G1 X-1.550 Y245.146 Z6.380 F27000.000
G1 X-1.550 Y354.854 Z6.380 F30000.000
G1 X-1.550 Y361.484 Z-0.250 F27000.000
G1 X-1.550 Y838.516 Z-0.250 F30000.000
G1 X-1.550 Y845.146 Z6.380 F27000.000
G1 X-1.550 Y954.854 Z6.380 F30000.000
G1 X-1.550 Y961.484 Z-0.250 F27000.000
G1 X-1.550 Y1200.000 Z-0.250 F30000.000
G2 X0.000 Y1201.550 Z-0.250 I1.550 J0.000 F30000.000
G1 X160.000 Y1201.550 Z-0.250 F30000.000
G2 X161.096 Y1201.096 Z-0.250 I0.000 J-1.550 F30000.000
G0 X161.096 Y1201.096 Z20.000
(finish operation: DressupTag)
(begin postamble)
M05 M09
G17 G90 G80 G40
M30
