(Exported by FreeCAD)
(Post Processor: KineticNCBeamicon2_post)
(Output Time:2024-09-03 16:31:52.013906)
(begin preamble)
%
G17 G21 G40 G49 G80 G90
M08
G21
(begin operation: Fixture)
(machine: not set, mm/min)
G54
(finish operation: Fixture)
(begin operation: 3.1)
(machine: not set, mm/min)
(3.1)
M05
M09M6 T1
M3 S25000
(finish operation: 3.1)
(begin operation: Holes)
(machine: not set, mm/min)
(Holes)
(Compensated Tool Path. Diameter: 3.1)
G0 Z20.000
G0 X-9.332 Y0.668
G0 Z18.000
G1 X-9.332 Y0.668 Z12.500 F24000.000
G2 X-9.677 Y-0.887 Z12.500 I-0.668 J-0.668 F30000.000
G2 X-10.323 Y0.887 Z12.500 I-0.323 J0.887 F30000.000
G2 X-9.332 Y0.668 Z12.500 I0.323 J-0.887 F30000.000
G1 X-9.332 Y0.668 Z12.000 F24000.000
G2 X-9.677 Y-0.887 Z12.000 I-0.668 J-0.668 F30000.000
G2 X-10.323 Y0.887 Z12.000 I-0.323 J0.887 F30000.000
G2 X-9.332 Y0.668 Z12.000 I0.323 J-0.887 F30000.000
G1 X-9.332 Y0.668 Z11.500 F24000.000
G2 X-9.677 Y-0.887 Z11.500 I-0.668 J-0.668 F30000.000
G2 X-10.323 Y0.887 Z11.500 I-0.323 J0.887 F30000.000
G2 X-9.332 Y0.668 Z11.500 I0.323 J-0.887 F30000.000
G1 X-9.332 Y0.668 Z11.000 F24000.000
G2 X-9.677 Y-0.887 Z11.000 I-0.668 J-0.668 F30000.000
G2 X-10.323 Y0.887 Z11.000 I-0.323 J0.887 F30000.000
G2 X-9.332 Y0.668 Z11.000 I0.323 J-0.887 F30000.000
G1 X-9.332 Y0.668 Z10.500 F24000.000
G2 X-9.677 Y-0.887 Z10.500 I-0.668 J-0.668 F30000.000
G2 X-10.323 Y0.887 Z10.500 I-0.323 J0.887 F30000.000
G2 X-9.332 Y0.668 Z10.500 I0.323 J-0.887 F30000.000
G1 X-9.332 Y0.668 Z10.000 F24000.000
G2 X-9.677 Y-0.887 Z10.000 I-0.668 J-0.668 F30000.000
G2 X-10.323 Y0.887 Z10.000 I-0.323 J0.887 F30000.000
G2 X-9.332 Y0.668 Z10.000 I0.323 J-0.887 F30000.000
G1 X-9.332 Y0.668 Z9.500 F24000.000
G2 X-9.677 Y-0.887 Z9.500 I-0.668 J-0.668 F30000.000
G2 X-10.323 Y0.887 Z9.500 I-0.323 J0.887 F30000.000
G2 X-9.332 Y0.668 Z9.500 I0.323 J-0.887 F30000.000
G1 X-9.332 Y0.668 Z9.000 F24000.000
G2 X-9.677 Y-0.887 Z9.000 I-0.668 J-0.668 F30000.000
G2 X-10.323 Y0.887 Z9.000 I-0.323 J0.887 F30000.000
G2 X-9.332 Y0.668 Z9.000 I0.323 J-0.887 F30000.000
G1 X-9.332 Y0.668 Z8.500 F24000.000
G2 X-9.677 Y-0.887 Z8.500 I-0.668 J-0.668 F30000.000
G2 X-10.323 Y0.887 Z8.500 I-0.323 J0.887 F30000.000
G2 X-9.332 Y0.668 Z8.500 I0.323 J-0.887 F30000.000
G1 X-9.332 Y0.668 Z8.000 F24000.000
G2 X-9.677 Y-0.887 Z8.000 I-0.668 J-0.668 F30000.000
G2 X-10.323 Y0.887 Z8.000 I-0.323 J0.887 F30000.000
G2 X-9.332 Y0.668 Z8.000 I0.323 J-0.887 F30000.000
G1 X-9.332 Y0.668 Z7.500 F24000.000
G2 X-9.677 Y-0.887 Z7.500 I-0.668 J-0.668 F30000.000
G2 X-10.323 Y0.887 Z7.500 I-0.323 J0.887 F30000.000
G2 X-9.332 Y0.668 Z7.500 I0.323 J-0.887 F30000.000
G1 X-9.332 Y0.668 Z7.000 F24000.000
G2 X-9.677 Y-0.887 Z7.000 I-0.668 J-0.668 F30000.000
G2 X-10.323 Y0.887 Z7.000 I-0.323 J0.887 F30000.000
G2 X-9.332 Y0.668 Z7.000 I0.323 J-0.887 F30000.000
G1 X-9.332 Y0.668 Z6.500 F24000.000
G2 X-9.677 Y-0.887 Z6.500 I-0.668 J-0.668 F30000.000
G2 X-10.323 Y0.887 Z6.500 I-0.323 J0.887 F30000.000
G2 X-9.332 Y0.668 Z6.500 I0.323 J-0.887 F30000.000
G1 X-9.332 Y0.668 Z6.000 F24000.000
G2 X-9.677 Y-0.887 Z6.000 I-0.668 J-0.668 F30000.000
G2 X-10.323 Y0.887 Z6.000 I-0.323 J0.887 F30000.000
G2 X-9.332 Y0.668 Z6.000 I0.323 J-0.887 F30000.000
G1 X-9.332 Y0.668 Z5.500 F24000.000
G2 X-9.677 Y-0.887 Z5.500 I-0.668 J-0.668 F30000.000
G2 X-10.323 Y0.887 Z5.500 I-0.323 J0.887 F30000.000
G2 X-9.332 Y0.668 Z5.500 I0.323 J-0.887 F30000.000
G1 X-9.332 Y0.668 Z5.000 F24000.000
G2 X-9.677 Y-0.887 Z5.000 I-0.668 J-0.668 F30000.000
G2 X-10.323 Y0.887 Z5.000 I-0.323 J0.887 F30000.000
G2 X-9.332 Y0.668 Z5.000 I0.323 J-0.887 F30000.000
G1 X-9.332 Y0.668 Z4.500 F24000.000
G2 X-9.677 Y-0.887 Z4.500 I-0.668 J-0.668 F30000.000
G2 X-10.323 Y0.887 Z4.500 I-0.323 J0.887 F30000.000
G2 X-9.332 Y0.668 Z4.500 I0.323 J-0.887 F30000.000
G1 X-9.332 Y0.668 Z4.000 F24000.000
G2 X-9.677 Y-0.887 Z4.000 I-0.668 J-0.668 F30000.000
G2 X-10.323 Y0.887 Z4.000 I-0.323 J0.887 F30000.000
G2 X-9.332 Y0.668 Z4.000 I0.323 J-0.887 F30000.000
G1 X-9.332 Y0.668 Z3.500 F24000.000
G2 X-9.677 Y-0.887 Z3.500 I-0.668 J-0.668 F30000.000
G2 X-10.323 Y0.887 Z3.500 I-0.323 J0.887 F30000.000
G2 X-9.332 Y0.668 Z3.500 I0.323 J-0.887 F30000.000
G1 X-9.332 Y0.668 Z3.000 F24000.000
G2 X-9.677 Y-0.887 Z3.000 I-0.668 J-0.668 F30000.000
G2 X-10.323 Y0.887 Z3.000 I-0.323 J0.887 F30000.000
G2 X-9.332 Y0.668 Z3.000 I0.323 J-0.887 F30000.000
G1 X-9.332 Y0.668 Z2.500 F24000.000
G2 X-9.677 Y-0.887 Z2.500 I-0.668 J-0.668 F30000.000
G2 X-10.323 Y0.887 Z2.500 I-0.323 J0.887 F30000.000
G2 X-9.332 Y0.668 Z2.500 I0.323 J-0.887 F30000.000
G1 X-9.332 Y0.668 Z2.000 F24000.000
G2 X-9.677 Y-0.887 Z2.000 I-0.668 J-0.668 F30000.000
G2 X-10.323 Y0.887 Z2.000 I-0.323 J0.887 F30000.000
G2 X-9.332 Y0.668 Z2.000 I0.323 J-0.887 F30000.000
G1 X-9.332 Y0.668 Z1.500 F24000.000
G2 X-9.677 Y-0.887 Z1.500 I-0.668 J-0.668 F30000.000
G2 X-10.323 Y0.887 Z1.500 I-0.323 J0.887 F30000.000
G2 X-9.332 Y0.668 Z1.500 I0.323 J-0.887 F30000.000
G1 X-9.332 Y0.668 Z1.000 F24000.000
G2 X-9.677 Y-0.887 Z1.000 I-0.668 J-0.668 F30000.000
G2 X-10.323 Y0.887 Z1.000 I-0.323 J0.887 F30000.000
G2 X-9.332 Y0.668 Z1.000 I0.323 J-0.887 F30000.000
G1 X-9.332 Y0.668 Z0.500 F24000.000
G2 X-9.677 Y-0.887 Z0.500 I-0.668 J-0.668 F30000.000
G2 X-10.323 Y0.887 Z0.500 I-0.323 J0.887 F30000.000
G2 X-9.332 Y0.668 Z0.500 I0.323 J-0.887 F30000.000
G1 X-9.332 Y0.668 Z0.000 F24000.000
G2 X-9.677 Y-0.887 Z0.000 I-0.668 J-0.668 F30000.000
G2 X-10.323 Y0.887 Z0.000 I-0.323 J0.887 F30000.000
G2 X-9.332 Y0.668 Z0.000 I0.323 J-0.887 F30000.000
G1 X-9.332 Y0.668 Z-0.250 F24000.000
G2 X-9.677 Y-0.887 Z-0.250 I-0.668 J-0.668 F30000.000
G2 X-10.323 Y0.887 Z-0.250 I-0.323 J0.887 F30000.000
G2 X-9.332 Y0.668 Z-0.250 I0.323 J-0.887 F30000.000
G0 Z20.000
G0 Z20.000
G0 X-9.332 Y0.668
G0 X9.056 Y0.033
G0 X9.056 Y0.033 Z18.000
G1 X9.056 Y0.033 Z12.500 F24000.000
G2 X9.677 Y0.887 Z12.500 I0.944 J-0.033 F30000.000
G2 X10.887 Y0.323 Z12.500 I0.323 J-0.887 F30000.000
G2 X10.323 Y-0.887 Z12.500 I-0.887 J-0.323 F30000.000
G2 X9.056 Y0.033 Z12.500 I-0.323 J0.887 F30000.000
G1 X9.056 Y0.033 Z12.000 F24000.000
G2 X9.677 Y0.887 Z12.000 I0.944 J-0.033 F30000.000
G2 X10.887 Y0.323 Z12.000 I0.323 J-0.887 F30000.000
G2 X10.323 Y-0.887 Z12.000 I-0.887 J-0.323 F30000.000
G2 X9.056 Y0.033 Z12.000 I-0.323 J0.887 F30000.000
G1 X9.056 Y0.033 Z11.500 F24000.000
G2 X9.677 Y0.887 Z11.500 I0.944 J-0.033 F30000.000
G2 X10.887 Y0.323 Z11.500 I0.323 J-0.887 F30000.000
G2 X10.323 Y-0.887 Z11.500 I-0.887 J-0.323 F30000.000
G2 X9.056 Y0.033 Z11.500 I-0.323 J0.887 F30000.000
G1 X9.056 Y0.033 Z11.000 F24000.000
G2 X9.677 Y0.887 Z11.000 I0.944 J-0.033 F30000.000
G2 X10.887 Y0.323 Z11.000 I0.323 J-0.887 F30000.000
G2 X10.323 Y-0.887 Z11.000 I-0.887 J-0.323 F30000.000
G2 X9.056 Y0.033 Z11.000 I-0.323 J0.887 F30000.000
G1 X9.056 Y0.033 Z10.500 F24000.000
G2 X9.677 Y0.887 Z10.500 I0.944 J-0.033 F30000.000
G2 X10.887 Y0.323 Z10.500 I0.323 J-0.887 F30000.000
G2 X10.323 Y-0.887 Z10.500 I-0.887 J-0.323 F30000.000
G2 X9.056 Y0.033 Z10.500 I-0.323 J0.887 F30000.000
G1 X9.056 Y0.033 Z10.000 F24000.000
G2 X9.677 Y0.887 Z10.000 I0.944 J-0.033 F30000.000
G2 X10.887 Y0.323 Z10.000 I0.323 J-0.887 F30000.000
G2 X10.323 Y-0.887 Z10.000 I-0.887 J-0.323 F30000.000
G2 X9.056 Y0.033 Z10.000 I-0.323 J0.887 F30000.000
G1 X9.056 Y0.033 Z9.500 F24000.000
G2 X9.677 Y0.887 Z9.500 I0.944 J-0.033 F30000.000
G2 X10.887 Y0.323 Z9.500 I0.323 J-0.887 F30000.000
G2 X10.323 Y-0.887 Z9.500 I-0.887 J-0.323 F30000.000
G2 X9.056 Y0.033 Z9.500 I-0.323 J0.887 F30000.000
G1 X9.056 Y0.033 Z9.000 F24000.000
G2 X9.677 Y0.887 Z9.000 I0.944 J-0.033 F30000.000
G2 X10.887 Y0.323 Z9.000 I0.323 J-0.887 F30000.000
G2 X10.323 Y-0.887 Z9.000 I-0.887 J-0.323 F30000.000
G2 X9.056 Y0.033 Z9.000 I-0.323 J0.887 F30000.000
G1 X9.056 Y0.033 Z8.500 F24000.000
G2 X9.677 Y0.887 Z8.500 I0.944 J-0.033 F30000.000
G2 X10.887 Y0.323 Z8.500 I0.323 J-0.887 F30000.000
G2 X10.323 Y-0.887 Z8.500 I-0.887 J-0.323 F30000.000
G2 X9.056 Y0.033 Z8.500 I-0.323 J0.887 F30000.000
G1 X9.056 Y0.033 Z8.000 F24000.000
G2 X9.677 Y0.887 Z8.000 I0.944 J-0.033 F30000.000
G2 X10.887 Y0.323 Z8.000 I0.323 J-0.887 F30000.000
G2 X10.323 Y-0.887 Z8.000 I-0.887 J-0.323 F30000.000
G2 X9.056 Y0.033 Z8.000 I-0.323 J0.887 F30000.000
G1 X9.056 Y0.033 Z7.500 F24000.000
G2 X9.677 Y0.887 Z7.500 I0.944 J-0.033 F30000.000
G2 X10.887 Y0.323 Z7.500 I0.323 J-0.887 F30000.000
G2 X10.323 Y-0.887 Z7.500 I-0.887 J-0.323 F30000.000
G2 X9.056 Y0.033 Z7.500 I-0.323 J0.887 F30000.000
G1 X9.056 Y0.033 Z7.000 F24000.000
G2 X9.677 Y0.887 Z7.000 I0.944 J-0.033 F30000.000
G2 X10.887 Y0.323 Z7.000 I0.323 J-0.887 F30000.000
G2 X10.323 Y-0.887 Z7.000 I-0.887 J-0.323 F30000.000
G2 X9.056 Y0.033 Z7.000 I-0.323 J0.887 F30000.000
G1 X9.056 Y0.033 Z6.500 F24000.000
G2 X9.677 Y0.887 Z6.500 I0.944 J-0.033 F30000.000
G2 X10.887 Y0.323 Z6.500 I0.323 J-0.887 F30000.000
G2 X10.323 Y-0.887 Z6.500 I-0.887 J-0.323 F30000.000
G2 X9.056 Y0.033 Z6.500 I-0.323 J0.887 F30000.000
G1 X9.056 Y0.033 Z6.000 F24000.000
G2 X9.677 Y0.887 Z6.000 I0.944 J-0.033 F30000.000
G2 X10.887 Y0.323 Z6.000 I0.323 J-0.887 F30000.000
G2 X10.323 Y-0.887 Z6.000 I-0.887 J-0.323 F30000.000
G2 X9.056 Y0.033 Z6.000 I-0.323 J0.887 F30000.000
G1 X9.056 Y0.033 Z5.500 F24000.000
G2 X9.677 Y0.887 Z5.500 I0.944 J-0.033 F30000.000
G2 X10.887 Y0.323 Z5.500 I0.323 J-0.887 F30000.000
G2 X10.323 Y-0.887 Z5.500 I-0.887 J-0.323 F30000.000
G2 X9.056 Y0.033 Z5.500 I-0.323 J0.887 F30000.000
G1 X9.056 Y0.033 Z5.000 F24000.000
G2 X9.677 Y0.887 Z5.000 I0.944 J-0.033 F30000.000
G2 X10.887 Y0.323 Z5.000 I0.323 J-0.887 F30000.000
G2 X10.323 Y-0.887 Z5.000 I-0.887 J-0.323 F30000.000
G2 X9.056 Y0.033 Z5.000 I-0.323 J0.887 F30000.000
G1 X9.056 Y0.033 Z4.500 F24000.000
G2 X9.677 Y0.887 Z4.500 I0.944 J-0.033 F30000.000
G2 X10.887 Y0.323 Z4.500 I0.323 J-0.887 F30000.000
G2 X10.323 Y-0.887 Z4.500 I-0.887 J-0.323 F30000.000
G2 X9.056 Y0.033 Z4.500 I-0.323 J0.887 F30000.000
G1 X9.056 Y0.033 Z4.000 F24000.000
G2 X9.677 Y0.887 Z4.000 I0.944 J-0.033 F30000.000
G2 X10.887 Y0.323 Z4.000 I0.323 J-0.887 F30000.000
G2 X10.323 Y-0.887 Z4.000 I-0.887 J-0.323 F30000.000
G2 X9.056 Y0.033 Z4.000 I-0.323 J0.887 F30000.000
G1 X9.056 Y0.033 Z3.500 F24000.000
G2 X9.677 Y0.887 Z3.500 I0.944 J-0.033 F30000.000
G2 X10.887 Y0.323 Z3.500 I0.323 J-0.887 F30000.000
G2 X10.323 Y-0.887 Z3.500 I-0.887 J-0.323 F30000.000
G2 X9.056 Y0.033 Z3.500 I-0.323 J0.887 F30000.000
G1 X9.056 Y0.033 Z3.000 F24000.000
G2 X9.677 Y0.887 Z3.000 I0.944 J-0.033 F30000.000
G2 X10.887 Y0.323 Z3.000 I0.323 J-0.887 F30000.000
G2 X10.323 Y-0.887 Z3.000 I-0.887 J-0.323 F30000.000
G2 X9.056 Y0.033 Z3.000 I-0.323 J0.887 F30000.000
G1 X9.056 Y0.033 Z2.500 F24000.000
G2 X9.677 Y0.887 Z2.500 I0.944 J-0.033 F30000.000
G2 X10.887 Y0.323 Z2.500 I0.323 J-0.887 F30000.000
G2 X10.323 Y-0.887 Z2.500 I-0.887 J-0.323 F30000.000
G2 X9.056 Y0.033 Z2.500 I-0.323 J0.887 F30000.000
G1 X9.056 Y0.033 Z2.000 F24000.000
G2 X9.677 Y0.887 Z2.000 I0.944 J-0.033 F30000.000
G2 X10.887 Y0.323 Z2.000 I0.323 J-0.887 F30000.000
G2 X10.323 Y-0.887 Z2.000 I-0.887 J-0.323 F30000.000
G2 X9.056 Y0.033 Z2.000 I-0.323 J0.887 F30000.000
G1 X9.056 Y0.033 Z1.500 F24000.000
G2 X9.677 Y0.887 Z1.500 I0.944 J-0.033 F30000.000
G2 X10.887 Y0.323 Z1.500 I0.323 J-0.887 F30000.000
G2 X10.323 Y-0.887 Z1.500 I-0.887 J-0.323 F30000.000
G2 X9.056 Y0.033 Z1.500 I-0.323 J0.887 F30000.000
G1 X9.056 Y0.033 Z1.000 F24000.000
G2 X9.677 Y0.887 Z1.000 I0.944 J-0.033 F30000.000
G2 X10.887 Y0.323 Z1.000 I0.323 J-0.887 F30000.000
G2 X10.323 Y-0.887 Z1.000 I-0.887 J-0.323 F30000.000
G2 X9.056 Y0.033 Z1.000 I-0.323 J0.887 F30000.000
G1 X9.056 Y0.033 Z0.500 F24000.000
G2 X9.677 Y0.887 Z0.500 I0.944 J-0.033 F30000.000
G2 X10.887 Y0.323 Z0.500 I0.323 J-0.887 F30000.000
G2 X10.323 Y-0.887 Z0.500 I-0.887 J-0.323 F30000.000
G2 X9.056 Y0.033 Z0.500 I-0.323 J0.887 F30000.000
G1 X9.056 Y0.033 Z0.000 F24000.000
G2 X9.677 Y0.887 Z0.000 I0.944 J-0.033 F30000.000
G2 X10.887 Y0.323 Z0.000 I0.323 J-0.887 F30000.000
G2 X10.323 Y-0.887 Z0.000 I-0.887 J-0.323 F30000.000
G2 X9.056 Y0.033 Z0.000 I-0.323 J0.887 F30000.000
G1 X9.056 Y0.033 Z-0.250 F24000.000
G2 X9.677 Y0.887 Z-0.250 I0.944 J-0.033 F30000.000
G2 X10.887 Y0.323 Z-0.250 I0.323 J-0.887 F30000.000
G2 X10.323 Y-0.887 Z-0.250 I-0.887 J-0.323 F30000.000
G2 X9.056 Y0.033 Z-0.250 I-0.323 J0.887 F30000.000
G0 Z20.000
G0 Z20.000
G0 X9.056 Y0.033
G0 X38.513 Y-31.445
G0 X38.513 Y-31.445 Z18.000
G1 X38.513 Y-31.445 Z12.500 F24000.000
G2 X39.053 Y-31.126 Z12.500 I0.987 J-1.055 F30000.000
G2 X40.874 Y-32.053 Z12.500 I0.447 J-1.374 F30000.000
G2 X39.947 Y-33.874 Z12.500 I-1.374 J-0.447 F30000.000
G2 X38.513 Y-31.445 Z12.500 I-0.447 J1.374 F30000.000
G1 X38.513 Y-31.445 Z12.000 F24000.000
G2 X39.053 Y-31.126 Z12.000 I0.987 J-1.055 F30000.000
G2 X40.874 Y-32.053 Z12.000 I0.447 J-1.374 F30000.000
G2 X39.947 Y-33.874 Z12.000 I-1.374 J-0.447 F30000.000
G2 X38.513 Y-31.445 Z12.000 I-0.447 J1.374 F30000.000
G1 X38.513 Y-31.445 Z11.500 F24000.000
G2 X39.053 Y-31.126 Z11.500 I0.987 J-1.055 F30000.000
G2 X40.874 Y-32.053 Z11.500 I0.447 J-1.374 F30000.000
G2 X39.947 Y-33.874 Z11.500 I-1.374 J-0.447 F30000.000
G2 X38.513 Y-31.445 Z11.500 I-0.447 J1.374 F30000.000
G1 X38.513 Y-31.445 Z11.000 F24000.000
G2 X39.053 Y-31.126 Z11.000 I0.987 J-1.055 F30000.000
G2 X40.874 Y-32.053 Z11.000 I0.447 J-1.374 F30000.000
G2 X39.947 Y-33.874 Z11.000 I-1.374 J-0.447 F30000.000
G2 X38.513 Y-31.445 Z11.000 I-0.447 J1.374 F30000.000
G1 X38.513 Y-31.445 Z10.500 F24000.000
G2 X39.053 Y-31.126 Z10.500 I0.987 J-1.055 F30000.000
G2 X40.874 Y-32.053 Z10.500 I0.447 J-1.374 F30000.000
G2 X39.947 Y-33.874 Z10.500 I-1.374 J-0.447 F30000.000
G2 X38.513 Y-31.445 Z10.500 I-0.447 J1.374 F30000.000
G1 X38.513 Y-31.445 Z10.000 F24000.000
G2 X39.053 Y-31.126 Z10.000 I0.987 J-1.055 F30000.000
G2 X40.874 Y-32.053 Z10.000 I0.447 J-1.374 F30000.000
G2 X39.947 Y-33.874 Z10.000 I-1.374 J-0.447 F30000.000
G2 X38.513 Y-31.445 Z10.000 I-0.447 J1.374 F30000.000
G1 X38.513 Y-31.445 Z9.500 F24000.000
G2 X39.053 Y-31.126 Z9.500 I0.987 J-1.055 F30000.000
G2 X40.874 Y-32.053 Z9.500 I0.447 J-1.374 F30000.000
G2 X39.947 Y-33.874 Z9.500 I-1.374 J-0.447 F30000.000
G2 X38.513 Y-31.445 Z9.500 I-0.447 J1.374 F30000.000
G1 X38.513 Y-31.445 Z9.000 F24000.000
G2 X39.053 Y-31.126 Z9.000 I0.987 J-1.055 F30000.000
G2 X40.874 Y-32.053 Z9.000 I0.447 J-1.374 F30000.000
G2 X39.947 Y-33.874 Z9.000 I-1.374 J-0.447 F30000.000
G2 X38.513 Y-31.445 Z9.000 I-0.447 J1.374 F30000.000
G1 X38.513 Y-31.445 Z8.500 F24000.000
G2 X39.053 Y-31.126 Z8.500 I0.987 J-1.055 F30000.000
G2 X40.874 Y-32.053 Z8.500 I0.447 J-1.374 F30000.000
G2 X39.947 Y-33.874 Z8.500 I-1.374 J-0.447 F30000.000
G2 X38.513 Y-31.445 Z8.500 I-0.447 J1.374 F30000.000
G1 X38.513 Y-31.445 Z8.000 F24000.000
G2 X39.053 Y-31.126 Z8.000 I0.987 J-1.055 F30000.000
G2 X40.874 Y-32.053 Z8.000 I0.447 J-1.374 F30000.000
G2 X39.947 Y-33.874 Z8.000 I-1.374 J-0.447 F30000.000
G2 X38.513 Y-31.445 Z8.000 I-0.447 J1.374 F30000.000
G1 X38.513 Y-31.445 Z7.500 F24000.000
G2 X39.053 Y-31.126 Z7.500 I0.987 J-1.055 F30000.000
G2 X40.874 Y-32.053 Z7.500 I0.447 J-1.374 F30000.000
G2 X39.947 Y-33.874 Z7.500 I-1.374 J-0.447 F30000.000
G2 X38.513 Y-31.445 Z7.500 I-0.447 J1.374 F30000.000
G1 X38.513 Y-31.445 Z7.000 F24000.000
G2 X39.053 Y-31.126 Z7.000 I0.987 J-1.055 F30000.000
G2 X40.874 Y-32.053 Z7.000 I0.447 J-1.374 F30000.000
G2 X39.947 Y-33.874 Z7.000 I-1.374 J-0.447 F30000.000
G2 X38.513 Y-31.445 Z7.000 I-0.447 J1.374 F30000.000
G1 X38.513 Y-31.445 Z6.500 F24000.000
G2 X39.053 Y-31.126 Z6.500 I0.987 J-1.055 F30000.000
G2 X40.874 Y-32.053 Z6.500 I0.447 J-1.374 F30000.000
G2 X39.947 Y-33.874 Z6.500 I-1.374 J-0.447 F30000.000
G2 X38.513 Y-31.445 Z6.500 I-0.447 J1.374 F30000.000
G1 X38.513 Y-31.445 Z6.000 F24000.000
G2 X39.053 Y-31.126 Z6.000 I0.987 J-1.055 F30000.000
G2 X40.874 Y-32.053 Z6.000 I0.447 J-1.374 F30000.000
G2 X39.947 Y-33.874 Z6.000 I-1.374 J-0.447 F30000.000
G2 X38.513 Y-31.445 Z6.000 I-0.447 J1.374 F30000.000
G1 X38.513 Y-31.445 Z5.500 F24000.000
G2 X39.053 Y-31.126 Z5.500 I0.987 J-1.055 F30000.000
G2 X40.874 Y-32.053 Z5.500 I0.447 J-1.374 F30000.000
G2 X39.947 Y-33.874 Z5.500 I-1.374 J-0.447 F30000.000
G2 X38.513 Y-31.445 Z5.500 I-0.447 J1.374 F30000.000
G1 X38.513 Y-31.445 Z5.000 F24000.000
G2 X39.053 Y-31.126 Z5.000 I0.987 J-1.055 F30000.000
G2 X40.874 Y-32.053 Z5.000 I0.447 J-1.374 F30000.000
G2 X39.947 Y-33.874 Z5.000 I-1.374 J-0.447 F30000.000
G2 X38.513 Y-31.445 Z5.000 I-0.447 J1.374 F30000.000
G1 X38.513 Y-31.445 Z4.500 F24000.000
G2 X39.053 Y-31.126 Z4.500 I0.987 J-1.055 F30000.000
G2 X40.874 Y-32.053 Z4.500 I0.447 J-1.374 F30000.000
G2 X39.947 Y-33.874 Z4.500 I-1.374 J-0.447 F30000.000
G2 X38.513 Y-31.445 Z4.500 I-0.447 J1.374 F30000.000
G1 X38.513 Y-31.445 Z4.000 F24000.000
G2 X39.053 Y-31.126 Z4.000 I0.987 J-1.055 F30000.000
G2 X40.874 Y-32.053 Z4.000 I0.447 J-1.374 F30000.000
G2 X39.947 Y-33.874 Z4.000 I-1.374 J-0.447 F30000.000
G2 X38.513 Y-31.445 Z4.000 I-0.447 J1.374 F30000.000
G1 X38.513 Y-31.445 Z3.500 F24000.000
G2 X39.053 Y-31.126 Z3.500 I0.987 J-1.055 F30000.000
G2 X40.874 Y-32.053 Z3.500 I0.447 J-1.374 F30000.000
G2 X39.947 Y-33.874 Z3.500 I-1.374 J-0.447 F30000.000
G2 X38.513 Y-31.445 Z3.500 I-0.447 J1.374 F30000.000
G1 X38.513 Y-31.445 Z3.000 F24000.000
G2 X39.053 Y-31.126 Z3.000 I0.987 J-1.055 F30000.000
G2 X40.874 Y-32.053 Z3.000 I0.447 J-1.374 F30000.000
G2 X39.947 Y-33.874 Z3.000 I-1.374 J-0.447 F30000.000
G2 X38.513 Y-31.445 Z3.000 I-0.447 J1.374 F30000.000
G1 X38.513 Y-31.445 Z2.500 F24000.000
G2 X39.053 Y-31.126 Z2.500 I0.987 J-1.055 F30000.000
G2 X40.874 Y-32.053 Z2.500 I0.447 J-1.374 F30000.000
G2 X39.947 Y-33.874 Z2.500 I-1.374 J-0.447 F30000.000
G2 X38.513 Y-31.445 Z2.500 I-0.447 J1.374 F30000.000
G1 X38.513 Y-31.445 Z2.000 F24000.000
G2 X39.053 Y-31.126 Z2.000 I0.987 J-1.055 F30000.000
G2 X40.874 Y-32.053 Z2.000 I0.447 J-1.374 F30000.000
G2 X39.947 Y-33.874 Z2.000 I-1.374 J-0.447 F30000.000
G2 X38.513 Y-31.445 Z2.000 I-0.447 J1.374 F30000.000
G1 X38.513 Y-31.445 Z1.500 F24000.000
G2 X39.053 Y-31.126 Z1.500 I0.987 J-1.055 F30000.000
G2 X40.874 Y-32.053 Z1.500 I0.447 J-1.374 F30000.000
G2 X39.947 Y-33.874 Z1.500 I-1.374 J-0.447 F30000.000
G2 X38.513 Y-31.445 Z1.500 I-0.447 J1.374 F30000.000
G1 X38.513 Y-31.445 Z1.000 F24000.000
G2 X39.053 Y-31.126 Z1.000 I0.987 J-1.055 F30000.000
G2 X40.874 Y-32.053 Z1.000 I0.447 J-1.374 F30000.000
G2 X39.947 Y-33.874 Z1.000 I-1.374 J-0.447 F30000.000
G2 X38.513 Y-31.445 Z1.000 I-0.447 J1.374 F30000.000
G1 X38.513 Y-31.445 Z0.500 F24000.000
G2 X39.053 Y-31.126 Z0.500 I0.987 J-1.055 F30000.000
G2 X40.874 Y-32.053 Z0.500 I0.447 J-1.374 F30000.000
G2 X39.947 Y-33.874 Z0.500 I-1.374 J-0.447 F30000.000
G2 X38.513 Y-31.445 Z0.500 I-0.447 J1.374 F30000.000
G1 X38.513 Y-31.445 Z0.000 F24000.000
G2 X39.053 Y-31.126 Z0.000 I0.987 J-1.055 F30000.000
G2 X40.874 Y-32.053 Z0.000 I0.447 J-1.374 F30000.000
G2 X39.947 Y-33.874 Z0.000 I-1.374 J-0.447 F30000.000
G2 X38.513 Y-31.445 Z0.000 I-0.447 J1.374 F30000.000
G1 X38.513 Y-31.445 Z-0.250 F24000.000
G2 X39.053 Y-31.126 Z-0.250 I0.987 J-1.055 F30000.000
G2 X40.874 Y-32.053 Z-0.250 I0.447 J-1.374 F30000.000
G2 X39.947 Y-33.874 Z-0.250 I-1.374 J-0.447 F30000.000
G2 X38.513 Y-31.445 Z-0.250 I-0.447 J1.374 F30000.000
G0 Z20.000
G0 Z20.000
G0 X38.513 Y-31.445
G0 X39.460 Y-66.055
G0 X39.460 Y-66.055 Z18.000
G1 X39.460 Y-66.055 Z12.500 F24000.000
G2 X39.947 Y-68.874 Z12.500 I0.040 J-1.445 F30000.000
G2 X39.053 Y-66.126 Z12.500 I-0.447 J1.374 F30000.000
G2 X39.460 Y-66.055 Z12.500 I0.447 J-1.374 F30000.000
G1 X39.460 Y-66.055 Z12.000 F24000.000
G2 X39.947 Y-68.874 Z12.000 I0.040 J-1.445 F30000.000
G2 X39.053 Y-66.126 Z12.000 I-0.447 J1.374 F30000.000
G2 X39.460 Y-66.055 Z12.000 I0.447 J-1.374 F30000.000
G1 X39.460 Y-66.055 Z11.500 F24000.000
G2 X39.947 Y-68.874 Z11.500 I0.040 J-1.445 F30000.000
G2 X39.053 Y-66.126 Z11.500 I-0.447 J1.374 F30000.000
G2 X39.460 Y-66.055 Z11.500 I0.447 J-1.374 F30000.000
G1 X39.460 Y-66.055 Z11.000 F24000.000
G2 X39.947 Y-68.874 Z11.000 I0.040 J-1.445 F30000.000
G2 X39.053 Y-66.126 Z11.000 I-0.447 J1.374 F30000.000
G2 X39.460 Y-66.055 Z11.000 I0.447 J-1.374 F30000.000
G1 X39.460 Y-66.055 Z10.500 F24000.000
G2 X39.947 Y-68.874 Z10.500 I0.040 J-1.445 F30000.000
G2 X39.053 Y-66.126 Z10.500 I-0.447 J1.374 F30000.000
G2 X39.460 Y-66.055 Z10.500 I0.447 J-1.374 F30000.000
G1 X39.460 Y-66.055 Z10.000 F24000.000
G2 X39.947 Y-68.874 Z10.000 I0.040 J-1.445 F30000.000
G2 X39.053 Y-66.126 Z10.000 I-0.447 J1.374 F30000.000
G2 X39.460 Y-66.055 Z10.000 I0.447 J-1.374 F30000.000
G1 X39.460 Y-66.055 Z9.500 F24000.000
G2 X39.947 Y-68.874 Z9.500 I0.040 J-1.445 F30000.000
G2 X39.053 Y-66.126 Z9.500 I-0.447 J1.374 F30000.000
G2 X39.460 Y-66.055 Z9.500 I0.447 J-1.374 F30000.000
G1 X39.460 Y-66.055 Z9.000 F24000.000
G2 X39.947 Y-68.874 Z9.000 I0.040 J-1.445 F30000.000
G2 X39.053 Y-66.126 Z9.000 I-0.447 J1.374 F30000.000
G2 X39.460 Y-66.055 Z9.000 I0.447 J-1.374 F30000.000
G1 X39.460 Y-66.055 Z8.500 F24000.000
G2 X39.947 Y-68.874 Z8.500 I0.040 J-1.445 F30000.000
G2 X39.053 Y-66.126 Z8.500 I-0.447 J1.374 F30000.000
G2 X39.460 Y-66.055 Z8.500 I0.447 J-1.374 F30000.000
G1 X39.460 Y-66.055 Z8.000 F24000.000
G2 X39.947 Y-68.874 Z8.000 I0.040 J-1.445 F30000.000
G2 X39.053 Y-66.126 Z8.000 I-0.447 J1.374 F30000.000
G2 X39.460 Y-66.055 Z8.000 I0.447 J-1.374 F30000.000
G1 X39.460 Y-66.055 Z7.500 F24000.000
G2 X39.947 Y-68.874 Z7.500 I0.040 J-1.445 F30000.000
G2 X39.053 Y-66.126 Z7.500 I-0.447 J1.374 F30000.000
G2 X39.460 Y-66.055 Z7.500 I0.447 J-1.374 F30000.000
G1 X39.460 Y-66.055 Z7.000 F24000.000
G2 X39.947 Y-68.874 Z7.000 I0.040 J-1.445 F30000.000
G2 X39.053 Y-66.126 Z7.000 I-0.447 J1.374 F30000.000
G2 X39.460 Y-66.055 Z7.000 I0.447 J-1.374 F30000.000
G1 X39.460 Y-66.055 Z6.500 F24000.000
G2 X39.947 Y-68.874 Z6.500 I0.040 J-1.445 F30000.000
G2 X39.053 Y-66.126 Z6.500 I-0.447 J1.374 F30000.000
G2 X39.460 Y-66.055 Z6.500 I0.447 J-1.374 F30000.000
G1 X39.460 Y-66.055 Z6.000 F24000.000
G2 X39.947 Y-68.874 Z6.000 I0.040 J-1.445 F30000.000
G2 X39.053 Y-66.126 Z6.000 I-0.447 J1.374 F30000.000
G2 X39.460 Y-66.055 Z6.000 I0.447 J-1.374 F30000.000
G1 X39.460 Y-66.055 Z5.500 F24000.000
G2 X39.947 Y-68.874 Z5.500 I0.040 J-1.445 F30000.000
G2 X39.053 Y-66.126 Z5.500 I-0.447 J1.374 F30000.000
G2 X39.460 Y-66.055 Z5.500 I0.447 J-1.374 F30000.000
G1 X39.460 Y-66.055 Z5.000 F24000.000
G2 X39.947 Y-68.874 Z5.000 I0.040 J-1.445 F30000.000
G2 X39.053 Y-66.126 Z5.000 I-0.447 J1.374 F30000.000
G2 X39.460 Y-66.055 Z5.000 I0.447 J-1.374 F30000.000
G1 X39.460 Y-66.055 Z4.500 F24000.000
G2 X39.947 Y-68.874 Z4.500 I0.040 J-1.445 F30000.000
G2 X39.053 Y-66.126 Z4.500 I-0.447 J1.374 F30000.000
G2 X39.460 Y-66.055 Z4.500 I0.447 J-1.374 F30000.000
G1 X39.460 Y-66.055 Z4.000 F24000.000
G2 X39.947 Y-68.874 Z4.000 I0.040 J-1.445 F30000.000
G2 X39.053 Y-66.126 Z4.000 I-0.447 J1.374 F30000.000
G2 X39.460 Y-66.055 Z4.000 I0.447 J-1.374 F30000.000
G1 X39.460 Y-66.055 Z3.500 F24000.000
G2 X39.947 Y-68.874 Z3.500 I0.040 J-1.445 F30000.000
G2 X39.053 Y-66.126 Z3.500 I-0.447 J1.374 F30000.000
G2 X39.460 Y-66.055 Z3.500 I0.447 J-1.374 F30000.000
G1 X39.460 Y-66.055 Z3.000 F24000.000
G2 X39.947 Y-68.874 Z3.000 I0.040 J-1.445 F30000.000
G2 X39.053 Y-66.126 Z3.000 I-0.447 J1.374 F30000.000
G2 X39.460 Y-66.055 Z3.000 I0.447 J-1.374 F30000.000
G1 X39.460 Y-66.055 Z2.500 F24000.000
G2 X39.947 Y-68.874 Z2.500 I0.040 J-1.445 F30000.000
G2 X39.053 Y-66.126 Z2.500 I-0.447 J1.374 F30000.000
G2 X39.460 Y-66.055 Z2.500 I0.447 J-1.374 F30000.000
G1 X39.460 Y-66.055 Z2.000 F24000.000
G2 X39.947 Y-68.874 Z2.000 I0.040 J-1.445 F30000.000
G2 X39.053 Y-66.126 Z2.000 I-0.447 J1.374 F30000.000
G2 X39.460 Y-66.055 Z2.000 I0.447 J-1.374 F30000.000
G1 X39.460 Y-66.055 Z1.500 F24000.000
G2 X39.947 Y-68.874 Z1.500 I0.040 J-1.445 F30000.000
G2 X39.053 Y-66.126 Z1.500 I-0.447 J1.374 F30000.000
G2 X39.460 Y-66.055 Z1.500 I0.447 J-1.374 F30000.000
G1 X39.460 Y-66.055 Z1.000 F24000.000
G2 X39.947 Y-68.874 Z1.000 I0.040 J-1.445 F30000.000
G2 X39.053 Y-66.126 Z1.000 I-0.447 J1.374 F30000.000
G2 X39.460 Y-66.055 Z1.000 I0.447 J-1.374 F30000.000
G1 X39.460 Y-66.055 Z0.500 F24000.000
G2 X39.947 Y-68.874 Z0.500 I0.040 J-1.445 F30000.000
G2 X39.053 Y-66.126 Z0.500 I-0.447 J1.374 F30000.000
G2 X39.460 Y-66.055 Z0.500 I0.447 J-1.374 F30000.000
G1 X39.460 Y-66.055 Z0.000 F24000.000
G2 X39.947 Y-68.874 Z0.000 I0.040 J-1.445 F30000.000
G2 X39.053 Y-66.126 Z0.000 I-0.447 J1.374 F30000.000
G2 X39.460 Y-66.055 Z0.000 I0.447 J-1.374 F30000.000
G1 X39.460 Y-66.055 Z-0.250 F24000.000
G2 X39.947 Y-68.874 Z-0.250 I0.040 J-1.445 F30000.000
G2 X39.053 Y-66.126 Z-0.250 I-0.447 J1.374 F30000.000
G2 X39.460 Y-66.055 Z-0.250 I0.447 J-1.374 F30000.000
G0 Z20.000
G0 Z20.000
G0 X39.460 Y-66.055
G0 X73.056 Y-67.440
G0 X73.056 Y-67.440 Z18.000
G1 X73.056 Y-67.440 Z12.500 F24000.000
G2 X74.053 Y-66.126 Z12.500 I1.444 J-0.060 F30000.000
G2 X75.874 Y-67.053 Z12.500 I0.447 J-1.374 F30000.000
G2 X74.947 Y-68.874 Z12.500 I-1.374 J-0.447 F30000.000
G2 X73.056 Y-67.440 Z12.500 I-0.447 J1.374 F30000.000
G1 X73.056 Y-67.440 Z12.000 F24000.000
G2 X74.053 Y-66.126 Z12.000 I1.444 J-0.060 F30000.000
G2 X75.874 Y-67.053 Z12.000 I0.447 J-1.374 F30000.000
G2 X74.947 Y-68.874 Z12.000 I-1.374 J-0.447 F30000.000
G2 X73.056 Y-67.440 Z12.000 I-0.447 J1.374 F30000.000
G1 X73.056 Y-67.440 Z11.500 F24000.000
G2 X74.053 Y-66.126 Z11.500 I1.444 J-0.060 F30000.000
G2 X75.874 Y-67.053 Z11.500 I0.447 J-1.374 F30000.000
G2 X74.947 Y-68.874 Z11.500 I-1.374 J-0.447 F30000.000
G2 X73.056 Y-67.440 Z11.500 I-0.447 J1.374 F30000.000
G1 X73.056 Y-67.440 Z11.000 F24000.000
G2 X74.053 Y-66.126 Z11.000 I1.444 J-0.060 F30000.000
G2 X75.874 Y-67.053 Z11.000 I0.447 J-1.374 F30000.000
G2 X74.947 Y-68.874 Z11.000 I-1.374 J-0.447 F30000.000
G2 X73.056 Y-67.440 Z11.000 I-0.447 J1.374 F30000.000
G1 X73.056 Y-67.440 Z10.500 F24000.000
G2 X74.053 Y-66.126 Z10.500 I1.444 J-0.060 F30000.000
G2 X75.874 Y-67.053 Z10.500 I0.447 J-1.374 F30000.000
G2 X74.947 Y-68.874 Z10.500 I-1.374 J-0.447 F30000.000
G2 X73.056 Y-67.440 Z10.500 I-0.447 J1.374 F30000.000
G1 X73.056 Y-67.440 Z10.000 F24000.000
G2 X74.053 Y-66.126 Z10.000 I1.444 J-0.060 F30000.000
G2 X75.874 Y-67.053 Z10.000 I0.447 J-1.374 F30000.000
G2 X74.947 Y-68.874 Z10.000 I-1.374 J-0.447 F30000.000
G2 X73.056 Y-67.440 Z10.000 I-0.447 J1.374 F30000.000
G1 X73.056 Y-67.440 Z9.500 F24000.000
G2 X74.053 Y-66.126 Z9.500 I1.444 J-0.060 F30000.000
G2 X75.874 Y-67.053 Z9.500 I0.447 J-1.374 F30000.000
G2 X74.947 Y-68.874 Z9.500 I-1.374 J-0.447 F30000.000
G2 X73.056 Y-67.440 Z9.500 I-0.447 J1.374 F30000.000
G1 X73.056 Y-67.440 Z9.000 F24000.000
G2 X74.053 Y-66.126 Z9.000 I1.444 J-0.060 F30000.000
G2 X75.874 Y-67.053 Z9.000 I0.447 J-1.374 F30000.000
G2 X74.947 Y-68.874 Z9.000 I-1.374 J-0.447 F30000.000
G2 X73.056 Y-67.440 Z9.000 I-0.447 J1.374 F30000.000
G1 X73.056 Y-67.440 Z8.500 F24000.000
G2 X74.053 Y-66.126 Z8.500 I1.444 J-0.060 F30000.000
G2 X75.874 Y-67.053 Z8.500 I0.447 J-1.374 F30000.000
G2 X74.947 Y-68.874 Z8.500 I-1.374 J-0.447 F30000.000
G2 X73.056 Y-67.440 Z8.500 I-0.447 J1.374 F30000.000
G1 X73.056 Y-67.440 Z8.000 F24000.000
G2 X74.053 Y-66.126 Z8.000 I1.444 J-0.060 F30000.000
G2 X75.874 Y-67.053 Z8.000 I0.447 J-1.374 F30000.000
G2 X74.947 Y-68.874 Z8.000 I-1.374 J-0.447 F30000.000
G2 X73.056 Y-67.440 Z8.000 I-0.447 J1.374 F30000.000
G1 X73.056 Y-67.440 Z7.500 F24000.000
G2 X74.053 Y-66.126 Z7.500 I1.444 J-0.060 F30000.000
G2 X75.874 Y-67.053 Z7.500 I0.447 J-1.374 F30000.000
G2 X74.947 Y-68.874 Z7.500 I-1.374 J-0.447 F30000.000
G2 X73.056 Y-67.440 Z7.500 I-0.447 J1.374 F30000.000
G1 X73.056 Y-67.440 Z7.000 F24000.000
G2 X74.053 Y-66.126 Z7.000 I1.444 J-0.060 F30000.000
G2 X75.874 Y-67.053 Z7.000 I0.447 J-1.374 F30000.000
G2 X74.947 Y-68.874 Z7.000 I-1.374 J-0.447 F30000.000
G2 X73.056 Y-67.440 Z7.000 I-0.447 J1.374 F30000.000
G1 X73.056 Y-67.440 Z6.500 F24000.000
G2 X74.053 Y-66.126 Z6.500 I1.444 J-0.060 F30000.000
G2 X75.874 Y-67.053 Z6.500 I0.447 J-1.374 F30000.000
G2 X74.947 Y-68.874 Z6.500 I-1.374 J-0.447 F30000.000
G2 X73.056 Y-67.440 Z6.500 I-0.447 J1.374 F30000.000
G1 X73.056 Y-67.440 Z6.000 F24000.000
G2 X74.053 Y-66.126 Z6.000 I1.444 J-0.060 F30000.000
G2 X75.874 Y-67.053 Z6.000 I0.447 J-1.374 F30000.000
G2 X74.947 Y-68.874 Z6.000 I-1.374 J-0.447 F30000.000
G2 X73.056 Y-67.440 Z6.000 I-0.447 J1.374 F30000.000
G1 X73.056 Y-67.440 Z5.500 F24000.000
G2 X74.053 Y-66.126 Z5.500 I1.444 J-0.060 F30000.000
G2 X75.874 Y-67.053 Z5.500 I0.447 J-1.374 F30000.000
G2 X74.947 Y-68.874 Z5.500 I-1.374 J-0.447 F30000.000
G2 X73.056 Y-67.440 Z5.500 I-0.447 J1.374 F30000.000
G1 X73.056 Y-67.440 Z5.000 F24000.000
G2 X74.053 Y-66.126 Z5.000 I1.444 J-0.060 F30000.000
G2 X75.874 Y-67.053 Z5.000 I0.447 J-1.374 F30000.000
G2 X74.947 Y-68.874 Z5.000 I-1.374 J-0.447 F30000.000
G2 X73.056 Y-67.440 Z5.000 I-0.447 J1.374 F30000.000
G1 X73.056 Y-67.440 Z4.500 F24000.000
G2 X74.053 Y-66.126 Z4.500 I1.444 J-0.060 F30000.000
G2 X75.874 Y-67.053 Z4.500 I0.447 J-1.374 F30000.000
G2 X74.947 Y-68.874 Z4.500 I-1.374 J-0.447 F30000.000
G2 X73.056 Y-67.440 Z4.500 I-0.447 J1.374 F30000.000
G1 X73.056 Y-67.440 Z4.000 F24000.000
G2 X74.053 Y-66.126 Z4.000 I1.444 J-0.060 F30000.000
G2 X75.874 Y-67.053 Z4.000 I0.447 J-1.374 F30000.000
G2 X74.947 Y-68.874 Z4.000 I-1.374 J-0.447 F30000.000
G2 X73.056 Y-67.440 Z4.000 I-0.447 J1.374 F30000.000
G1 X73.056 Y-67.440 Z3.500 F24000.000
G2 X74.053 Y-66.126 Z3.500 I1.444 J-0.060 F30000.000
G2 X75.874 Y-67.053 Z3.500 I0.447 J-1.374 F30000.000
G2 X74.947 Y-68.874 Z3.500 I-1.374 J-0.447 F30000.000
G2 X73.056 Y-67.440 Z3.500 I-0.447 J1.374 F30000.000
G1 X73.056 Y-67.440 Z3.000 F24000.000
G2 X74.053 Y-66.126 Z3.000 I1.444 J-0.060 F30000.000
G2 X75.874 Y-67.053 Z3.000 I0.447 J-1.374 F30000.000
G2 X74.947 Y-68.874 Z3.000 I-1.374 J-0.447 F30000.000
G2 X73.056 Y-67.440 Z3.000 I-0.447 J1.374 F30000.000
G1 X73.056 Y-67.440 Z2.500 F24000.000
G2 X74.053 Y-66.126 Z2.500 I1.444 J-0.060 F30000.000
G2 X75.874 Y-67.053 Z2.500 I0.447 J-1.374 F30000.000
G2 X74.947 Y-68.874 Z2.500 I-1.374 J-0.447 F30000.000
G2 X73.056 Y-67.440 Z2.500 I-0.447 J1.374 F30000.000
G1 X73.056 Y-67.440 Z2.000 F24000.000
G2 X74.053 Y-66.126 Z2.000 I1.444 J-0.060 F30000.000
G2 X75.874 Y-67.053 Z2.000 I0.447 J-1.374 F30000.000
G2 X74.947 Y-68.874 Z2.000 I-1.374 J-0.447 F30000.000
G2 X73.056 Y-67.440 Z2.000 I-0.447 J1.374 F30000.000
G1 X73.056 Y-67.440 Z1.500 F24000.000
G2 X74.053 Y-66.126 Z1.500 I1.444 J-0.060 F30000.000
G2 X75.874 Y-67.053 Z1.500 I0.447 J-1.374 F30000.000
G2 X74.947 Y-68.874 Z1.500 I-1.374 J-0.447 F30000.000
G2 X73.056 Y-67.440 Z1.500 I-0.447 J1.374 F30000.000
G1 X73.056 Y-67.440 Z1.000 F24000.000
G2 X74.053 Y-66.126 Z1.000 I1.444 J-0.060 F30000.000
G2 X75.874 Y-67.053 Z1.000 I0.447 J-1.374 F30000.000
G2 X74.947 Y-68.874 Z1.000 I-1.374 J-0.447 F30000.000
G2 X73.056 Y-67.440 Z1.000 I-0.447 J1.374 F30000.000
G1 X73.056 Y-67.440 Z0.500 F24000.000
G2 X74.053 Y-66.126 Z0.500 I1.444 J-0.060 F30000.000
G2 X75.874 Y-67.053 Z0.500 I0.447 J-1.374 F30000.000
G2 X74.947 Y-68.874 Z0.500 I-1.374 J-0.447 F30000.000
G2 X73.056 Y-67.440 Z0.500 I-0.447 J1.374 F30000.000
G1 X73.056 Y-67.440 Z0.000 F24000.000
G2 X74.053 Y-66.126 Z0.000 I1.444 J-0.060 F30000.000
G2 X75.874 Y-67.053 Z0.000 I0.447 J-1.374 F30000.000
G2 X74.947 Y-68.874 Z0.000 I-1.374 J-0.447 F30000.000
G2 X73.056 Y-67.440 Z0.000 I-0.447 J1.374 F30000.000
G1 X73.056 Y-67.440 Z-0.250 F24000.000
G2 X74.053 Y-66.126 Z-0.250 I1.444 J-0.060 F30000.000
G2 X75.874 Y-67.053 Z-0.250 I0.447 J-1.374 F30000.000
G2 X74.947 Y-68.874 Z-0.250 I-1.374 J-0.447 F30000.000
G2 X73.056 Y-67.440 Z-0.250 I-0.447 J1.374 F30000.000
G0 Z20.000
G0 Z20.000
G0 X73.056 Y-67.440
G0 X89.075 Y-64.188
G0 X89.075 Y-64.188 Z18.000
G1 X89.075 Y-64.188 Z12.500 F24000.000
G2 X89.677 Y-63.113 Z12.500 I0.925 J0.188 F30000.000
G2 X90.887 Y-63.677 Z12.500 I0.323 J-0.887 F30000.000
G2 X90.323 Y-64.887 Z12.500 I-0.887 J-0.323 F30000.000
G2 X89.075 Y-64.188 Z12.500 I-0.323 J0.887 F30000.000
G1 X89.075 Y-64.188 Z12.000 F24000.000
G2 X89.677 Y-63.113 Z12.000 I0.925 J0.188 F30000.000
G2 X90.887 Y-63.677 Z12.000 I0.323 J-0.887 F30000.000
G2 X90.323 Y-64.887 Z12.000 I-0.887 J-0.323 F30000.000
G2 X89.075 Y-64.188 Z12.000 I-0.323 J0.887 F30000.000
G1 X89.075 Y-64.188 Z11.500 F24000.000
G2 X89.677 Y-63.113 Z11.500 I0.925 J0.188 F30000.000
G2 X90.887 Y-63.677 Z11.500 I0.323 J-0.887 F30000.000
G2 X90.323 Y-64.887 Z11.500 I-0.887 J-0.323 F30000.000
G2 X89.075 Y-64.188 Z11.500 I-0.323 J0.887 F30000.000
G1 X89.075 Y-64.188 Z11.000 F24000.000
G2 X89.677 Y-63.113 Z11.000 I0.925 J0.188 F30000.000
G2 X90.887 Y-63.677 Z11.000 I0.323 J-0.887 F30000.000
G2 X90.323 Y-64.887 Z11.000 I-0.887 J-0.323 F30000.000
G2 X89.075 Y-64.188 Z11.000 I-0.323 J0.887 F30000.000
G1 X89.075 Y-64.188 Z10.500 F24000.000
G2 X89.677 Y-63.113 Z10.500 I0.925 J0.188 F30000.000
G2 X90.887 Y-63.677 Z10.500 I0.323 J-0.887 F30000.000
G2 X90.323 Y-64.887 Z10.500 I-0.887 J-0.323 F30000.000
G2 X89.075 Y-64.188 Z10.500 I-0.323 J0.887 F30000.000
G1 X89.075 Y-64.188 Z10.000 F24000.000
G2 X89.677 Y-63.113 Z10.000 I0.925 J0.188 F30000.000
G2 X90.887 Y-63.677 Z10.000 I0.323 J-0.887 F30000.000
G2 X90.323 Y-64.887 Z10.000 I-0.887 J-0.323 F30000.000
G2 X89.075 Y-64.188 Z10.000 I-0.323 J0.887 F30000.000
G1 X89.075 Y-64.188 Z9.500 F24000.000
G2 X89.677 Y-63.113 Z9.500 I0.925 J0.188 F30000.000
G2 X90.887 Y-63.677 Z9.500 I0.323 J-0.887 F30000.000
G2 X90.323 Y-64.887 Z9.500 I-0.887 J-0.323 F30000.000
G2 X89.075 Y-64.188 Z9.500 I-0.323 J0.887 F30000.000
G1 X89.075 Y-64.188 Z9.000 F24000.000
G2 X89.677 Y-63.113 Z9.000 I0.925 J0.188 F30000.000
G2 X90.887 Y-63.677 Z9.000 I0.323 J-0.887 F30000.000
G2 X90.323 Y-64.887 Z9.000 I-0.887 J-0.323 F30000.000
G2 X89.075 Y-64.188 Z9.000 I-0.323 J0.887 F30000.000
G1 X89.075 Y-64.188 Z8.500 F24000.000
G2 X89.677 Y-63.113 Z8.500 I0.925 J0.188 F30000.000
G2 X90.887 Y-63.677 Z8.500 I0.323 J-0.887 F30000.000
G2 X90.323 Y-64.887 Z8.500 I-0.887 J-0.323 F30000.000
G2 X89.075 Y-64.188 Z8.500 I-0.323 J0.887 F30000.000
G1 X89.075 Y-64.188 Z8.000 F24000.000
G2 X89.677 Y-63.113 Z8.000 I0.925 J0.188 F30000.000
G2 X90.887 Y-63.677 Z8.000 I0.323 J-0.887 F30000.000
G2 X90.323 Y-64.887 Z8.000 I-0.887 J-0.323 F30000.000
G2 X89.075 Y-64.188 Z8.000 I-0.323 J0.887 F30000.000
G1 X89.075 Y-64.188 Z7.500 F24000.000
G2 X89.677 Y-63.113 Z7.500 I0.925 J0.188 F30000.000
G2 X90.887 Y-63.677 Z7.500 I0.323 J-0.887 F30000.000
G2 X90.323 Y-64.887 Z7.500 I-0.887 J-0.323 F30000.000
G2 X89.075 Y-64.188 Z7.500 I-0.323 J0.887 F30000.000
G1 X89.075 Y-64.188 Z7.000 F24000.000
G2 X89.677 Y-63.113 Z7.000 I0.925 J0.188 F30000.000
G2 X90.887 Y-63.677 Z7.000 I0.323 J-0.887 F30000.000
G2 X90.323 Y-64.887 Z7.000 I-0.887 J-0.323 F30000.000
G2 X89.075 Y-64.188 Z7.000 I-0.323 J0.887 F30000.000
G1 X89.075 Y-64.188 Z6.500 F24000.000
G2 X89.677 Y-63.113 Z6.500 I0.925 J0.188 F30000.000
G2 X90.887 Y-63.677 Z6.500 I0.323 J-0.887 F30000.000
G2 X90.323 Y-64.887 Z6.500 I-0.887 J-0.323 F30000.000
G2 X89.075 Y-64.188 Z6.500 I-0.323 J0.887 F30000.000
G1 X89.075 Y-64.188 Z6.000 F24000.000
G2 X89.677 Y-63.113 Z6.000 I0.925 J0.188 F30000.000
G2 X90.887 Y-63.677 Z6.000 I0.323 J-0.887 F30000.000
G2 X90.323 Y-64.887 Z6.000 I-0.887 J-0.323 F30000.000
G2 X89.075 Y-64.188 Z6.000 I-0.323 J0.887 F30000.000
G1 X89.075 Y-64.188 Z5.500 F24000.000
G2 X89.677 Y-63.113 Z5.500 I0.925 J0.188 F30000.000
G2 X90.887 Y-63.677 Z5.500 I0.323 J-0.887 F30000.000
G2 X90.323 Y-64.887 Z5.500 I-0.887 J-0.323 F30000.000
G2 X89.075 Y-64.188 Z5.500 I-0.323 J0.887 F30000.000
G1 X89.075 Y-64.188 Z5.000 F24000.000
G2 X89.677 Y-63.113 Z5.000 I0.925 J0.188 F30000.000
G2 X90.887 Y-63.677 Z5.000 I0.323 J-0.887 F30000.000
G2 X90.323 Y-64.887 Z5.000 I-0.887 J-0.323 F30000.000
G2 X89.075 Y-64.188 Z5.000 I-0.323 J0.887 F30000.000
G1 X89.075 Y-64.188 Z4.500 F24000.000
G2 X89.677 Y-63.113 Z4.500 I0.925 J0.188 F30000.000
G2 X90.887 Y-63.677 Z4.500 I0.323 J-0.887 F30000.000
G2 X90.323 Y-64.887 Z4.500 I-0.887 J-0.323 F30000.000
G2 X89.075 Y-64.188 Z4.500 I-0.323 J0.887 F30000.000
G1 X89.075 Y-64.188 Z4.000 F24000.000
G2 X89.677 Y-63.113 Z4.000 I0.925 J0.188 F30000.000
G2 X90.887 Y-63.677 Z4.000 I0.323 J-0.887 F30000.000
G2 X90.323 Y-64.887 Z4.000 I-0.887 J-0.323 F30000.000
G2 X89.075 Y-64.188 Z4.000 I-0.323 J0.887 F30000.000
G1 X89.075 Y-64.188 Z3.500 F24000.000
G2 X89.677 Y-63.113 Z3.500 I0.925 J0.188 F30000.000
G2 X90.887 Y-63.677 Z3.500 I0.323 J-0.887 F30000.000
G2 X90.323 Y-64.887 Z3.500 I-0.887 J-0.323 F30000.000
G2 X89.075 Y-64.188 Z3.500 I-0.323 J0.887 F30000.000
G1 X89.075 Y-64.188 Z3.000 F24000.000
G2 X89.677 Y-63.113 Z3.000 I0.925 J0.188 F30000.000
G2 X90.887 Y-63.677 Z3.000 I0.323 J-0.887 F30000.000
G2 X90.323 Y-64.887 Z3.000 I-0.887 J-0.323 F30000.000
G2 X89.075 Y-64.188 Z3.000 I-0.323 J0.887 F30000.000
G1 X89.075 Y-64.188 Z2.500 F24000.000
G2 X89.677 Y-63.113 Z2.500 I0.925 J0.188 F30000.000
G2 X90.887 Y-63.677 Z2.500 I0.323 J-0.887 F30000.000
G2 X90.323 Y-64.887 Z2.500 I-0.887 J-0.323 F30000.000
G2 X89.075 Y-64.188 Z2.500 I-0.323 J0.887 F30000.000
G1 X89.075 Y-64.188 Z2.000 F24000.000
G2 X89.677 Y-63.113 Z2.000 I0.925 J0.188 F30000.000
G2 X90.887 Y-63.677 Z2.000 I0.323 J-0.887 F30000.000
G2 X90.323 Y-64.887 Z2.000 I-0.887 J-0.323 F30000.000
G2 X89.075 Y-64.188 Z2.000 I-0.323 J0.887 F30000.000
G1 X89.075 Y-64.188 Z1.500 F24000.000
G2 X89.677 Y-63.113 Z1.500 I0.925 J0.188 F30000.000
G2 X90.887 Y-63.677 Z1.500 I0.323 J-0.887 F30000.000
G2 X90.323 Y-64.887 Z1.500 I-0.887 J-0.323 F30000.000
G2 X89.075 Y-64.188 Z1.500 I-0.323 J0.887 F30000.000
G1 X89.075 Y-64.188 Z1.000 F24000.000
G2 X89.677 Y-63.113 Z1.000 I0.925 J0.188 F30000.000
G2 X90.887 Y-63.677 Z1.000 I0.323 J-0.887 F30000.000
G2 X90.323 Y-64.887 Z1.000 I-0.887 J-0.323 F30000.000
G2 X89.075 Y-64.188 Z1.000 I-0.323 J0.887 F30000.000
G1 X89.075 Y-64.188 Z0.500 F24000.000
G2 X89.677 Y-63.113 Z0.500 I0.925 J0.188 F30000.000
G2 X90.887 Y-63.677 Z0.500 I0.323 J-0.887 F30000.000
G2 X90.323 Y-64.887 Z0.500 I-0.887 J-0.323 F30000.000
G2 X89.075 Y-64.188 Z0.500 I-0.323 J0.887 F30000.000
G1 X89.075 Y-64.188 Z0.000 F24000.000
G2 X89.677 Y-63.113 Z0.000 I0.925 J0.188 F30000.000
G2 X90.887 Y-63.677 Z0.000 I0.323 J-0.887 F30000.000
G2 X90.323 Y-64.887 Z0.000 I-0.887 J-0.323 F30000.000
G2 X89.075 Y-64.188 Z0.000 I-0.323 J0.887 F30000.000
G1 X89.075 Y-64.188 Z-0.250 F24000.000
G2 X89.677 Y-63.113 Z-0.250 I0.925 J0.188 F30000.000
G2 X90.887 Y-63.677 Z-0.250 I0.323 J-0.887 F30000.000
G2 X90.323 Y-64.887 Z-0.250 I-0.887 J-0.323 F30000.000
G2 X89.075 Y-64.188 Z-0.250 I-0.323 J0.887 F30000.000
G0 Z20.000
G0 Z20.000
G0 X89.075 Y-64.188
G0 X115.056 Y-64.007
G0 X115.056 Y-64.007 Z18.000
G1 X115.056 Y-64.007 Z12.500 F24000.000
G2 X115.677 Y-63.113 Z12.500 I0.944 J0.007 F30000.000
G2 X116.887 Y-63.677 Z12.500 I0.323 J-0.887 F30000.000
G2 X116.323 Y-64.887 Z12.500 I-0.887 J-0.323 F30000.000
G2 X115.056 Y-64.007 Z12.500 I-0.323 J0.887 F30000.000
G1 X115.056 Y-64.007 Z12.000 F24000.000
G2 X115.677 Y-63.113 Z12.000 I0.944 J0.007 F30000.000
G2 X116.887 Y-63.677 Z12.000 I0.323 J-0.887 F30000.000
G2 X116.323 Y-64.887 Z12.000 I-0.887 J-0.323 F30000.000
G2 X115.056 Y-64.007 Z12.000 I-0.323 J0.887 F30000.000
G1 X115.056 Y-64.007 Z11.500 F24000.000
G2 X115.677 Y-63.113 Z11.500 I0.944 J0.007 F30000.000
G2 X116.887 Y-63.677 Z11.500 I0.323 J-0.887 F30000.000
G2 X116.323 Y-64.887 Z11.500 I-0.887 J-0.323 F30000.000
G2 X115.056 Y-64.007 Z11.500 I-0.323 J0.887 F30000.000
G1 X115.056 Y-64.007 Z11.000 F24000.000
G2 X115.677 Y-63.113 Z11.000 I0.944 J0.007 F30000.000
G2 X116.887 Y-63.677 Z11.000 I0.323 J-0.887 F30000.000
G2 X116.323 Y-64.887 Z11.000 I-0.887 J-0.323 F30000.000
G2 X115.056 Y-64.007 Z11.000 I-0.323 J0.887 F30000.000
G1 X115.056 Y-64.007 Z10.500 F24000.000
G2 X115.677 Y-63.113 Z10.500 I0.944 J0.007 F30000.000
G2 X116.887 Y-63.677 Z10.500 I0.323 J-0.887 F30000.000
G2 X116.323 Y-64.887 Z10.500 I-0.887 J-0.323 F30000.000
G2 X115.056 Y-64.007 Z10.500 I-0.323 J0.887 F30000.000
G1 X115.056 Y-64.007 Z10.000 F24000.000
G2 X115.677 Y-63.113 Z10.000 I0.944 J0.007 F30000.000
G2 X116.887 Y-63.677 Z10.000 I0.323 J-0.887 F30000.000
G2 X116.323 Y-64.887 Z10.000 I-0.887 J-0.323 F30000.000
G2 X115.056 Y-64.007 Z10.000 I-0.323 J0.887 F30000.000
G1 X115.056 Y-64.007 Z9.500 F24000.000
G2 X115.677 Y-63.113 Z9.500 I0.944 J0.007 F30000.000
G2 X116.887 Y-63.677 Z9.500 I0.323 J-0.887 F30000.000
G2 X116.323 Y-64.887 Z9.500 I-0.887 J-0.323 F30000.000
G2 X115.056 Y-64.007 Z9.500 I-0.323 J0.887 F30000.000
G1 X115.056 Y-64.007 Z9.000 F24000.000
G2 X115.677 Y-63.113 Z9.000 I0.944 J0.007 F30000.000
G2 X116.887 Y-63.677 Z9.000 I0.323 J-0.887 F30000.000
G2 X116.323 Y-64.887 Z9.000 I-0.887 J-0.323 F30000.000
G2 X115.056 Y-64.007 Z9.000 I-0.323 J0.887 F30000.000
G1 X115.056 Y-64.007 Z8.500 F24000.000
G2 X115.677 Y-63.113 Z8.500 I0.944 J0.007 F30000.000
G2 X116.887 Y-63.677 Z8.500 I0.323 J-0.887 F30000.000
G2 X116.323 Y-64.887 Z8.500 I-0.887 J-0.323 F30000.000
G2 X115.056 Y-64.007 Z8.500 I-0.323 J0.887 F30000.000
G1 X115.056 Y-64.007 Z8.000 F24000.000
G2 X115.677 Y-63.113 Z8.000 I0.944 J0.007 F30000.000
G2 X116.887 Y-63.677 Z8.000 I0.323 J-0.887 F30000.000
G2 X116.323 Y-64.887 Z8.000 I-0.887 J-0.323 F30000.000
G2 X115.056 Y-64.007 Z8.000 I-0.323 J0.887 F30000.000
G1 X115.056 Y-64.007 Z7.500 F24000.000
G2 X115.677 Y-63.113 Z7.500 I0.944 J0.007 F30000.000
G2 X116.887 Y-63.677 Z7.500 I0.323 J-0.887 F30000.000
G2 X116.323 Y-64.887 Z7.500 I-0.887 J-0.323 F30000.000
G2 X115.056 Y-64.007 Z7.500 I-0.323 J0.887 F30000.000
G1 X115.056 Y-64.007 Z7.000 F24000.000
G2 X115.677 Y-63.113 Z7.000 I0.944 J0.007 F30000.000
G2 X116.887 Y-63.677 Z7.000 I0.323 J-0.887 F30000.000
G2 X116.323 Y-64.887 Z7.000 I-0.887 J-0.323 F30000.000
G2 X115.056 Y-64.007 Z7.000 I-0.323 J0.887 F30000.000
G1 X115.056 Y-64.007 Z6.500 F24000.000
G2 X115.677 Y-63.113 Z6.500 I0.944 J0.007 F30000.000
G2 X116.887 Y-63.677 Z6.500 I0.323 J-0.887 F30000.000
G2 X116.323 Y-64.887 Z6.500 I-0.887 J-0.323 F30000.000
G2 X115.056 Y-64.007 Z6.500 I-0.323 J0.887 F30000.000
G1 X115.056 Y-64.007 Z6.000 F24000.000
G2 X115.677 Y-63.113 Z6.000 I0.944 J0.007 F30000.000
G2 X116.887 Y-63.677 Z6.000 I0.323 J-0.887 F30000.000
G2 X116.323 Y-64.887 Z6.000 I-0.887 J-0.323 F30000.000
G2 X115.056 Y-64.007 Z6.000 I-0.323 J0.887 F30000.000
G1 X115.056 Y-64.007 Z5.500 F24000.000
G2 X115.677 Y-63.113 Z5.500 I0.944 J0.007 F30000.000
G2 X116.887 Y-63.677 Z5.500 I0.323 J-0.887 F30000.000
G2 X116.323 Y-64.887 Z5.500 I-0.887 J-0.323 F30000.000
G2 X115.056 Y-64.007 Z5.500 I-0.323 J0.887 F30000.000
G1 X115.056 Y-64.007 Z5.000 F24000.000
G2 X115.677 Y-63.113 Z5.000 I0.944 J0.007 F30000.000
G2 X116.887 Y-63.677 Z5.000 I0.323 J-0.887 F30000.000
G2 X116.323 Y-64.887 Z5.000 I-0.887 J-0.323 F30000.000
G2 X115.056 Y-64.007 Z5.000 I-0.323 J0.887 F30000.000
G1 X115.056 Y-64.007 Z4.500 F24000.000
G2 X115.677 Y-63.113 Z4.500 I0.944 J0.007 F30000.000
G2 X116.887 Y-63.677 Z4.500 I0.323 J-0.887 F30000.000
G2 X116.323 Y-64.887 Z4.500 I-0.887 J-0.323 F30000.000
G2 X115.056 Y-64.007 Z4.500 I-0.323 J0.887 F30000.000
G1 X115.056 Y-64.007 Z4.000 F24000.000
G2 X115.677 Y-63.113 Z4.000 I0.944 J0.007 F30000.000
G2 X116.887 Y-63.677 Z4.000 I0.323 J-0.887 F30000.000
G2 X116.323 Y-64.887 Z4.000 I-0.887 J-0.323 F30000.000
G2 X115.056 Y-64.007 Z4.000 I-0.323 J0.887 F30000.000
G1 X115.056 Y-64.007 Z3.500 F24000.000
G2 X115.677 Y-63.113 Z3.500 I0.944 J0.007 F30000.000
G2 X116.887 Y-63.677 Z3.500 I0.323 J-0.887 F30000.000
G2 X116.323 Y-64.887 Z3.500 I-0.887 J-0.323 F30000.000
G2 X115.056 Y-64.007 Z3.500 I-0.323 J0.887 F30000.000
G1 X115.056 Y-64.007 Z3.000 F24000.000
G2 X115.677 Y-63.113 Z3.000 I0.944 J0.007 F30000.000
G2 X116.887 Y-63.677 Z3.000 I0.323 J-0.887 F30000.000
G2 X116.323 Y-64.887 Z3.000 I-0.887 J-0.323 F30000.000
G2 X115.056 Y-64.007 Z3.000 I-0.323 J0.887 F30000.000
G1 X115.056 Y-64.007 Z2.500 F24000.000
G2 X115.677 Y-63.113 Z2.500 I0.944 J0.007 F30000.000
G2 X116.887 Y-63.677 Z2.500 I0.323 J-0.887 F30000.000
G2 X116.323 Y-64.887 Z2.500 I-0.887 J-0.323 F30000.000
G2 X115.056 Y-64.007 Z2.500 I-0.323 J0.887 F30000.000
G1 X115.056 Y-64.007 Z2.000 F24000.000
G2 X115.677 Y-63.113 Z2.000 I0.944 J0.007 F30000.000
G2 X116.887 Y-63.677 Z2.000 I0.323 J-0.887 F30000.000
G2 X116.323 Y-64.887 Z2.000 I-0.887 J-0.323 F30000.000
G2 X115.056 Y-64.007 Z2.000 I-0.323 J0.887 F30000.000
G1 X115.056 Y-64.007 Z1.500 F24000.000
G2 X115.677 Y-63.113 Z1.500 I0.944 J0.007 F30000.000
G2 X116.887 Y-63.677 Z1.500 I0.323 J-0.887 F30000.000
G2 X116.323 Y-64.887 Z1.500 I-0.887 J-0.323 F30000.000
G2 X115.056 Y-64.007 Z1.500 I-0.323 J0.887 F30000.000
G1 X115.056 Y-64.007 Z1.000 F24000.000
G2 X115.677 Y-63.113 Z1.000 I0.944 J0.007 F30000.000
G2 X116.887 Y-63.677 Z1.000 I0.323 J-0.887 F30000.000
G2 X116.323 Y-64.887 Z1.000 I-0.887 J-0.323 F30000.000
G2 X115.056 Y-64.007 Z1.000 I-0.323 J0.887 F30000.000
G1 X115.056 Y-64.007 Z0.500 F24000.000
G2 X115.677 Y-63.113 Z0.500 I0.944 J0.007 F30000.000
G2 X116.887 Y-63.677 Z0.500 I0.323 J-0.887 F30000.000
G2 X116.323 Y-64.887 Z0.500 I-0.887 J-0.323 F30000.000
G2 X115.056 Y-64.007 Z0.500 I-0.323 J0.887 F30000.000
G1 X115.056 Y-64.007 Z0.000 F24000.000
G2 X115.677 Y-63.113 Z0.000 I0.944 J0.007 F30000.000
G2 X116.887 Y-63.677 Z0.000 I0.323 J-0.887 F30000.000
G2 X116.323 Y-64.887 Z0.000 I-0.887 J-0.323 F30000.000
G2 X115.056 Y-64.007 Z0.000 I-0.323 J0.887 F30000.000
G1 X115.056 Y-64.007 Z-0.250 F24000.000
G2 X115.677 Y-63.113 Z-0.250 I0.944 J0.007 F30000.000
G2 X116.887 Y-63.677 Z-0.250 I0.323 J-0.887 F30000.000
G2 X116.323 Y-64.887 Z-0.250 I-0.887 J-0.323 F30000.000
G2 X115.056 Y-64.007 Z-0.250 I-0.323 J0.887 F30000.000
G0 Z20.000
G0 Z20.000
G0 X115.056 Y-64.007
G0 X115.968 Y-36.944
G0 X115.968 Y-36.944 Z18.000
G1 X115.968 Y-36.944 Z12.500 F24000.000
G2 X115.677 Y-35.113 Z12.500 I0.032 J0.944 F30000.000
G2 X116.887 Y-35.677 Z12.500 I0.323 J-0.887 F30000.000
G2 X116.323 Y-36.887 Z12.500 I-0.887 J-0.323 F30000.000
G2 X115.968 Y-36.944 Z12.500 I-0.323 J0.887 F30000.000
G1 X115.968 Y-36.944 Z12.000 F24000.000
G2 X115.677 Y-35.113 Z12.000 I0.032 J0.944 F30000.000
G2 X116.887 Y-35.677 Z12.000 I0.323 J-0.887 F30000.000
G2 X116.323 Y-36.887 Z12.000 I-0.887 J-0.323 F30000.000
G2 X115.968 Y-36.944 Z12.000 I-0.323 J0.887 F30000.000
G1 X115.968 Y-36.944 Z11.500 F24000.000
G2 X115.677 Y-35.113 Z11.500 I0.032 J0.944 F30000.000
G2 X116.887 Y-35.677 Z11.500 I0.323 J-0.887 F30000.000
G2 X116.323 Y-36.887 Z11.500 I-0.887 J-0.323 F30000.000
G2 X115.968 Y-36.944 Z11.500 I-0.323 J0.887 F30000.000
G1 X115.968 Y-36.944 Z11.000 F24000.000
G2 X115.677 Y-35.113 Z11.000 I0.032 J0.944 F30000.000
G2 X116.887 Y-35.677 Z11.000 I0.323 J-0.887 F30000.000
G2 X116.323 Y-36.887 Z11.000 I-0.887 J-0.323 F30000.000
G2 X115.968 Y-36.944 Z11.000 I-0.323 J0.887 F30000.000
G1 X115.968 Y-36.944 Z10.500 F24000.000
G2 X115.677 Y-35.113 Z10.500 I0.032 J0.944 F30000.000
G2 X116.887 Y-35.677 Z10.500 I0.323 J-0.887 F30000.000
G2 X116.323 Y-36.887 Z10.500 I-0.887 J-0.323 F30000.000
G2 X115.968 Y-36.944 Z10.500 I-0.323 J0.887 F30000.000
G1 X115.968 Y-36.944 Z10.000 F24000.000
G2 X115.677 Y-35.113 Z10.000 I0.032 J0.944 F30000.000
G2 X116.887 Y-35.677 Z10.000 I0.323 J-0.887 F30000.000
G2 X116.323 Y-36.887 Z10.000 I-0.887 J-0.323 F30000.000
G2 X115.968 Y-36.944 Z10.000 I-0.323 J0.887 F30000.000
G1 X115.968 Y-36.944 Z9.500 F24000.000
G2 X115.677 Y-35.113 Z9.500 I0.032 J0.944 F30000.000
G2 X116.887 Y-35.677 Z9.500 I0.323 J-0.887 F30000.000
G2 X116.323 Y-36.887 Z9.500 I-0.887 J-0.323 F30000.000
G2 X115.968 Y-36.944 Z9.500 I-0.323 J0.887 F30000.000
G1 X115.968 Y-36.944 Z9.000 F24000.000
G2 X115.677 Y-35.113 Z9.000 I0.032 J0.944 F30000.000
G2 X116.887 Y-35.677 Z9.000 I0.323 J-0.887 F30000.000
G2 X116.323 Y-36.887 Z9.000 I-0.887 J-0.323 F30000.000
G2 X115.968 Y-36.944 Z9.000 I-0.323 J0.887 F30000.000
G1 X115.968 Y-36.944 Z8.500 F24000.000
G2 X115.677 Y-35.113 Z8.500 I0.032 J0.944 F30000.000
G2 X116.887 Y-35.677 Z8.500 I0.323 J-0.887 F30000.000
G2 X116.323 Y-36.887 Z8.500 I-0.887 J-0.323 F30000.000
G2 X115.968 Y-36.944 Z8.500 I-0.323 J0.887 F30000.000
G1 X115.968 Y-36.944 Z8.000 F24000.000
G2 X115.677 Y-35.113 Z8.000 I0.032 J0.944 F30000.000
G2 X116.887 Y-35.677 Z8.000 I0.323 J-0.887 F30000.000
G2 X116.323 Y-36.887 Z8.000 I-0.887 J-0.323 F30000.000
G2 X115.968 Y-36.944 Z8.000 I-0.323 J0.887 F30000.000
G1 X115.968 Y-36.944 Z7.500 F24000.000
G2 X115.677 Y-35.113 Z7.500 I0.032 J0.944 F30000.000
G2 X116.887 Y-35.677 Z7.500 I0.323 J-0.887 F30000.000
G2 X116.323 Y-36.887 Z7.500 I-0.887 J-0.323 F30000.000
G2 X115.968 Y-36.944 Z7.500 I-0.323 J0.887 F30000.000
G1 X115.968 Y-36.944 Z7.000 F24000.000
G2 X115.677 Y-35.113 Z7.000 I0.032 J0.944 F30000.000
G2 X116.887 Y-35.677 Z7.000 I0.323 J-0.887 F30000.000
G2 X116.323 Y-36.887 Z7.000 I-0.887 J-0.323 F30000.000
G2 X115.968 Y-36.944 Z7.000 I-0.323 J0.887 F30000.000
G1 X115.968 Y-36.944 Z6.500 F24000.000
G2 X115.677 Y-35.113 Z6.500 I0.032 J0.944 F30000.000
G2 X116.887 Y-35.677 Z6.500 I0.323 J-0.887 F30000.000
G2 X116.323 Y-36.887 Z6.500 I-0.887 J-0.323 F30000.000
G2 X115.968 Y-36.944 Z6.500 I-0.323 J0.887 F30000.000
G1 X115.968 Y-36.944 Z6.000 F24000.000
G2 X115.677 Y-35.113 Z6.000 I0.032 J0.944 F30000.000
G2 X116.887 Y-35.677 Z6.000 I0.323 J-0.887 F30000.000
G2 X116.323 Y-36.887 Z6.000 I-0.887 J-0.323 F30000.000
G2 X115.968 Y-36.944 Z6.000 I-0.323 J0.887 F30000.000
G1 X115.968 Y-36.944 Z5.500 F24000.000
G2 X115.677 Y-35.113 Z5.500 I0.032 J0.944 F30000.000
G2 X116.887 Y-35.677 Z5.500 I0.323 J-0.887 F30000.000
G2 X116.323 Y-36.887 Z5.500 I-0.887 J-0.323 F30000.000
G2 X115.968 Y-36.944 Z5.500 I-0.323 J0.887 F30000.000
G1 X115.968 Y-36.944 Z5.000 F24000.000
G2 X115.677 Y-35.113 Z5.000 I0.032 J0.944 F30000.000
G2 X116.887 Y-35.677 Z5.000 I0.323 J-0.887 F30000.000
G2 X116.323 Y-36.887 Z5.000 I-0.887 J-0.323 F30000.000
G2 X115.968 Y-36.944 Z5.000 I-0.323 J0.887 F30000.000
G1 X115.968 Y-36.944 Z4.500 F24000.000
G2 X115.677 Y-35.113 Z4.500 I0.032 J0.944 F30000.000
G2 X116.887 Y-35.677 Z4.500 I0.323 J-0.887 F30000.000
G2 X116.323 Y-36.887 Z4.500 I-0.887 J-0.323 F30000.000
G2 X115.968 Y-36.944 Z4.500 I-0.323 J0.887 F30000.000
G1 X115.968 Y-36.944 Z4.000 F24000.000
G2 X115.677 Y-35.113 Z4.000 I0.032 J0.944 F30000.000
G2 X116.887 Y-35.677 Z4.000 I0.323 J-0.887 F30000.000
G2 X116.323 Y-36.887 Z4.000 I-0.887 J-0.323 F30000.000
G2 X115.968 Y-36.944 Z4.000 I-0.323 J0.887 F30000.000
G1 X115.968 Y-36.944 Z3.500 F24000.000
G2 X115.677 Y-35.113 Z3.500 I0.032 J0.944 F30000.000
G2 X116.887 Y-35.677 Z3.500 I0.323 J-0.887 F30000.000
G2 X116.323 Y-36.887 Z3.500 I-0.887 J-0.323 F30000.000
G2 X115.968 Y-36.944 Z3.500 I-0.323 J0.887 F30000.000
G1 X115.968 Y-36.944 Z3.000 F24000.000
G2 X115.677 Y-35.113 Z3.000 I0.032 J0.944 F30000.000
G2 X116.887 Y-35.677 Z3.000 I0.323 J-0.887 F30000.000
G2 X116.323 Y-36.887 Z3.000 I-0.887 J-0.323 F30000.000
G2 X115.968 Y-36.944 Z3.000 I-0.323 J0.887 F30000.000
G1 X115.968 Y-36.944 Z2.500 F24000.000
G2 X115.677 Y-35.113 Z2.500 I0.032 J0.944 F30000.000
G2 X116.887 Y-35.677 Z2.500 I0.323 J-0.887 F30000.000
G2 X116.323 Y-36.887 Z2.500 I-0.887 J-0.323 F30000.000
G2 X115.968 Y-36.944 Z2.500 I-0.323 J0.887 F30000.000
G1 X115.968 Y-36.944 Z2.000 F24000.000
G2 X115.677 Y-35.113 Z2.000 I0.032 J0.944 F30000.000
G2 X116.887 Y-35.677 Z2.000 I0.323 J-0.887 F30000.000
G2 X116.323 Y-36.887 Z2.000 I-0.887 J-0.323 F30000.000
G2 X115.968 Y-36.944 Z2.000 I-0.323 J0.887 F30000.000
G1 X115.968 Y-36.944 Z1.500 F24000.000
G2 X115.677 Y-35.113 Z1.500 I0.032 J0.944 F30000.000
G2 X116.887 Y-35.677 Z1.500 I0.323 J-0.887 F30000.000
G2 X116.323 Y-36.887 Z1.500 I-0.887 J-0.323 F30000.000
G2 X115.968 Y-36.944 Z1.500 I-0.323 J0.887 F30000.000
G1 X115.968 Y-36.944 Z1.000 F24000.000
G2 X115.677 Y-35.113 Z1.000 I0.032 J0.944 F30000.000
G2 X116.887 Y-35.677 Z1.000 I0.323 J-0.887 F30000.000
G2 X116.323 Y-36.887 Z1.000 I-0.887 J-0.323 F30000.000
G2 X115.968 Y-36.944 Z1.000 I-0.323 J0.887 F30000.000
G1 X115.968 Y-36.944 Z0.500 F24000.000
G2 X115.677 Y-35.113 Z0.500 I0.032 J0.944 F30000.000
G2 X116.887 Y-35.677 Z0.500 I0.323 J-0.887 F30000.000
G2 X116.323 Y-36.887 Z0.500 I-0.887 J-0.323 F30000.000
G2 X115.968 Y-36.944 Z0.500 I-0.323 J0.887 F30000.000
G1 X115.968 Y-36.944 Z0.000 F24000.000
G2 X115.677 Y-35.113 Z0.000 I0.032 J0.944 F30000.000
G2 X116.887 Y-35.677 Z0.000 I0.323 J-0.887 F30000.000
G2 X116.323 Y-36.887 Z0.000 I-0.887 J-0.323 F30000.000
G2 X115.968 Y-36.944 Z0.000 I-0.323 J0.887 F30000.000
G1 X115.968 Y-36.944 Z-0.250 F24000.000
G2 X115.677 Y-35.113 Z-0.250 I0.032 J0.944 F30000.000
G2 X116.887 Y-35.677 Z-0.250 I0.323 J-0.887 F30000.000
G2 X116.323 Y-36.887 Z-0.250 I-0.887 J-0.323 F30000.000
G2 X115.968 Y-36.944 Z-0.250 I-0.323 J0.887 F30000.000
G0 Z20.000
G0 Z20.000
G0 X115.968 Y-36.944
G0 X90.943 Y-36.034
G0 X90.943 Y-36.034 Z18.000
G1 X90.943 Y-36.034 Z12.500 F24000.000
G2 X90.323 Y-36.887 Z12.500 I-0.943 J0.034 F30000.000
G2 X89.113 Y-36.323 Z12.500 I-0.323 J0.887 F30000.000
G2 X89.677 Y-35.113 Z12.500 I0.887 J0.323 F30000.000
G2 X90.943 Y-36.034 Z12.500 I0.323 J-0.887 F30000.000
G1 X90.943 Y-36.034 Z12.000 F24000.000
G2 X90.323 Y-36.887 Z12.000 I-0.943 J0.034 F30000.000
G2 X89.113 Y-36.323 Z12.000 I-0.323 J0.887 F30000.000
G2 X89.677 Y-35.113 Z12.000 I0.887 J0.323 F30000.000
G2 X90.943 Y-36.034 Z12.000 I0.323 J-0.887 F30000.000
G1 X90.943 Y-36.034 Z11.500 F24000.000
G2 X90.323 Y-36.887 Z11.500 I-0.943 J0.034 F30000.000
G2 X89.113 Y-36.323 Z11.500 I-0.323 J0.887 F30000.000
G2 X89.677 Y-35.113 Z11.500 I0.887 J0.323 F30000.000
G2 X90.943 Y-36.034 Z11.500 I0.323 J-0.887 F30000.000
G1 X90.943 Y-36.034 Z11.000 F24000.000
G2 X90.323 Y-36.887 Z11.000 I-0.943 J0.034 F30000.000
G2 X89.113 Y-36.323 Z11.000 I-0.323 J0.887 F30000.000
G2 X89.677 Y-35.113 Z11.000 I0.887 J0.323 F30000.000
G2 X90.943 Y-36.034 Z11.000 I0.323 J-0.887 F30000.000
G1 X90.943 Y-36.034 Z10.500 F24000.000
G2 X90.323 Y-36.887 Z10.500 I-0.943 J0.034 F30000.000
G2 X89.113 Y-36.323 Z10.500 I-0.323 J0.887 F30000.000
G2 X89.677 Y-35.113 Z10.500 I0.887 J0.323 F30000.000
G2 X90.943 Y-36.034 Z10.500 I0.323 J-0.887 F30000.000
G1 X90.943 Y-36.034 Z10.000 F24000.000
G2 X90.323 Y-36.887 Z10.000 I-0.943 J0.034 F30000.000
G2 X89.113 Y-36.323 Z10.000 I-0.323 J0.887 F30000.000
G2 X89.677 Y-35.113 Z10.000 I0.887 J0.323 F30000.000
G2 X90.943 Y-36.034 Z10.000 I0.323 J-0.887 F30000.000
G1 X90.943 Y-36.034 Z9.500 F24000.000
G2 X90.323 Y-36.887 Z9.500 I-0.943 J0.034 F30000.000
G2 X89.113 Y-36.323 Z9.500 I-0.323 J0.887 F30000.000
G2 X89.677 Y-35.113 Z9.500 I0.887 J0.323 F30000.000
G2 X90.943 Y-36.034 Z9.500 I0.323 J-0.887 F30000.000
G1 X90.943 Y-36.034 Z9.000 F24000.000
G2 X90.323 Y-36.887 Z9.000 I-0.943 J0.034 F30000.000
G2 X89.113 Y-36.323 Z9.000 I-0.323 J0.887 F30000.000
G2 X89.677 Y-35.113 Z9.000 I0.887 J0.323 F30000.000
G2 X90.943 Y-36.034 Z9.000 I0.323 J-0.887 F30000.000
G1 X90.943 Y-36.034 Z8.500 F24000.000
G2 X90.323 Y-36.887 Z8.500 I-0.943 J0.034 F30000.000
G2 X89.113 Y-36.323 Z8.500 I-0.323 J0.887 F30000.000
G2 X89.677 Y-35.113 Z8.500 I0.887 J0.323 F30000.000
G2 X90.943 Y-36.034 Z8.500 I0.323 J-0.887 F30000.000
G1 X90.943 Y-36.034 Z8.000 F24000.000
G2 X90.323 Y-36.887 Z8.000 I-0.943 J0.034 F30000.000
G2 X89.113 Y-36.323 Z8.000 I-0.323 J0.887 F30000.000
G2 X89.677 Y-35.113 Z8.000 I0.887 J0.323 F30000.000
G2 X90.943 Y-36.034 Z8.000 I0.323 J-0.887 F30000.000
G1 X90.943 Y-36.034 Z7.500 F24000.000
G2 X90.323 Y-36.887 Z7.500 I-0.943 J0.034 F30000.000
G2 X89.113 Y-36.323 Z7.500 I-0.323 J0.887 F30000.000
G2 X89.677 Y-35.113 Z7.500 I0.887 J0.323 F30000.000
G2 X90.943 Y-36.034 Z7.500 I0.323 J-0.887 F30000.000
G1 X90.943 Y-36.034 Z7.000 F24000.000
G2 X90.323 Y-36.887 Z7.000 I-0.943 J0.034 F30000.000
G2 X89.113 Y-36.323 Z7.000 I-0.323 J0.887 F30000.000
G2 X89.677 Y-35.113 Z7.000 I0.887 J0.323 F30000.000
G2 X90.943 Y-36.034 Z7.000 I0.323 J-0.887 F30000.000
G1 X90.943 Y-36.034 Z6.500 F24000.000
G2 X90.323 Y-36.887 Z6.500 I-0.943 J0.034 F30000.000
G2 X89.113 Y-36.323 Z6.500 I-0.323 J0.887 F30000.000
G2 X89.677 Y-35.113 Z6.500 I0.887 J0.323 F30000.000
G2 X90.943 Y-36.034 Z6.500 I0.323 J-0.887 F30000.000
G1 X90.943 Y-36.034 Z6.000 F24000.000
G2 X90.323 Y-36.887 Z6.000 I-0.943 J0.034 F30000.000
G2 X89.113 Y-36.323 Z6.000 I-0.323 J0.887 F30000.000
G2 X89.677 Y-35.113 Z6.000 I0.887 J0.323 F30000.000
G2 X90.943 Y-36.034 Z6.000 I0.323 J-0.887 F30000.000
G1 X90.943 Y-36.034 Z5.500 F24000.000
G2 X90.323 Y-36.887 Z5.500 I-0.943 J0.034 F30000.000
G2 X89.113 Y-36.323 Z5.500 I-0.323 J0.887 F30000.000
G2 X89.677 Y-35.113 Z5.500 I0.887 J0.323 F30000.000
G2 X90.943 Y-36.034 Z5.500 I0.323 J-0.887 F30000.000
G1 X90.943 Y-36.034 Z5.000 F24000.000
G2 X90.323 Y-36.887 Z5.000 I-0.943 J0.034 F30000.000
G2 X89.113 Y-36.323 Z5.000 I-0.323 J0.887 F30000.000
G2 X89.677 Y-35.113 Z5.000 I0.887 J0.323 F30000.000
G2 X90.943 Y-36.034 Z5.000 I0.323 J-0.887 F30000.000
G1 X90.943 Y-36.034 Z4.500 F24000.000
G2 X90.323 Y-36.887 Z4.500 I-0.943 J0.034 F30000.000
G2 X89.113 Y-36.323 Z4.500 I-0.323 J0.887 F30000.000
G2 X89.677 Y-35.113 Z4.500 I0.887 J0.323 F30000.000
G2 X90.943 Y-36.034 Z4.500 I0.323 J-0.887 F30000.000
G1 X90.943 Y-36.034 Z4.000 F24000.000
G2 X90.323 Y-36.887 Z4.000 I-0.943 J0.034 F30000.000
G2 X89.113 Y-36.323 Z4.000 I-0.323 J0.887 F30000.000
G2 X89.677 Y-35.113 Z4.000 I0.887 J0.323 F30000.000
G2 X90.943 Y-36.034 Z4.000 I0.323 J-0.887 F30000.000
G1 X90.943 Y-36.034 Z3.500 F24000.000
G2 X90.323 Y-36.887 Z3.500 I-0.943 J0.034 F30000.000
G2 X89.113 Y-36.323 Z3.500 I-0.323 J0.887 F30000.000
G2 X89.677 Y-35.113 Z3.500 I0.887 J0.323 F30000.000
G2 X90.943 Y-36.034 Z3.500 I0.323 J-0.887 F30000.000
G1 X90.943 Y-36.034 Z3.000 F24000.000
G2 X90.323 Y-36.887 Z3.000 I-0.943 J0.034 F30000.000
G2 X89.113 Y-36.323 Z3.000 I-0.323 J0.887 F30000.000
G2 X89.677 Y-35.113 Z3.000 I0.887 J0.323 F30000.000
G2 X90.943 Y-36.034 Z3.000 I0.323 J-0.887 F30000.000
G1 X90.943 Y-36.034 Z2.500 F24000.000
G2 X90.323 Y-36.887 Z2.500 I-0.943 J0.034 F30000.000
G2 X89.113 Y-36.323 Z2.500 I-0.323 J0.887 F30000.000
G2 X89.677 Y-35.113 Z2.500 I0.887 J0.323 F30000.000
G2 X90.943 Y-36.034 Z2.500 I0.323 J-0.887 F30000.000
G1 X90.943 Y-36.034 Z2.000 F24000.000
G2 X90.323 Y-36.887 Z2.000 I-0.943 J0.034 F30000.000
G2 X89.113 Y-36.323 Z2.000 I-0.323 J0.887 F30000.000
G2 X89.677 Y-35.113 Z2.000 I0.887 J0.323 F30000.000
G2 X90.943 Y-36.034 Z2.000 I0.323 J-0.887 F30000.000
G1 X90.943 Y-36.034 Z1.500 F24000.000
G2 X90.323 Y-36.887 Z1.500 I-0.943 J0.034 F30000.000
G2 X89.113 Y-36.323 Z1.500 I-0.323 J0.887 F30000.000
G2 X89.677 Y-35.113 Z1.500 I0.887 J0.323 F30000.000
G2 X90.943 Y-36.034 Z1.500 I0.323 J-0.887 F30000.000
G1 X90.943 Y-36.034 Z1.000 F24000.000
G2 X90.323 Y-36.887 Z1.000 I-0.943 J0.034 F30000.000
G2 X89.113 Y-36.323 Z1.000 I-0.323 J0.887 F30000.000
G2 X89.677 Y-35.113 Z1.000 I0.887 J0.323 F30000.000
G2 X90.943 Y-36.034 Z1.000 I0.323 J-0.887 F30000.000
G1 X90.943 Y-36.034 Z0.500 F24000.000
G2 X90.323 Y-36.887 Z0.500 I-0.943 J0.034 F30000.000
G2 X89.113 Y-36.323 Z0.500 I-0.323 J0.887 F30000.000
G2 X89.677 Y-35.113 Z0.500 I0.887 J0.323 F30000.000
G2 X90.943 Y-36.034 Z0.500 I0.323 J-0.887 F30000.000
G1 X90.943 Y-36.034 Z0.000 F24000.000
G2 X90.323 Y-36.887 Z0.000 I-0.943 J0.034 F30000.000
G2 X89.113 Y-36.323 Z0.000 I-0.323 J0.887 F30000.000
G2 X89.677 Y-35.113 Z0.000 I0.887 J0.323 F30000.000
G2 X90.943 Y-36.034 Z0.000 I0.323 J-0.887 F30000.000
G1 X90.943 Y-36.034 Z-0.250 F24000.000
G2 X90.323 Y-36.887 Z-0.250 I-0.943 J0.034 F30000.000
G2 X89.113 Y-36.323 Z-0.250 I-0.323 J0.887 F30000.000
G2 X89.677 Y-35.113 Z-0.250 I0.887 J0.323 F30000.000
G2 X90.943 Y-36.034 Z-0.250 I0.323 J-0.887 F30000.000
G0 Z20.000
G0 Z20.000
G0 X90.943 Y-36.034
G0 X75.913 Y-32.804
G0 X75.913 Y-32.804 Z18.000
G1 X75.913 Y-32.804 Z12.500 F24000.000
G2 X74.947 Y-33.874 Z12.500 I-1.413 J0.304 F30000.000
G2 X74.053 Y-31.126 Z12.500 I-0.447 J1.374 F30000.000
G2 X75.913 Y-32.804 Z12.500 I0.447 J-1.374 F30000.000
G1 X75.913 Y-32.804 Z12.000 F24000.000
G2 X74.947 Y-33.874 Z12.000 I-1.413 J0.304 F30000.000
G2 X74.053 Y-31.126 Z12.000 I-0.447 J1.374 F30000.000
G2 X75.913 Y-32.804 Z12.000 I0.447 J-1.374 F30000.000
G1 X75.913 Y-32.804 Z11.500 F24000.000
G2 X74.947 Y-33.874 Z11.500 I-1.413 J0.304 F30000.000
G2 X74.053 Y-31.126 Z11.500 I-0.447 J1.374 F30000.000
G2 X75.913 Y-32.804 Z11.500 I0.447 J-1.374 F30000.000
G1 X75.913 Y-32.804 Z11.000 F24000.000
G2 X74.947 Y-33.874 Z11.000 I-1.413 J0.304 F30000.000
G2 X74.053 Y-31.126 Z11.000 I-0.447 J1.374 F30000.000
G2 X75.913 Y-32.804 Z11.000 I0.447 J-1.374 F30000.000
G1 X75.913 Y-32.804 Z10.500 F24000.000
G2 X74.947 Y-33.874 Z10.500 I-1.413 J0.304 F30000.000
G2 X74.053 Y-31.126 Z10.500 I-0.447 J1.374 F30000.000
G2 X75.913 Y-32.804 Z10.500 I0.447 J-1.374 F30000.000
G1 X75.913 Y-32.804 Z10.000 F24000.000
G2 X74.947 Y-33.874 Z10.000 I-1.413 J0.304 F30000.000
G2 X74.053 Y-31.126 Z10.000 I-0.447 J1.374 F30000.000
G2 X75.913 Y-32.804 Z10.000 I0.447 J-1.374 F30000.000
G1 X75.913 Y-32.804 Z9.500 F24000.000
G2 X74.947 Y-33.874 Z9.500 I-1.413 J0.304 F30000.000
G2 X74.053 Y-31.126 Z9.500 I-0.447 J1.374 F30000.000
G2 X75.913 Y-32.804 Z9.500 I0.447 J-1.374 F30000.000
G1 X75.913 Y-32.804 Z9.000 F24000.000
G2 X74.947 Y-33.874 Z9.000 I-1.413 J0.304 F30000.000
G2 X74.053 Y-31.126 Z9.000 I-0.447 J1.374 F30000.000
G2 X75.913 Y-32.804 Z9.000 I0.447 J-1.374 F30000.000
G1 X75.913 Y-32.804 Z8.500 F24000.000
G2 X74.947 Y-33.874 Z8.500 I-1.413 J0.304 F30000.000
G2 X74.053 Y-31.126 Z8.500 I-0.447 J1.374 F30000.000
G2 X75.913 Y-32.804 Z8.500 I0.447 J-1.374 F30000.000
G1 X75.913 Y-32.804 Z8.000 F24000.000
G2 X74.947 Y-33.874 Z8.000 I-1.413 J0.304 F30000.000
G2 X74.053 Y-31.126 Z8.000 I-0.447 J1.374 F30000.000
G2 X75.913 Y-32.804 Z8.000 I0.447 J-1.374 F30000.000
G1 X75.913 Y-32.804 Z7.500 F24000.000
G2 X74.947 Y-33.874 Z7.500 I-1.413 J0.304 F30000.000
G2 X74.053 Y-31.126 Z7.500 I-0.447 J1.374 F30000.000
G2 X75.913 Y-32.804 Z7.500 I0.447 J-1.374 F30000.000
G1 X75.913 Y-32.804 Z7.000 F24000.000
G2 X74.947 Y-33.874 Z7.000 I-1.413 J0.304 F30000.000
G2 X74.053 Y-31.126 Z7.000 I-0.447 J1.374 F30000.000
G2 X75.913 Y-32.804 Z7.000 I0.447 J-1.374 F30000.000
G1 X75.913 Y-32.804 Z6.500 F24000.000
G2 X74.947 Y-33.874 Z6.500 I-1.413 J0.304 F30000.000
G2 X74.053 Y-31.126 Z6.500 I-0.447 J1.374 F30000.000
G2 X75.913 Y-32.804 Z6.500 I0.447 J-1.374 F30000.000
G1 X75.913 Y-32.804 Z6.000 F24000.000
G2 X74.947 Y-33.874 Z6.000 I-1.413 J0.304 F30000.000
G2 X74.053 Y-31.126 Z6.000 I-0.447 J1.374 F30000.000
G2 X75.913 Y-32.804 Z6.000 I0.447 J-1.374 F30000.000
G1 X75.913 Y-32.804 Z5.500 F24000.000
G2 X74.947 Y-33.874 Z5.500 I-1.413 J0.304 F30000.000
G2 X74.053 Y-31.126 Z5.500 I-0.447 J1.374 F30000.000
G2 X75.913 Y-32.804 Z5.500 I0.447 J-1.374 F30000.000
G1 X75.913 Y-32.804 Z5.000 F24000.000
G2 X74.947 Y-33.874 Z5.000 I-1.413 J0.304 F30000.000
G2 X74.053 Y-31.126 Z5.000 I-0.447 J1.374 F30000.000
G2 X75.913 Y-32.804 Z5.000 I0.447 J-1.374 F30000.000
G1 X75.913 Y-32.804 Z4.500 F24000.000
G2 X74.947 Y-33.874 Z4.500 I-1.413 J0.304 F30000.000
G2 X74.053 Y-31.126 Z4.500 I-0.447 J1.374 F30000.000
G2 X75.913 Y-32.804 Z4.500 I0.447 J-1.374 F30000.000
G1 X75.913 Y-32.804 Z4.000 F24000.000
G2 X74.947 Y-33.874 Z4.000 I-1.413 J0.304 F30000.000
G2 X74.053 Y-31.126 Z4.000 I-0.447 J1.374 F30000.000
G2 X75.913 Y-32.804 Z4.000 I0.447 J-1.374 F30000.000
G1 X75.913 Y-32.804 Z3.500 F24000.000
G2 X74.947 Y-33.874 Z3.500 I-1.413 J0.304 F30000.000
G2 X74.053 Y-31.126 Z3.500 I-0.447 J1.374 F30000.000
G2 X75.913 Y-32.804 Z3.500 I0.447 J-1.374 F30000.000
G1 X75.913 Y-32.804 Z3.000 F24000.000
G2 X74.947 Y-33.874 Z3.000 I-1.413 J0.304 F30000.000
G2 X74.053 Y-31.126 Z3.000 I-0.447 J1.374 F30000.000
G2 X75.913 Y-32.804 Z3.000 I0.447 J-1.374 F30000.000
G1 X75.913 Y-32.804 Z2.500 F24000.000
G2 X74.947 Y-33.874 Z2.500 I-1.413 J0.304 F30000.000
G2 X74.053 Y-31.126 Z2.500 I-0.447 J1.374 F30000.000
G2 X75.913 Y-32.804 Z2.500 I0.447 J-1.374 F30000.000
G1 X75.913 Y-32.804 Z2.000 F24000.000
G2 X74.947 Y-33.874 Z2.000 I-1.413 J0.304 F30000.000
G2 X74.053 Y-31.126 Z2.000 I-0.447 J1.374 F30000.000
G2 X75.913 Y-32.804 Z2.000 I0.447 J-1.374 F30000.000
G1 X75.913 Y-32.804 Z1.500 F24000.000
G2 X74.947 Y-33.874 Z1.500 I-1.413 J0.304 F30000.000
G2 X74.053 Y-31.126 Z1.500 I-0.447 J1.374 F30000.000
G2 X75.913 Y-32.804 Z1.500 I0.447 J-1.374 F30000.000
G1 X75.913 Y-32.804 Z1.000 F24000.000
G2 X74.947 Y-33.874 Z1.000 I-1.413 J0.304 F30000.000
G2 X74.053 Y-31.126 Z1.000 I-0.447 J1.374 F30000.000
G2 X75.913 Y-32.804 Z1.000 I0.447 J-1.374 F30000.000
G1 X75.913 Y-32.804 Z0.500 F24000.000
G2 X74.947 Y-33.874 Z0.500 I-1.413 J0.304 F30000.000
G2 X74.053 Y-31.126 Z0.500 I-0.447 J1.374 F30000.000
G2 X75.913 Y-32.804 Z0.500 I0.447 J-1.374 F30000.000
G1 X75.913 Y-32.804 Z0.000 F24000.000
G2 X74.947 Y-33.874 Z0.000 I-1.413 J0.304 F30000.000
G2 X74.053 Y-31.126 Z0.000 I-0.447 J1.374 F30000.000
G2 X75.913 Y-32.804 Z0.000 I0.447 J-1.374 F30000.000
G1 X75.913 Y-32.804 Z-0.250 F24000.000
G2 X74.947 Y-33.874 Z-0.250 I-1.413 J0.304 F30000.000
G2 X74.053 Y-31.126 Z-0.250 I-0.447 J1.374 F30000.000
G2 X75.913 Y-32.804 Z-0.250 I0.447 J-1.374 F30000.000
G0 Z20.000
G0 Z20.000
G0 X75.913 Y-32.804
G0 X74.531 Y31.055
G0 X74.531 Y31.055 Z18.000
G1 X74.531 Y31.055 Z12.500 F24000.000
G2 X74.053 Y33.874 Z12.500 I-0.031 J1.445 F30000.000
G2 X74.947 Y31.126 Z12.500 I0.447 J-1.374 F30000.000
G2 X74.531 Y31.055 Z12.500 I-0.447 J1.374 F30000.000
G1 X74.531 Y31.055 Z12.000 F24000.000
G2 X74.053 Y33.874 Z12.000 I-0.031 J1.445 F30000.000
G2 X74.947 Y31.126 Z12.000 I0.447 J-1.374 F30000.000
G2 X74.531 Y31.055 Z12.000 I-0.447 J1.374 F30000.000
G1 X74.531 Y31.055 Z11.500 F24000.000
G2 X74.053 Y33.874 Z11.500 I-0.031 J1.445 F30000.000
G2 X74.947 Y31.126 Z11.500 I0.447 J-1.374 F30000.000
G2 X74.531 Y31.055 Z11.500 I-0.447 J1.374 F30000.000
G1 X74.531 Y31.055 Z11.000 F24000.000
G2 X74.053 Y33.874 Z11.000 I-0.031 J1.445 F30000.000
G2 X74.947 Y31.126 Z11.000 I0.447 J-1.374 F30000.000
G2 X74.531 Y31.055 Z11.000 I-0.447 J1.374 F30000.000
G1 X74.531 Y31.055 Z10.500 F24000.000
G2 X74.053 Y33.874 Z10.500 I-0.031 J1.445 F30000.000
G2 X74.947 Y31.126 Z10.500 I0.447 J-1.374 F30000.000
G2 X74.531 Y31.055 Z10.500 I-0.447 J1.374 F30000.000
G1 X74.531 Y31.055 Z10.000 F24000.000
G2 X74.053 Y33.874 Z10.000 I-0.031 J1.445 F30000.000
G2 X74.947 Y31.126 Z10.000 I0.447 J-1.374 F30000.000
G2 X74.531 Y31.055 Z10.000 I-0.447 J1.374 F30000.000
G1 X74.531 Y31.055 Z9.500 F24000.000
G2 X74.053 Y33.874 Z9.500 I-0.031 J1.445 F30000.000
G2 X74.947 Y31.126 Z9.500 I0.447 J-1.374 F30000.000
G2 X74.531 Y31.055 Z9.500 I-0.447 J1.374 F30000.000
G1 X74.531 Y31.055 Z9.000 F24000.000
G2 X74.053 Y33.874 Z9.000 I-0.031 J1.445 F30000.000
G2 X74.947 Y31.126 Z9.000 I0.447 J-1.374 F30000.000
G2 X74.531 Y31.055 Z9.000 I-0.447 J1.374 F30000.000
G1 X74.531 Y31.055 Z8.500 F24000.000
G2 X74.053 Y33.874 Z8.500 I-0.031 J1.445 F30000.000
G2 X74.947 Y31.126 Z8.500 I0.447 J-1.374 F30000.000
G2 X74.531 Y31.055 Z8.500 I-0.447 J1.374 F30000.000
G1 X74.531 Y31.055 Z8.000 F24000.000
G2 X74.053 Y33.874 Z8.000 I-0.031 J1.445 F30000.000
G2 X74.947 Y31.126 Z8.000 I0.447 J-1.374 F30000.000
G2 X74.531 Y31.055 Z8.000 I-0.447 J1.374 F30000.000
G1 X74.531 Y31.055 Z7.500 F24000.000
G2 X74.053 Y33.874 Z7.500 I-0.031 J1.445 F30000.000
G2 X74.947 Y31.126 Z7.500 I0.447 J-1.374 F30000.000
G2 X74.531 Y31.055 Z7.500 I-0.447 J1.374 F30000.000
G1 X74.531 Y31.055 Z7.000 F24000.000
G2 X74.053 Y33.874 Z7.000 I-0.031 J1.445 F30000.000
G2 X74.947 Y31.126 Z7.000 I0.447 J-1.374 F30000.000
G2 X74.531 Y31.055 Z7.000 I-0.447 J1.374 F30000.000
G1 X74.531 Y31.055 Z6.500 F24000.000
G2 X74.053 Y33.874 Z6.500 I-0.031 J1.445 F30000.000
G2 X74.947 Y31.126 Z6.500 I0.447 J-1.374 F30000.000
G2 X74.531 Y31.055 Z6.500 I-0.447 J1.374 F30000.000
G1 X74.531 Y31.055 Z6.000 F24000.000
G2 X74.053 Y33.874 Z6.000 I-0.031 J1.445 F30000.000
G2 X74.947 Y31.126 Z6.000 I0.447 J-1.374 F30000.000
G2 X74.531 Y31.055 Z6.000 I-0.447 J1.374 F30000.000
G1 X74.531 Y31.055 Z5.500 F24000.000
G2 X74.053 Y33.874 Z5.500 I-0.031 J1.445 F30000.000
G2 X74.947 Y31.126 Z5.500 I0.447 J-1.374 F30000.000
G2 X74.531 Y31.055 Z5.500 I-0.447 J1.374 F30000.000
G1 X74.531 Y31.055 Z5.000 F24000.000
G2 X74.053 Y33.874 Z5.000 I-0.031 J1.445 F30000.000
G2 X74.947 Y31.126 Z5.000 I0.447 J-1.374 F30000.000
G2 X74.531 Y31.055 Z5.000 I-0.447 J1.374 F30000.000
G1 X74.531 Y31.055 Z4.500 F24000.000
G2 X74.053 Y33.874 Z4.500 I-0.031 J1.445 F30000.000
G2 X74.947 Y31.126 Z4.500 I0.447 J-1.374 F30000.000
G2 X74.531 Y31.055 Z4.500 I-0.447 J1.374 F30000.000
G1 X74.531 Y31.055 Z4.000 F24000.000
G2 X74.053 Y33.874 Z4.000 I-0.031 J1.445 F30000.000
G2 X74.947 Y31.126 Z4.000 I0.447 J-1.374 F30000.000
G2 X74.531 Y31.055 Z4.000 I-0.447 J1.374 F30000.000
G1 X74.531 Y31.055 Z3.500 F24000.000
G2 X74.053 Y33.874 Z3.500 I-0.031 J1.445 F30000.000
G2 X74.947 Y31.126 Z3.500 I0.447 J-1.374 F30000.000
G2 X74.531 Y31.055 Z3.500 I-0.447 J1.374 F30000.000
G1 X74.531 Y31.055 Z3.000 F24000.000
G2 X74.053 Y33.874 Z3.000 I-0.031 J1.445 F30000.000
G2 X74.947 Y31.126 Z3.000 I0.447 J-1.374 F30000.000
G2 X74.531 Y31.055 Z3.000 I-0.447 J1.374 F30000.000
G1 X74.531 Y31.055 Z2.500 F24000.000
G2 X74.053 Y33.874 Z2.500 I-0.031 J1.445 F30000.000
G2 X74.947 Y31.126 Z2.500 I0.447 J-1.374 F30000.000
G2 X74.531 Y31.055 Z2.500 I-0.447 J1.374 F30000.000
G1 X74.531 Y31.055 Z2.000 F24000.000
G2 X74.053 Y33.874 Z2.000 I-0.031 J1.445 F30000.000
G2 X74.947 Y31.126 Z2.000 I0.447 J-1.374 F30000.000
G2 X74.531 Y31.055 Z2.000 I-0.447 J1.374 F30000.000
G1 X74.531 Y31.055 Z1.500 F24000.000
G2 X74.053 Y33.874 Z1.500 I-0.031 J1.445 F30000.000
G2 X74.947 Y31.126 Z1.500 I0.447 J-1.374 F30000.000
G2 X74.531 Y31.055 Z1.500 I-0.447 J1.374 F30000.000
G1 X74.531 Y31.055 Z1.000 F24000.000
G2 X74.053 Y33.874 Z1.000 I-0.031 J1.445 F30000.000
G2 X74.947 Y31.126 Z1.000 I0.447 J-1.374 F30000.000
G2 X74.531 Y31.055 Z1.000 I-0.447 J1.374 F30000.000
G1 X74.531 Y31.055 Z0.500 F24000.000
G2 X74.053 Y33.874 Z0.500 I-0.031 J1.445 F30000.000
G2 X74.947 Y31.126 Z0.500 I0.447 J-1.374 F30000.000
G2 X74.531 Y31.055 Z0.500 I-0.447 J1.374 F30000.000
G1 X74.531 Y31.055 Z0.000 F24000.000
G2 X74.053 Y33.874 Z0.000 I-0.031 J1.445 F30000.000
G2 X74.947 Y31.126 Z0.000 I0.447 J-1.374 F30000.000
G2 X74.531 Y31.055 Z0.000 I-0.447 J1.374 F30000.000
G1 X74.531 Y31.055 Z-0.250 F24000.000
G2 X74.053 Y33.874 Z-0.250 I-0.031 J1.445 F30000.000
G2 X74.947 Y31.126 Z-0.250 I0.447 J-1.374 F30000.000
G2 X74.531 Y31.055 Z-0.250 I-0.447 J1.374 F30000.000
G0 Z20.000
G0 Z20.000
G0 X74.531 Y31.055
G0 X89.101 Y35.713
G0 X89.101 Y35.713 Z18.000
G1 X89.101 Y35.713 Z12.500 F24000.000
G2 X89.677 Y36.887 Z12.500 I0.899 J0.287 F30000.000
G2 X90.887 Y36.323 Z12.500 I0.323 J-0.887 F30000.000
G2 X90.323 Y35.113 Z12.500 I-0.887 J-0.323 F30000.000
G2 X89.101 Y35.713 Z12.500 I-0.323 J0.887 F30000.000
G1 X89.101 Y35.713 Z12.000 F24000.000
G2 X89.677 Y36.887 Z12.000 I0.899 J0.287 F30000.000
G2 X90.887 Y36.323 Z12.000 I0.323 J-0.887 F30000.000
G2 X90.323 Y35.113 Z12.000 I-0.887 J-0.323 F30000.000
G2 X89.101 Y35.713 Z12.000 I-0.323 J0.887 F30000.000
G1 X89.101 Y35.713 Z11.500 F24000.000
G2 X89.677 Y36.887 Z11.500 I0.899 J0.287 F30000.000
G2 X90.887 Y36.323 Z11.500 I0.323 J-0.887 F30000.000
G2 X90.323 Y35.113 Z11.500 I-0.887 J-0.323 F30000.000
G2 X89.101 Y35.713 Z11.500 I-0.323 J0.887 F30000.000
G1 X89.101 Y35.713 Z11.000 F24000.000
G2 X89.677 Y36.887 Z11.000 I0.899 J0.287 F30000.000
G2 X90.887 Y36.323 Z11.000 I0.323 J-0.887 F30000.000
G2 X90.323 Y35.113 Z11.000 I-0.887 J-0.323 F30000.000
G2 X89.101 Y35.713 Z11.000 I-0.323 J0.887 F30000.000
G1 X89.101 Y35.713 Z10.500 F24000.000
G2 X89.677 Y36.887 Z10.500 I0.899 J0.287 F30000.000
G2 X90.887 Y36.323 Z10.500 I0.323 J-0.887 F30000.000
G2 X90.323 Y35.113 Z10.500 I-0.887 J-0.323 F30000.000
G2 X89.101 Y35.713 Z10.500 I-0.323 J0.887 F30000.000
G1 X89.101 Y35.713 Z10.000 F24000.000
G2 X89.677 Y36.887 Z10.000 I0.899 J0.287 F30000.000
G2 X90.887 Y36.323 Z10.000 I0.323 J-0.887 F30000.000
G2 X90.323 Y35.113 Z10.000 I-0.887 J-0.323 F30000.000
G2 X89.101 Y35.713 Z10.000 I-0.323 J0.887 F30000.000
G1 X89.101 Y35.713 Z9.500 F24000.000
G2 X89.677 Y36.887 Z9.500 I0.899 J0.287 F30000.000
G2 X90.887 Y36.323 Z9.500 I0.323 J-0.887 F30000.000
G2 X90.323 Y35.113 Z9.500 I-0.887 J-0.323 F30000.000
G2 X89.101 Y35.713 Z9.500 I-0.323 J0.887 F30000.000
G1 X89.101 Y35.713 Z9.000 F24000.000
G2 X89.677 Y36.887 Z9.000 I0.899 J0.287 F30000.000
G2 X90.887 Y36.323 Z9.000 I0.323 J-0.887 F30000.000
G2 X90.323 Y35.113 Z9.000 I-0.887 J-0.323 F30000.000
G2 X89.101 Y35.713 Z9.000 I-0.323 J0.887 F30000.000
G1 X89.101 Y35.713 Z8.500 F24000.000
G2 X89.677 Y36.887 Z8.500 I0.899 J0.287 F30000.000
G2 X90.887 Y36.323 Z8.500 I0.323 J-0.887 F30000.000
G2 X90.323 Y35.113 Z8.500 I-0.887 J-0.323 F30000.000
G2 X89.101 Y35.713 Z8.500 I-0.323 J0.887 F30000.000
G1 X89.101 Y35.713 Z8.000 F24000.000
G2 X89.677 Y36.887 Z8.000 I0.899 J0.287 F30000.000
G2 X90.887 Y36.323 Z8.000 I0.323 J-0.887 F30000.000
G2 X90.323 Y35.113 Z8.000 I-0.887 J-0.323 F30000.000
G2 X89.101 Y35.713 Z8.000 I-0.323 J0.887 F30000.000
G1 X89.101 Y35.713 Z7.500 F24000.000
G2 X89.677 Y36.887 Z7.500 I0.899 J0.287 F30000.000
G2 X90.887 Y36.323 Z7.500 I0.323 J-0.887 F30000.000
G2 X90.323 Y35.113 Z7.500 I-0.887 J-0.323 F30000.000
G2 X89.101 Y35.713 Z7.500 I-0.323 J0.887 F30000.000
G1 X89.101 Y35.713 Z7.000 F24000.000
G2 X89.677 Y36.887 Z7.000 I0.899 J0.287 F30000.000
G2 X90.887 Y36.323 Z7.000 I0.323 J-0.887 F30000.000
G2 X90.323 Y35.113 Z7.000 I-0.887 J-0.323 F30000.000
G2 X89.101 Y35.713 Z7.000 I-0.323 J0.887 F30000.000
G1 X89.101 Y35.713 Z6.500 F24000.000
G2 X89.677 Y36.887 Z6.500 I0.899 J0.287 F30000.000
G2 X90.887 Y36.323 Z6.500 I0.323 J-0.887 F30000.000
G2 X90.323 Y35.113 Z6.500 I-0.887 J-0.323 F30000.000
G2 X89.101 Y35.713 Z6.500 I-0.323 J0.887 F30000.000
G1 X89.101 Y35.713 Z6.000 F24000.000
G2 X89.677 Y36.887 Z6.000 I0.899 J0.287 F30000.000
G2 X90.887 Y36.323 Z6.000 I0.323 J-0.887 F30000.000
G2 X90.323 Y35.113 Z6.000 I-0.887 J-0.323 F30000.000
G2 X89.101 Y35.713 Z6.000 I-0.323 J0.887 F30000.000
G1 X89.101 Y35.713 Z5.500 F24000.000
G2 X89.677 Y36.887 Z5.500 I0.899 J0.287 F30000.000
G2 X90.887 Y36.323 Z5.500 I0.323 J-0.887 F30000.000
G2 X90.323 Y35.113 Z5.500 I-0.887 J-0.323 F30000.000
G2 X89.101 Y35.713 Z5.500 I-0.323 J0.887 F30000.000
G1 X89.101 Y35.713 Z5.000 F24000.000
G2 X89.677 Y36.887 Z5.000 I0.899 J0.287 F30000.000
G2 X90.887 Y36.323 Z5.000 I0.323 J-0.887 F30000.000
G2 X90.323 Y35.113 Z5.000 I-0.887 J-0.323 F30000.000
G2 X89.101 Y35.713 Z5.000 I-0.323 J0.887 F30000.000
G1 X89.101 Y35.713 Z4.500 F24000.000
G2 X89.677 Y36.887 Z4.500 I0.899 J0.287 F30000.000
G2 X90.887 Y36.323 Z4.500 I0.323 J-0.887 F30000.000
G2 X90.323 Y35.113 Z4.500 I-0.887 J-0.323 F30000.000
G2 X89.101 Y35.713 Z4.500 I-0.323 J0.887 F30000.000
G1 X89.101 Y35.713 Z4.000 F24000.000
G2 X89.677 Y36.887 Z4.000 I0.899 J0.287 F30000.000
G2 X90.887 Y36.323 Z4.000 I0.323 J-0.887 F30000.000
G2 X90.323 Y35.113 Z4.000 I-0.887 J-0.323 F30000.000
G2 X89.101 Y35.713 Z4.000 I-0.323 J0.887 F30000.000
G1 X89.101 Y35.713 Z3.500 F24000.000
G2 X89.677 Y36.887 Z3.500 I0.899 J0.287 F30000.000
G2 X90.887 Y36.323 Z3.500 I0.323 J-0.887 F30000.000
G2 X90.323 Y35.113 Z3.500 I-0.887 J-0.323 F30000.000
G2 X89.101 Y35.713 Z3.500 I-0.323 J0.887 F30000.000
G1 X89.101 Y35.713 Z3.000 F24000.000
G2 X89.677 Y36.887 Z3.000 I0.899 J0.287 F30000.000
G2 X90.887 Y36.323 Z3.000 I0.323 J-0.887 F30000.000
G2 X90.323 Y35.113 Z3.000 I-0.887 J-0.323 F30000.000
G2 X89.101 Y35.713 Z3.000 I-0.323 J0.887 F30000.000
G1 X89.101 Y35.713 Z2.500 F24000.000
G2 X89.677 Y36.887 Z2.500 I0.899 J0.287 F30000.000
G2 X90.887 Y36.323 Z2.500 I0.323 J-0.887 F30000.000
G2 X90.323 Y35.113 Z2.500 I-0.887 J-0.323 F30000.000
G2 X89.101 Y35.713 Z2.500 I-0.323 J0.887 F30000.000
G1 X89.101 Y35.713 Z2.000 F24000.000
G2 X89.677 Y36.887 Z2.000 I0.899 J0.287 F30000.000
G2 X90.887 Y36.323 Z2.000 I0.323 J-0.887 F30000.000
G2 X90.323 Y35.113 Z2.000 I-0.887 J-0.323 F30000.000
G2 X89.101 Y35.713 Z2.000 I-0.323 J0.887 F30000.000
G1 X89.101 Y35.713 Z1.500 F24000.000
G2 X89.677 Y36.887 Z1.500 I0.899 J0.287 F30000.000
G2 X90.887 Y36.323 Z1.500 I0.323 J-0.887 F30000.000
G2 X90.323 Y35.113 Z1.500 I-0.887 J-0.323 F30000.000
G2 X89.101 Y35.713 Z1.500 I-0.323 J0.887 F30000.000
G1 X89.101 Y35.713 Z1.000 F24000.000
G2 X89.677 Y36.887 Z1.000 I0.899 J0.287 F30000.000
G2 X90.887 Y36.323 Z1.000 I0.323 J-0.887 F30000.000
G2 X90.323 Y35.113 Z1.000 I-0.887 J-0.323 F30000.000
G2 X89.101 Y35.713 Z1.000 I-0.323 J0.887 F30000.000
G1 X89.101 Y35.713 Z0.500 F24000.000
G2 X89.677 Y36.887 Z0.500 I0.899 J0.287 F30000.000
G2 X90.887 Y36.323 Z0.500 I0.323 J-0.887 F30000.000
G2 X90.323 Y35.113 Z0.500 I-0.887 J-0.323 F30000.000
G2 X89.101 Y35.713 Z0.500 I-0.323 J0.887 F30000.000
G1 X89.101 Y35.713 Z0.000 F24000.000
G2 X89.677 Y36.887 Z0.000 I0.899 J0.287 F30000.000
G2 X90.887 Y36.323 Z0.000 I0.323 J-0.887 F30000.000
G2 X90.323 Y35.113 Z0.000 I-0.887 J-0.323 F30000.000
G2 X89.101 Y35.713 Z0.000 I-0.323 J0.887 F30000.000
G1 X89.101 Y35.713 Z-0.250 F24000.000
G2 X89.677 Y36.887 Z-0.250 I0.899 J0.287 F30000.000
G2 X90.887 Y36.323 Z-0.250 I0.323 J-0.887 F30000.000
G2 X90.323 Y35.113 Z-0.250 I-0.887 J-0.323 F30000.000
G2 X89.101 Y35.713 Z-0.250 I-0.323 J0.887 F30000.000
G0 Z20.000
G0 Z20.000
G0 X89.101 Y35.713
G0 X115.056 Y35.990
G0 X115.056 Y35.990 Z18.000
G1 X115.056 Y35.990 Z12.500 F24000.000
G2 X115.677 Y36.887 Z12.500 I0.944 J0.010 F30000.000
G2 X116.887 Y36.323 Z12.500 I0.323 J-0.887 F30000.000
G2 X116.323 Y35.113 Z12.500 I-0.887 J-0.323 F30000.000
G2 X115.056 Y35.990 Z12.500 I-0.323 J0.887 F30000.000
G1 X115.056 Y35.990 Z12.000 F24000.000
G2 X115.677 Y36.887 Z12.000 I0.944 J0.010 F30000.000
G2 X116.887 Y36.323 Z12.000 I0.323 J-0.887 F30000.000
G2 X116.323 Y35.113 Z12.000 I-0.887 J-0.323 F30000.000
G2 X115.056 Y35.990 Z12.000 I-0.323 J0.887 F30000.000
G1 X115.056 Y35.990 Z11.500 F24000.000
G2 X115.677 Y36.887 Z11.500 I0.944 J0.010 F30000.000
G2 X116.887 Y36.323 Z11.500 I0.323 J-0.887 F30000.000
G2 X116.323 Y35.113 Z11.500 I-0.887 J-0.323 F30000.000
G2 X115.056 Y35.990 Z11.500 I-0.323 J0.887 F30000.000
G1 X115.056 Y35.990 Z11.000 F24000.000
G2 X115.677 Y36.887 Z11.000 I0.944 J0.010 F30000.000
G2 X116.887 Y36.323 Z11.000 I0.323 J-0.887 F30000.000
G2 X116.323 Y35.113 Z11.000 I-0.887 J-0.323 F30000.000
G2 X115.056 Y35.990 Z11.000 I-0.323 J0.887 F30000.000
G1 X115.056 Y35.990 Z10.500 F24000.000
G2 X115.677 Y36.887 Z10.500 I0.944 J0.010 F30000.000
G2 X116.887 Y36.323 Z10.500 I0.323 J-0.887 F30000.000
G2 X116.323 Y35.113 Z10.500 I-0.887 J-0.323 F30000.000
G2 X115.056 Y35.990 Z10.500 I-0.323 J0.887 F30000.000
G1 X115.056 Y35.990 Z10.000 F24000.000
G2 X115.677 Y36.887 Z10.000 I0.944 J0.010 F30000.000
G2 X116.887 Y36.323 Z10.000 I0.323 J-0.887 F30000.000
G2 X116.323 Y35.113 Z10.000 I-0.887 J-0.323 F30000.000
G2 X115.056 Y35.990 Z10.000 I-0.323 J0.887 F30000.000
G1 X115.056 Y35.990 Z9.500 F24000.000
G2 X115.677 Y36.887 Z9.500 I0.944 J0.010 F30000.000
G2 X116.887 Y36.323 Z9.500 I0.323 J-0.887 F30000.000
G2 X116.323 Y35.113 Z9.500 I-0.887 J-0.323 F30000.000
G2 X115.056 Y35.990 Z9.500 I-0.323 J0.887 F30000.000
G1 X115.056 Y35.990 Z9.000 F24000.000
G2 X115.677 Y36.887 Z9.000 I0.944 J0.010 F30000.000
G2 X116.887 Y36.323 Z9.000 I0.323 J-0.887 F30000.000
G2 X116.323 Y35.113 Z9.000 I-0.887 J-0.323 F30000.000
G2 X115.056 Y35.990 Z9.000 I-0.323 J0.887 F30000.000
G1 X115.056 Y35.990 Z8.500 F24000.000
G2 X115.677 Y36.887 Z8.500 I0.944 J0.010 F30000.000
G2 X116.887 Y36.323 Z8.500 I0.323 J-0.887 F30000.000
G2 X116.323 Y35.113 Z8.500 I-0.887 J-0.323 F30000.000
G2 X115.056 Y35.990 Z8.500 I-0.323 J0.887 F30000.000
G1 X115.056 Y35.990 Z8.000 F24000.000
G2 X115.677 Y36.887 Z8.000 I0.944 J0.010 F30000.000
G2 X116.887 Y36.323 Z8.000 I0.323 J-0.887 F30000.000
G2 X116.323 Y35.113 Z8.000 I-0.887 J-0.323 F30000.000
G2 X115.056 Y35.990 Z8.000 I-0.323 J0.887 F30000.000
G1 X115.056 Y35.990 Z7.500 F24000.000
G2 X115.677 Y36.887 Z7.500 I0.944 J0.010 F30000.000
G2 X116.887 Y36.323 Z7.500 I0.323 J-0.887 F30000.000
G2 X116.323 Y35.113 Z7.500 I-0.887 J-0.323 F30000.000
G2 X115.056 Y35.990 Z7.500 I-0.323 J0.887 F30000.000
G1 X115.056 Y35.990 Z7.000 F24000.000
G2 X115.677 Y36.887 Z7.000 I0.944 J0.010 F30000.000
G2 X116.887 Y36.323 Z7.000 I0.323 J-0.887 F30000.000
G2 X116.323 Y35.113 Z7.000 I-0.887 J-0.323 F30000.000
G2 X115.056 Y35.990 Z7.000 I-0.323 J0.887 F30000.000
G1 X115.056 Y35.990 Z6.500 F24000.000
G2 X115.677 Y36.887 Z6.500 I0.944 J0.010 F30000.000
G2 X116.887 Y36.323 Z6.500 I0.323 J-0.887 F30000.000
G2 X116.323 Y35.113 Z6.500 I-0.887 J-0.323 F30000.000
G2 X115.056 Y35.990 Z6.500 I-0.323 J0.887 F30000.000
G1 X115.056 Y35.990 Z6.000 F24000.000
G2 X115.677 Y36.887 Z6.000 I0.944 J0.010 F30000.000
G2 X116.887 Y36.323 Z6.000 I0.323 J-0.887 F30000.000
G2 X116.323 Y35.113 Z6.000 I-0.887 J-0.323 F30000.000
G2 X115.056 Y35.990 Z6.000 I-0.323 J0.887 F30000.000
G1 X115.056 Y35.990 Z5.500 F24000.000
G2 X115.677 Y36.887 Z5.500 I0.944 J0.010 F30000.000
G2 X116.887 Y36.323 Z5.500 I0.323 J-0.887 F30000.000
G2 X116.323 Y35.113 Z5.500 I-0.887 J-0.323 F30000.000
G2 X115.056 Y35.990 Z5.500 I-0.323 J0.887 F30000.000
G1 X115.056 Y35.990 Z5.000 F24000.000
G2 X115.677 Y36.887 Z5.000 I0.944 J0.010 F30000.000
G2 X116.887 Y36.323 Z5.000 I0.323 J-0.887 F30000.000
G2 X116.323 Y35.113 Z5.000 I-0.887 J-0.323 F30000.000
G2 X115.056 Y35.990 Z5.000 I-0.323 J0.887 F30000.000
G1 X115.056 Y35.990 Z4.500 F24000.000
G2 X115.677 Y36.887 Z4.500 I0.944 J0.010 F30000.000
G2 X116.887 Y36.323 Z4.500 I0.323 J-0.887 F30000.000
G2 X116.323 Y35.113 Z4.500 I-0.887 J-0.323 F30000.000
G2 X115.056 Y35.990 Z4.500 I-0.323 J0.887 F30000.000
G1 X115.056 Y35.990 Z4.000 F24000.000
G2 X115.677 Y36.887 Z4.000 I0.944 J0.010 F30000.000
G2 X116.887 Y36.323 Z4.000 I0.323 J-0.887 F30000.000
G2 X116.323 Y35.113 Z4.000 I-0.887 J-0.323 F30000.000
G2 X115.056 Y35.990 Z4.000 I-0.323 J0.887 F30000.000
G1 X115.056 Y35.990 Z3.500 F24000.000
G2 X115.677 Y36.887 Z3.500 I0.944 J0.010 F30000.000
G2 X116.887 Y36.323 Z3.500 I0.323 J-0.887 F30000.000
G2 X116.323 Y35.113 Z3.500 I-0.887 J-0.323 F30000.000
G2 X115.056 Y35.990 Z3.500 I-0.323 J0.887 F30000.000
G1 X115.056 Y35.990 Z3.000 F24000.000
G2 X115.677 Y36.887 Z3.000 I0.944 J0.010 F30000.000
G2 X116.887 Y36.323 Z3.000 I0.323 J-0.887 F30000.000
G2 X116.323 Y35.113 Z3.000 I-0.887 J-0.323 F30000.000
G2 X115.056 Y35.990 Z3.000 I-0.323 J0.887 F30000.000
G1 X115.056 Y35.990 Z2.500 F24000.000
G2 X115.677 Y36.887 Z2.500 I0.944 J0.010 F30000.000
G2 X116.887 Y36.323 Z2.500 I0.323 J-0.887 F30000.000
G2 X116.323 Y35.113 Z2.500 I-0.887 J-0.323 F30000.000
G2 X115.056 Y35.990 Z2.500 I-0.323 J0.887 F30000.000
G1 X115.056 Y35.990 Z2.000 F24000.000
G2 X115.677 Y36.887 Z2.000 I0.944 J0.010 F30000.000
G2 X116.887 Y36.323 Z2.000 I0.323 J-0.887 F30000.000
G2 X116.323 Y35.113 Z2.000 I-0.887 J-0.323 F30000.000
G2 X115.056 Y35.990 Z2.000 I-0.323 J0.887 F30000.000
G1 X115.056 Y35.990 Z1.500 F24000.000
G2 X115.677 Y36.887 Z1.500 I0.944 J0.010 F30000.000
G2 X116.887 Y36.323 Z1.500 I0.323 J-0.887 F30000.000
G2 X116.323 Y35.113 Z1.500 I-0.887 J-0.323 F30000.000
G2 X115.056 Y35.990 Z1.500 I-0.323 J0.887 F30000.000
G1 X115.056 Y35.990 Z1.000 F24000.000
G2 X115.677 Y36.887 Z1.000 I0.944 J0.010 F30000.000
G2 X116.887 Y36.323 Z1.000 I0.323 J-0.887 F30000.000
G2 X116.323 Y35.113 Z1.000 I-0.887 J-0.323 F30000.000
G2 X115.056 Y35.990 Z1.000 I-0.323 J0.887 F30000.000
G1 X115.056 Y35.990 Z0.500 F24000.000
G2 X115.677 Y36.887 Z0.500 I0.944 J0.010 F30000.000
G2 X116.887 Y36.323 Z0.500 I0.323 J-0.887 F30000.000
G2 X116.323 Y35.113 Z0.500 I-0.887 J-0.323 F30000.000
G2 X115.056 Y35.990 Z0.500 I-0.323 J0.887 F30000.000
G1 X115.056 Y35.990 Z0.000 F24000.000
G2 X115.677 Y36.887 Z0.000 I0.944 J0.010 F30000.000
G2 X116.887 Y36.323 Z0.000 I0.323 J-0.887 F30000.000
G2 X116.323 Y35.113 Z0.000 I-0.887 J-0.323 F30000.000
G2 X115.056 Y35.990 Z0.000 I-0.323 J0.887 F30000.000
G1 X115.056 Y35.990 Z-0.250 F24000.000
G2 X115.677 Y36.887 Z-0.250 I0.944 J0.010 F30000.000
G2 X116.887 Y36.323 Z-0.250 I0.323 J-0.887 F30000.000
G2 X116.323 Y35.113 Z-0.250 I-0.887 J-0.323 F30000.000
G2 X115.056 Y35.990 Z-0.250 I-0.323 J0.887 F30000.000
G0 Z20.000
G0 Z20.000
G0 X115.056 Y35.990
G0 X115.968 Y63.056
G0 X115.968 Y63.056 Z18.000
G1 X115.968 Y63.056 Z12.500 F24000.000
G2 X115.677 Y64.887 Z12.500 I0.032 J0.944 F30000.000
G2 X116.887 Y64.323 Z12.500 I0.323 J-0.887 F30000.000
G2 X116.323 Y63.113 Z12.500 I-0.887 J-0.323 F30000.000
G2 X115.968 Y63.056 Z12.500 I-0.323 J0.887 F30000.000
G1 X115.968 Y63.056 Z12.000 F24000.000
G2 X115.677 Y64.887 Z12.000 I0.032 J0.944 F30000.000
G2 X116.887 Y64.323 Z12.000 I0.323 J-0.887 F30000.000
G2 X116.323 Y63.113 Z12.000 I-0.887 J-0.323 F30000.000
G2 X115.968 Y63.056 Z12.000 I-0.323 J0.887 F30000.000
G1 X115.968 Y63.056 Z11.500 F24000.000
G2 X115.677 Y64.887 Z11.500 I0.032 J0.944 F30000.000
G2 X116.887 Y64.323 Z11.500 I0.323 J-0.887 F30000.000
G2 X116.323 Y63.113 Z11.500 I-0.887 J-0.323 F30000.000
G2 X115.968 Y63.056 Z11.500 I-0.323 J0.887 F30000.000
G1 X115.968 Y63.056 Z11.000 F24000.000
G2 X115.677 Y64.887 Z11.000 I0.032 J0.944 F30000.000
G2 X116.887 Y64.323 Z11.000 I0.323 J-0.887 F30000.000
G2 X116.323 Y63.113 Z11.000 I-0.887 J-0.323 F30000.000
G2 X115.968 Y63.056 Z11.000 I-0.323 J0.887 F30000.000
G1 X115.968 Y63.056 Z10.500 F24000.000
G2 X115.677 Y64.887 Z10.500 I0.032 J0.944 F30000.000
G2 X116.887 Y64.323 Z10.500 I0.323 J-0.887 F30000.000
G2 X116.323 Y63.113 Z10.500 I-0.887 J-0.323 F30000.000
G2 X115.968 Y63.056 Z10.500 I-0.323 J0.887 F30000.000
G1 X115.968 Y63.056 Z10.000 F24000.000
G2 X115.677 Y64.887 Z10.000 I0.032 J0.944 F30000.000
G2 X116.887 Y64.323 Z10.000 I0.323 J-0.887 F30000.000
G2 X116.323 Y63.113 Z10.000 I-0.887 J-0.323 F30000.000
G2 X115.968 Y63.056 Z10.000 I-0.323 J0.887 F30000.000
G1 X115.968 Y63.056 Z9.500 F24000.000
G2 X115.677 Y64.887 Z9.500 I0.032 J0.944 F30000.000
G2 X116.887 Y64.323 Z9.500 I0.323 J-0.887 F30000.000
G2 X116.323 Y63.113 Z9.500 I-0.887 J-0.323 F30000.000
G2 X115.968 Y63.056 Z9.500 I-0.323 J0.887 F30000.000
G1 X115.968 Y63.056 Z9.000 F24000.000
G2 X115.677 Y64.887 Z9.000 I0.032 J0.944 F30000.000
G2 X116.887 Y64.323 Z9.000 I0.323 J-0.887 F30000.000
G2 X116.323 Y63.113 Z9.000 I-0.887 J-0.323 F30000.000
G2 X115.968 Y63.056 Z9.000 I-0.323 J0.887 F30000.000
G1 X115.968 Y63.056 Z8.500 F24000.000
G2 X115.677 Y64.887 Z8.500 I0.032 J0.944 F30000.000
G2 X116.887 Y64.323 Z8.500 I0.323 J-0.887 F30000.000
G2 X116.323 Y63.113 Z8.500 I-0.887 J-0.323 F30000.000
G2 X115.968 Y63.056 Z8.500 I-0.323 J0.887 F30000.000
G1 X115.968 Y63.056 Z8.000 F24000.000
G2 X115.677 Y64.887 Z8.000 I0.032 J0.944 F30000.000
G2 X116.887 Y64.323 Z8.000 I0.323 J-0.887 F30000.000
G2 X116.323 Y63.113 Z8.000 I-0.887 J-0.323 F30000.000
G2 X115.968 Y63.056 Z8.000 I-0.323 J0.887 F30000.000
G1 X115.968 Y63.056 Z7.500 F24000.000
G2 X115.677 Y64.887 Z7.500 I0.032 J0.944 F30000.000
G2 X116.887 Y64.323 Z7.500 I0.323 J-0.887 F30000.000
G2 X116.323 Y63.113 Z7.500 I-0.887 J-0.323 F30000.000
G2 X115.968 Y63.056 Z7.500 I-0.323 J0.887 F30000.000
G1 X115.968 Y63.056 Z7.000 F24000.000
G2 X115.677 Y64.887 Z7.000 I0.032 J0.944 F30000.000
G2 X116.887 Y64.323 Z7.000 I0.323 J-0.887 F30000.000
G2 X116.323 Y63.113 Z7.000 I-0.887 J-0.323 F30000.000
G2 X115.968 Y63.056 Z7.000 I-0.323 J0.887 F30000.000
G1 X115.968 Y63.056 Z6.500 F24000.000
G2 X115.677 Y64.887 Z6.500 I0.032 J0.944 F30000.000
G2 X116.887 Y64.323 Z6.500 I0.323 J-0.887 F30000.000
G2 X116.323 Y63.113 Z6.500 I-0.887 J-0.323 F30000.000
G2 X115.968 Y63.056 Z6.500 I-0.323 J0.887 F30000.000
G1 X115.968 Y63.056 Z6.000 F24000.000
G2 X115.677 Y64.887 Z6.000 I0.032 J0.944 F30000.000
G2 X116.887 Y64.323 Z6.000 I0.323 J-0.887 F30000.000
G2 X116.323 Y63.113 Z6.000 I-0.887 J-0.323 F30000.000
G2 X115.968 Y63.056 Z6.000 I-0.323 J0.887 F30000.000
G1 X115.968 Y63.056 Z5.500 F24000.000
G2 X115.677 Y64.887 Z5.500 I0.032 J0.944 F30000.000
G2 X116.887 Y64.323 Z5.500 I0.323 J-0.887 F30000.000
G2 X116.323 Y63.113 Z5.500 I-0.887 J-0.323 F30000.000
G2 X115.968 Y63.056 Z5.500 I-0.323 J0.887 F30000.000
G1 X115.968 Y63.056 Z5.000 F24000.000
G2 X115.677 Y64.887 Z5.000 I0.032 J0.944 F30000.000
G2 X116.887 Y64.323 Z5.000 I0.323 J-0.887 F30000.000
G2 X116.323 Y63.113 Z5.000 I-0.887 J-0.323 F30000.000
G2 X115.968 Y63.056 Z5.000 I-0.323 J0.887 F30000.000
G1 X115.968 Y63.056 Z4.500 F24000.000
G2 X115.677 Y64.887 Z4.500 I0.032 J0.944 F30000.000
G2 X116.887 Y64.323 Z4.500 I0.323 J-0.887 F30000.000
G2 X116.323 Y63.113 Z4.500 I-0.887 J-0.323 F30000.000
G2 X115.968 Y63.056 Z4.500 I-0.323 J0.887 F30000.000
G1 X115.968 Y63.056 Z4.000 F24000.000
G2 X115.677 Y64.887 Z4.000 I0.032 J0.944 F30000.000
G2 X116.887 Y64.323 Z4.000 I0.323 J-0.887 F30000.000
G2 X116.323 Y63.113 Z4.000 I-0.887 J-0.323 F30000.000
G2 X115.968 Y63.056 Z4.000 I-0.323 J0.887 F30000.000
G1 X115.968 Y63.056 Z3.500 F24000.000
G2 X115.677 Y64.887 Z3.500 I0.032 J0.944 F30000.000
G2 X116.887 Y64.323 Z3.500 I0.323 J-0.887 F30000.000
G2 X116.323 Y63.113 Z3.500 I-0.887 J-0.323 F30000.000
G2 X115.968 Y63.056 Z3.500 I-0.323 J0.887 F30000.000
G1 X115.968 Y63.056 Z3.000 F24000.000
G2 X115.677 Y64.887 Z3.000 I0.032 J0.944 F30000.000
G2 X116.887 Y64.323 Z3.000 I0.323 J-0.887 F30000.000
G2 X116.323 Y63.113 Z3.000 I-0.887 J-0.323 F30000.000
G2 X115.968 Y63.056 Z3.000 I-0.323 J0.887 F30000.000
G1 X115.968 Y63.056 Z2.500 F24000.000
G2 X115.677 Y64.887 Z2.500 I0.032 J0.944 F30000.000
G2 X116.887 Y64.323 Z2.500 I0.323 J-0.887 F30000.000
G2 X116.323 Y63.113 Z2.500 I-0.887 J-0.323 F30000.000
G2 X115.968 Y63.056 Z2.500 I-0.323 J0.887 F30000.000
G1 X115.968 Y63.056 Z2.000 F24000.000
G2 X115.677 Y64.887 Z2.000 I0.032 J0.944 F30000.000
G2 X116.887 Y64.323 Z2.000 I0.323 J-0.887 F30000.000
G2 X116.323 Y63.113 Z2.000 I-0.887 J-0.323 F30000.000
G2 X115.968 Y63.056 Z2.000 I-0.323 J0.887 F30000.000
G1 X115.968 Y63.056 Z1.500 F24000.000
G2 X115.677 Y64.887 Z1.500 I0.032 J0.944 F30000.000
G2 X116.887 Y64.323 Z1.500 I0.323 J-0.887 F30000.000
G2 X116.323 Y63.113 Z1.500 I-0.887 J-0.323 F30000.000
G2 X115.968 Y63.056 Z1.500 I-0.323 J0.887 F30000.000
G1 X115.968 Y63.056 Z1.000 F24000.000
G2 X115.677 Y64.887 Z1.000 I0.032 J0.944 F30000.000
G2 X116.887 Y64.323 Z1.000 I0.323 J-0.887 F30000.000
G2 X116.323 Y63.113 Z1.000 I-0.887 J-0.323 F30000.000
G2 X115.968 Y63.056 Z1.000 I-0.323 J0.887 F30000.000
G1 X115.968 Y63.056 Z0.500 F24000.000
G2 X115.677 Y64.887 Z0.500 I0.032 J0.944 F30000.000
G2 X116.887 Y64.323 Z0.500 I0.323 J-0.887 F30000.000
G2 X116.323 Y63.113 Z0.500 I-0.887 J-0.323 F30000.000
G2 X115.968 Y63.056 Z0.500 I-0.323 J0.887 F30000.000
G1 X115.968 Y63.056 Z0.000 F24000.000
G2 X115.677 Y64.887 Z0.000 I0.032 J0.944 F30000.000
G2 X116.887 Y64.323 Z0.000 I0.323 J-0.887 F30000.000
G2 X116.323 Y63.113 Z0.000 I-0.887 J-0.323 F30000.000
G2 X115.968 Y63.056 Z0.000 I-0.323 J0.887 F30000.000
G1 X115.968 Y63.056 Z-0.250 F24000.000
G2 X115.677 Y64.887 Z-0.250 I0.032 J0.944 F30000.000
G2 X116.887 Y64.323 Z-0.250 I0.323 J-0.887 F30000.000
G2 X116.323 Y63.113 Z-0.250 I-0.887 J-0.323 F30000.000
G2 X115.968 Y63.056 Z-0.250 I-0.323 J0.887 F30000.000
G0 Z20.000
G0 Z20.000
G0 X115.968 Y63.056
G0 X90.943 Y63.966
G0 X90.943 Y63.966 Z18.000
G1 X90.943 Y63.966 Z12.500 F24000.000
G2 X90.323 Y63.113 Z12.500 I-0.943 J0.034 F30000.000
G2 X89.677 Y64.887 Z12.500 I-0.323 J0.887 F30000.000
G2 X90.943 Y63.966 Z12.500 I0.323 J-0.887 F30000.000
G1 X90.943 Y63.966 Z12.000 F24000.000
G2 X90.323 Y63.113 Z12.000 I-0.943 J0.034 F30000.000
G2 X89.677 Y64.887 Z12.000 I-0.323 J0.887 F30000.000
G2 X90.943 Y63.966 Z12.000 I0.323 J-0.887 F30000.000
G1 X90.943 Y63.966 Z11.500 F24000.000
G2 X90.323 Y63.113 Z11.500 I-0.943 J0.034 F30000.000
G2 X89.677 Y64.887 Z11.500 I-0.323 J0.887 F30000.000
G2 X90.943 Y63.966 Z11.500 I0.323 J-0.887 F30000.000
G1 X90.943 Y63.966 Z11.000 F24000.000
G2 X90.323 Y63.113 Z11.000 I-0.943 J0.034 F30000.000
G2 X89.677 Y64.887 Z11.000 I-0.323 J0.887 F30000.000
G2 X90.943 Y63.966 Z11.000 I0.323 J-0.887 F30000.000
G1 X90.943 Y63.966 Z10.500 F24000.000
G2 X90.323 Y63.113 Z10.500 I-0.943 J0.034 F30000.000
G2 X89.677 Y64.887 Z10.500 I-0.323 J0.887 F30000.000
G2 X90.943 Y63.966 Z10.500 I0.323 J-0.887 F30000.000
G1 X90.943 Y63.966 Z10.000 F24000.000
G2 X90.323 Y63.113 Z10.000 I-0.943 J0.034 F30000.000
G2 X89.677 Y64.887 Z10.000 I-0.323 J0.887 F30000.000
G2 X90.943 Y63.966 Z10.000 I0.323 J-0.887 F30000.000
G1 X90.943 Y63.966 Z9.500 F24000.000
G2 X90.323 Y63.113 Z9.500 I-0.943 J0.034 F30000.000
G2 X89.677 Y64.887 Z9.500 I-0.323 J0.887 F30000.000
G2 X90.943 Y63.966 Z9.500 I0.323 J-0.887 F30000.000
G1 X90.943 Y63.966 Z9.000 F24000.000
G2 X90.323 Y63.113 Z9.000 I-0.943 J0.034 F30000.000
G2 X89.677 Y64.887 Z9.000 I-0.323 J0.887 F30000.000
G2 X90.943 Y63.966 Z9.000 I0.323 J-0.887 F30000.000
G1 X90.943 Y63.966 Z8.500 F24000.000
G2 X90.323 Y63.113 Z8.500 I-0.943 J0.034 F30000.000
G2 X89.677 Y64.887 Z8.500 I-0.323 J0.887 F30000.000
G2 X90.943 Y63.966 Z8.500 I0.323 J-0.887 F30000.000
G1 X90.943 Y63.966 Z8.000 F24000.000
G2 X90.323 Y63.113 Z8.000 I-0.943 J0.034 F30000.000
G2 X89.677 Y64.887 Z8.000 I-0.323 J0.887 F30000.000
G2 X90.943 Y63.966 Z8.000 I0.323 J-0.887 F30000.000
G1 X90.943 Y63.966 Z7.500 F24000.000
G2 X90.323 Y63.113 Z7.500 I-0.943 J0.034 F30000.000
G2 X89.677 Y64.887 Z7.500 I-0.323 J0.887 F30000.000
G2 X90.943 Y63.966 Z7.500 I0.323 J-0.887 F30000.000
G1 X90.943 Y63.966 Z7.000 F24000.000
G2 X90.323 Y63.113 Z7.000 I-0.943 J0.034 F30000.000
G2 X89.677 Y64.887 Z7.000 I-0.323 J0.887 F30000.000
G2 X90.943 Y63.966 Z7.000 I0.323 J-0.887 F30000.000
G1 X90.943 Y63.966 Z6.500 F24000.000
G2 X90.323 Y63.113 Z6.500 I-0.943 J0.034 F30000.000
G2 X89.677 Y64.887 Z6.500 I-0.323 J0.887 F30000.000
G2 X90.943 Y63.966 Z6.500 I0.323 J-0.887 F30000.000
G1 X90.943 Y63.966 Z6.000 F24000.000
G2 X90.323 Y63.113 Z6.000 I-0.943 J0.034 F30000.000
G2 X89.677 Y64.887 Z6.000 I-0.323 J0.887 F30000.000
G2 X90.943 Y63.966 Z6.000 I0.323 J-0.887 F30000.000
G1 X90.943 Y63.966 Z5.500 F24000.000
G2 X90.323 Y63.113 Z5.500 I-0.943 J0.034 F30000.000
G2 X89.677 Y64.887 Z5.500 I-0.323 J0.887 F30000.000
G2 X90.943 Y63.966 Z5.500 I0.323 J-0.887 F30000.000
G1 X90.943 Y63.966 Z5.000 F24000.000
G2 X90.323 Y63.113 Z5.000 I-0.943 J0.034 F30000.000
G2 X89.677 Y64.887 Z5.000 I-0.323 J0.887 F30000.000
G2 X90.943 Y63.966 Z5.000 I0.323 J-0.887 F30000.000
G1 X90.943 Y63.966 Z4.500 F24000.000
G2 X90.323 Y63.113 Z4.500 I-0.943 J0.034 F30000.000
G2 X89.677 Y64.887 Z4.500 I-0.323 J0.887 F30000.000
G2 X90.943 Y63.966 Z4.500 I0.323 J-0.887 F30000.000
G1 X90.943 Y63.966 Z4.000 F24000.000
G2 X90.323 Y63.113 Z4.000 I-0.943 J0.034 F30000.000
G2 X89.677 Y64.887 Z4.000 I-0.323 J0.887 F30000.000
G2 X90.943 Y63.966 Z4.000 I0.323 J-0.887 F30000.000
G1 X90.943 Y63.966 Z3.500 F24000.000
G2 X90.323 Y63.113 Z3.500 I-0.943 J0.034 F30000.000
G2 X89.677 Y64.887 Z3.500 I-0.323 J0.887 F30000.000
G2 X90.943 Y63.966 Z3.500 I0.323 J-0.887 F30000.000
G1 X90.943 Y63.966 Z3.000 F24000.000
G2 X90.323 Y63.113 Z3.000 I-0.943 J0.034 F30000.000
G2 X89.677 Y64.887 Z3.000 I-0.323 J0.887 F30000.000
G2 X90.943 Y63.966 Z3.000 I0.323 J-0.887 F30000.000
G1 X90.943 Y63.966 Z2.500 F24000.000
G2 X90.323 Y63.113 Z2.500 I-0.943 J0.034 F30000.000
G2 X89.677 Y64.887 Z2.500 I-0.323 J0.887 F30000.000
G2 X90.943 Y63.966 Z2.500 I0.323 J-0.887 F30000.000
G1 X90.943 Y63.966 Z2.000 F24000.000
G2 X90.323 Y63.113 Z2.000 I-0.943 J0.034 F30000.000
G2 X89.677 Y64.887 Z2.000 I-0.323 J0.887 F30000.000
G2 X90.943 Y63.966 Z2.000 I0.323 J-0.887 F30000.000
G1 X90.943 Y63.966 Z1.500 F24000.000
G2 X90.323 Y63.113 Z1.500 I-0.943 J0.034 F30000.000
G2 X89.677 Y64.887 Z1.500 I-0.323 J0.887 F30000.000
G2 X90.943 Y63.966 Z1.500 I0.323 J-0.887 F30000.000
G1 X90.943 Y63.966 Z1.000 F24000.000
G2 X90.323 Y63.113 Z1.000 I-0.943 J0.034 F30000.000
G2 X89.677 Y64.887 Z1.000 I-0.323 J0.887 F30000.000
G2 X90.943 Y63.966 Z1.000 I0.323 J-0.887 F30000.000
G1 X90.943 Y63.966 Z0.500 F24000.000
G2 X90.323 Y63.113 Z0.500 I-0.943 J0.034 F30000.000
G2 X89.677 Y64.887 Z0.500 I-0.323 J0.887 F30000.000
G2 X90.943 Y63.966 Z0.500 I0.323 J-0.887 F30000.000
G1 X90.943 Y63.966 Z0.000 F24000.000
G2 X90.323 Y63.113 Z0.000 I-0.943 J0.034 F30000.000
G2 X89.677 Y64.887 Z0.000 I-0.323 J0.887 F30000.000
G2 X90.943 Y63.966 Z0.000 I0.323 J-0.887 F30000.000
G1 X90.943 Y63.966 Z-0.250 F24000.000
G2 X90.323 Y63.113 Z-0.250 I-0.943 J0.034 F30000.000
G2 X89.677 Y64.887 Z-0.250 I-0.323 J0.887 F30000.000
G2 X90.943 Y63.966 Z-0.250 I0.323 J-0.887 F30000.000
G0 Z20.000
G0 Z20.000
G0 X90.943 Y63.966
G0 X75.913 Y67.196
G0 X75.913 Y67.196 Z18.000
G1 X75.913 Y67.196 Z12.500 F24000.000
G2 X74.947 Y66.126 Z12.500 I-1.413 J0.304 F30000.000
G2 X74.053 Y68.874 Z12.500 I-0.447 J1.374 F30000.000
G2 X75.913 Y67.196 Z12.500 I0.447 J-1.374 F30000.000
G1 X75.913 Y67.196 Z12.000 F24000.000
G2 X74.947 Y66.126 Z12.000 I-1.413 J0.304 F30000.000
G2 X74.053 Y68.874 Z12.000 I-0.447 J1.374 F30000.000
G2 X75.913 Y67.196 Z12.000 I0.447 J-1.374 F30000.000
G1 X75.913 Y67.196 Z11.500 F24000.000
G2 X74.947 Y66.126 Z11.500 I-1.413 J0.304 F30000.000
G2 X74.053 Y68.874 Z11.500 I-0.447 J1.374 F30000.000
G2 X75.913 Y67.196 Z11.500 I0.447 J-1.374 F30000.000
G1 X75.913 Y67.196 Z11.000 F24000.000
G2 X74.947 Y66.126 Z11.000 I-1.413 J0.304 F30000.000
G2 X74.053 Y68.874 Z11.000 I-0.447 J1.374 F30000.000
G2 X75.913 Y67.196 Z11.000 I0.447 J-1.374 F30000.000
G1 X75.913 Y67.196 Z10.500 F24000.000
G2 X74.947 Y66.126 Z10.500 I-1.413 J0.304 F30000.000
G2 X74.053 Y68.874 Z10.500 I-0.447 J1.374 F30000.000
G2 X75.913 Y67.196 Z10.500 I0.447 J-1.374 F30000.000
G1 X75.913 Y67.196 Z10.000 F24000.000
G2 X74.947 Y66.126 Z10.000 I-1.413 J0.304 F30000.000
G2 X74.053 Y68.874 Z10.000 I-0.447 J1.374 F30000.000
G2 X75.913 Y67.196 Z10.000 I0.447 J-1.374 F30000.000
G1 X75.913 Y67.196 Z9.500 F24000.000
G2 X74.947 Y66.126 Z9.500 I-1.413 J0.304 F30000.000
G2 X74.053 Y68.874 Z9.500 I-0.447 J1.374 F30000.000
G2 X75.913 Y67.196 Z9.500 I0.447 J-1.374 F30000.000
G1 X75.913 Y67.196 Z9.000 F24000.000
G2 X74.947 Y66.126 Z9.000 I-1.413 J0.304 F30000.000
G2 X74.053 Y68.874 Z9.000 I-0.447 J1.374 F30000.000
G2 X75.913 Y67.196 Z9.000 I0.447 J-1.374 F30000.000
G1 X75.913 Y67.196 Z8.500 F24000.000
G2 X74.947 Y66.126 Z8.500 I-1.413 J0.304 F30000.000
G2 X74.053 Y68.874 Z8.500 I-0.447 J1.374 F30000.000
G2 X75.913 Y67.196 Z8.500 I0.447 J-1.374 F30000.000
G1 X75.913 Y67.196 Z8.000 F24000.000
G2 X74.947 Y66.126 Z8.000 I-1.413 J0.304 F30000.000
G2 X74.053 Y68.874 Z8.000 I-0.447 J1.374 F30000.000
G2 X75.913 Y67.196 Z8.000 I0.447 J-1.374 F30000.000
G1 X75.913 Y67.196 Z7.500 F24000.000
G2 X74.947 Y66.126 Z7.500 I-1.413 J0.304 F30000.000
