(Exported by FreeCAD)
(Post Processor: KineticNCBeamicon2_post)
(Output Time:2024-09-02 21:03:36.796569)
(begin preamble)
%
G17 G21 G40 G49 G80 G90
M08
G21
(begin operation: Fixture)
(machine: not set, mm/min)
G54
(finish operation: Fixture)
(begin operation: 3)
(machine: not set, mm/min)
(3)
M05
M09M6 T1
M3 S25000
(finish operation: 3)
(begin operation: Holes)
(machine: not set, mm/min)
(Profile001)
(Compensated Tool Path. Diameter: 3.1)
G0 Z20.000
G0 X44.813 Y-12.687
G0 Z18.000
G1 X44.813 Y-12.687 Z12.500 F24000.000
G2 X44.669 Y-13.409 Z12.500 I-0.313 J-0.313 F30000.000
G2 X44.091 Y-13.169 Z12.500 I-0.169 J0.409 F30000.000
G2 X44.331 Y-12.591 Z12.500 I0.409 J0.169 F30000.000
G2 X44.813 Y-12.687 Z12.500 I0.169 J-0.409 F30000.000
G1 X44.813 Y-12.687 Z12.000 F24000.000
G2 X44.669 Y-13.409 Z12.000 I-0.313 J-0.313 F30000.000
G2 X44.091 Y-13.169 Z12.000 I-0.169 J0.409 F30000.000
G2 X44.331 Y-12.591 Z12.000 I0.409 J0.169 F30000.000
G2 X44.813 Y-12.687 Z12.000 I0.169 J-0.409 F30000.000
G1 X44.813 Y-12.687 Z11.500 F24000.000
G2 X44.669 Y-13.409 Z11.500 I-0.313 J-0.313 F30000.000
G2 X44.091 Y-13.169 Z11.500 I-0.169 J0.409 F30000.000
G2 X44.331 Y-12.591 Z11.500 I0.409 J0.169 F30000.000
G2 X44.813 Y-12.687 Z11.500 I0.169 J-0.409 F30000.000
G1 X44.813 Y-12.687 Z11.000 F24000.000
G2 X44.669 Y-13.409 Z11.000 I-0.313 J-0.313 F30000.000
G2 X44.091 Y-13.169 Z11.000 I-0.169 J0.409 F30000.000
G2 X44.331 Y-12.591 Z11.000 I0.409 J0.169 F30000.000
G2 X44.813 Y-12.687 Z11.000 I0.169 J-0.409 F30000.000
G1 X44.813 Y-12.687 Z10.500 F24000.000
G2 X44.669 Y-13.409 Z10.500 I-0.313 J-0.313 F30000.000
G2 X44.091 Y-13.169 Z10.500 I-0.169 J0.409 F30000.000
G2 X44.331 Y-12.591 Z10.500 I0.409 J0.169 F30000.000
G2 X44.813 Y-12.687 Z10.500 I0.169 J-0.409 F30000.000
G1 X44.813 Y-12.687 Z10.000 F24000.000
G2 X44.669 Y-13.409 Z10.000 I-0.313 J-0.313 F30000.000
G2 X44.091 Y-13.169 Z10.000 I-0.169 J0.409 F30000.000
G2 X44.331 Y-12.591 Z10.000 I0.409 J0.169 F30000.000
G2 X44.813 Y-12.687 Z10.000 I0.169 J-0.409 F30000.000
G1 X44.813 Y-12.687 Z9.500 F24000.000
G2 X44.669 Y-13.409 Z9.500 I-0.313 J-0.313 F30000.000
G2 X44.091 Y-13.169 Z9.500 I-0.169 J0.409 F30000.000
G2 X44.331 Y-12.591 Z9.500 I0.409 J0.169 F30000.000
G2 X44.813 Y-12.687 Z9.500 I0.169 J-0.409 F30000.000
G1 X44.813 Y-12.687 Z9.000 F24000.000
G2 X44.669 Y-13.409 Z9.000 I-0.313 J-0.313 F30000.000
G2 X44.091 Y-13.169 Z9.000 I-0.169 J0.409 F30000.000
G2 X44.331 Y-12.591 Z9.000 I0.409 J0.169 F30000.000
G2 X44.813 Y-12.687 Z9.000 I0.169 J-0.409 F30000.000
G1 X44.813 Y-12.687 Z8.500 F24000.000
G2 X44.669 Y-13.409 Z8.500 I-0.313 J-0.313 F30000.000
G2 X44.091 Y-13.169 Z8.500 I-0.169 J0.409 F30000.000
G2 X44.331 Y-12.591 Z8.500 I0.409 J0.169 F30000.000
G2 X44.813 Y-12.687 Z8.500 I0.169 J-0.409 F30000.000
G1 X44.813 Y-12.687 Z8.000 F24000.000
G2 X44.669 Y-13.409 Z8.000 I-0.313 J-0.313 F30000.000
G2 X44.091 Y-13.169 Z8.000 I-0.169 J0.409 F30000.000
G2 X44.331 Y-12.591 Z8.000 I0.409 J0.169 F30000.000
G2 X44.813 Y-12.687 Z8.000 I0.169 J-0.409 F30000.000
G1 X44.813 Y-12.687 Z7.500 F24000.000
G2 X44.669 Y-13.409 Z7.500 I-0.313 J-0.313 F30000.000
G2 X44.091 Y-13.169 Z7.500 I-0.169 J0.409 F30000.000
G2 X44.331 Y-12.591 Z7.500 I0.409 J0.169 F30000.000
G2 X44.813 Y-12.687 Z7.500 I0.169 J-0.409 F30000.000
G1 X44.813 Y-12.687 Z7.000 F24000.000
G2 X44.669 Y-13.409 Z7.000 I-0.313 J-0.313 F30000.000
G2 X44.091 Y-13.169 Z7.000 I-0.169 J0.409 F30000.000
G2 X44.331 Y-12.591 Z7.000 I0.409 J0.169 F30000.000
G2 X44.813 Y-12.687 Z7.000 I0.169 J-0.409 F30000.000
G1 X44.813 Y-12.687 Z6.500 F24000.000
G2 X44.669 Y-13.409 Z6.500 I-0.313 J-0.313 F30000.000
G2 X44.091 Y-13.169 Z6.500 I-0.169 J0.409 F30000.000
G2 X44.331 Y-12.591 Z6.500 I0.409 J0.169 F30000.000
G2 X44.813 Y-12.687 Z6.500 I0.169 J-0.409 F30000.000
G1 X44.813 Y-12.687 Z6.000 F24000.000
G2 X44.669 Y-13.409 Z6.000 I-0.313 J-0.313 F30000.000
G2 X44.091 Y-13.169 Z6.000 I-0.169 J0.409 F30000.000
G2 X44.331 Y-12.591 Z6.000 I0.409 J0.169 F30000.000
G2 X44.813 Y-12.687 Z6.000 I0.169 J-0.409 F30000.000
G1 X44.813 Y-12.687 Z5.500 F24000.000
G2 X44.669 Y-13.409 Z5.500 I-0.313 J-0.313 F30000.000
G2 X44.091 Y-13.169 Z5.500 I-0.169 J0.409 F30000.000
G2 X44.331 Y-12.591 Z5.500 I0.409 J0.169 F30000.000
G2 X44.813 Y-12.687 Z5.500 I0.169 J-0.409 F30000.000
G1 X44.813 Y-12.687 Z5.000 F24000.000
G2 X44.669 Y-13.409 Z5.000 I-0.313 J-0.313 F30000.000
G2 X44.091 Y-13.169 Z5.000 I-0.169 J0.409 F30000.000
G2 X44.331 Y-12.591 Z5.000 I0.409 J0.169 F30000.000
G2 X44.813 Y-12.687 Z5.000 I0.169 J-0.409 F30000.000
G1 X44.813 Y-12.687 Z4.500 F24000.000
G2 X44.669 Y-13.409 Z4.500 I-0.313 J-0.313 F30000.000
G2 X44.091 Y-13.169 Z4.500 I-0.169 J0.409 F30000.000
G2 X44.331 Y-12.591 Z4.500 I0.409 J0.169 F30000.000
G2 X44.813 Y-12.687 Z4.500 I0.169 J-0.409 F30000.000
G1 X44.813 Y-12.687 Z4.000 F24000.000
G2 X44.669 Y-13.409 Z4.000 I-0.313 J-0.313 F30000.000
G2 X44.091 Y-13.169 Z4.000 I-0.169 J0.409 F30000.000
G2 X44.331 Y-12.591 Z4.000 I0.409 J0.169 F30000.000
G2 X44.813 Y-12.687 Z4.000 I0.169 J-0.409 F30000.000
G1 X44.813 Y-12.687 Z3.500 F24000.000
G2 X44.669 Y-13.409 Z3.500 I-0.313 J-0.313 F30000.000
G2 X44.091 Y-13.169 Z3.500 I-0.169 J0.409 F30000.000
G2 X44.331 Y-12.591 Z3.500 I0.409 J0.169 F30000.000
G2 X44.813 Y-12.687 Z3.500 I0.169 J-0.409 F30000.000
G1 X44.813 Y-12.687 Z3.000 F24000.000
G2 X44.669 Y-13.409 Z3.000 I-0.313 J-0.313 F30000.000
G2 X44.091 Y-13.169 Z3.000 I-0.169 J0.409 F30000.000
G2 X44.331 Y-12.591 Z3.000 I0.409 J0.169 F30000.000
G2 X44.813 Y-12.687 Z3.000 I0.169 J-0.409 F30000.000
G1 X44.813 Y-12.687 Z2.500 F24000.000
G2 X44.669 Y-13.409 Z2.500 I-0.313 J-0.313 F30000.000
G2 X44.091 Y-13.169 Z2.500 I-0.169 J0.409 F30000.000
G2 X44.331 Y-12.591 Z2.500 I0.409 J0.169 F30000.000
G2 X44.813 Y-12.687 Z2.500 I0.169 J-0.409 F30000.000
G1 X44.813 Y-12.687 Z2.000 F24000.000
G2 X44.669 Y-13.409 Z2.000 I-0.313 J-0.313 F30000.000
G2 X44.091 Y-13.169 Z2.000 I-0.169 J0.409 F30000.000
G2 X44.331 Y-12.591 Z2.000 I0.409 J0.169 F30000.000
G2 X44.813 Y-12.687 Z2.000 I0.169 J-0.409 F30000.000
G1 X44.813 Y-12.687 Z1.500 F24000.000
G2 X44.669 Y-13.409 Z1.500 I-0.313 J-0.313 F30000.000
G2 X44.091 Y-13.169 Z1.500 I-0.169 J0.409 F30000.000
G2 X44.331 Y-12.591 Z1.500 I0.409 J0.169 F30000.000
G2 X44.813 Y-12.687 Z1.500 I0.169 J-0.409 F30000.000
G1 X44.813 Y-12.687 Z1.000 F24000.000
G2 X44.669 Y-13.409 Z1.000 I-0.313 J-0.313 F30000.000
G2 X44.091 Y-13.169 Z1.000 I-0.169 J0.409 F30000.000
G2 X44.331 Y-12.591 Z1.000 I0.409 J0.169 F30000.000
G2 X44.813 Y-12.687 Z1.000 I0.169 J-0.409 F30000.000
G1 X44.813 Y-12.687 Z0.500 F24000.000
G2 X44.669 Y-13.409 Z0.500 I-0.313 J-0.313 F30000.000
G2 X44.091 Y-13.169 Z0.500 I-0.169 J0.409 F30000.000
G2 X44.331 Y-12.591 Z0.500 I0.409 J0.169 F30000.000
G2 X44.813 Y-12.687 Z0.500 I0.169 J-0.409 F30000.000
G1 X44.813 Y-12.687 Z0.000 F24000.000
G2 X44.669 Y-13.409 Z0.000 I-0.313 J-0.313 F30000.000
G2 X44.091 Y-13.169 Z0.000 I-0.169 J0.409 F30000.000
G2 X44.331 Y-12.591 Z0.000 I0.409 J0.169 F30000.000
G2 X44.813 Y-12.687 Z0.000 I0.169 J-0.409 F30000.000
G1 X44.813 Y-12.687 Z-0.250 F24000.000
G2 X44.669 Y-13.409 Z-0.250 I-0.313 J-0.313 F30000.000
G2 X44.091 Y-13.169 Z-0.250 I-0.169 J0.409 F30000.000
G2 X44.331 Y-12.591 Z-0.250 I0.409 J0.169 F30000.000
G2 X44.813 Y-12.687 Z-0.250 I0.169 J-0.409 F30000.000
G0 Z20.000
G0 Z20.000
G0 X44.813 Y-12.687
G0 X64.162 Y-63.119
G0 X64.162 Y-63.119 Z18.000
G1 X64.162 Y-63.119 Z12.500 F24000.000
G2 X64.177 Y-63.113 Z12.500 I0.338 J-0.881 F30000.000
G2 X64.823 Y-64.887 Z12.500 I0.323 J-0.887 F30000.000
G2 X64.162 Y-63.119 Z12.500 I-0.323 J0.887 F30000.000
G1 X64.162 Y-63.119 Z12.000 F24000.000
G2 X64.177 Y-63.113 Z12.000 I0.338 J-0.881 F30000.000
G2 X64.823 Y-64.887 Z12.000 I0.323 J-0.887 F30000.000
G2 X64.162 Y-63.119 Z12.000 I-0.323 J0.887 F30000.000
G1 X64.162 Y-63.119 Z11.500 F24000.000
G2 X64.177 Y-63.113 Z11.500 I0.338 J-0.881 F30000.000
G2 X64.823 Y-64.887 Z11.500 I0.323 J-0.887 F30000.000
G2 X64.162 Y-63.119 Z11.500 I-0.323 J0.887 F30000.000
G1 X64.162 Y-63.119 Z11.000 F24000.000
G2 X64.177 Y-63.113 Z11.000 I0.338 J-0.881 F30000.000
G2 X64.823 Y-64.887 Z11.000 I0.323 J-0.887 F30000.000
G2 X64.162 Y-63.119 Z11.000 I-0.323 J0.887 F30000.000
G1 X64.162 Y-63.119 Z10.500 F24000.000
G2 X64.177 Y-63.113 Z10.500 I0.338 J-0.881 F30000.000
G2 X64.823 Y-64.887 Z10.500 I0.323 J-0.887 F30000.000
G2 X64.162 Y-63.119 Z10.500 I-0.323 J0.887 F30000.000
G1 X64.162 Y-63.119 Z10.000 F24000.000
G2 X64.177 Y-63.113 Z10.000 I0.338 J-0.881 F30000.000
G2 X64.823 Y-64.887 Z10.000 I0.323 J-0.887 F30000.000
G2 X64.162 Y-63.119 Z10.000 I-0.323 J0.887 F30000.000
G1 X64.162 Y-63.119 Z9.500 F24000.000
G2 X64.177 Y-63.113 Z9.500 I0.338 J-0.881 F30000.000
G2 X64.823 Y-64.887 Z9.500 I0.323 J-0.887 F30000.000
G2 X64.162 Y-63.119 Z9.500 I-0.323 J0.887 F30000.000
G1 X64.162 Y-63.119 Z9.000 F24000.000
G2 X64.177 Y-63.113 Z9.000 I0.338 J-0.881 F30000.000
G2 X64.823 Y-64.887 Z9.000 I0.323 J-0.887 F30000.000
G2 X64.162 Y-63.119 Z9.000 I-0.323 J0.887 F30000.000
G1 X64.162 Y-63.119 Z8.500 F24000.000
G2 X64.177 Y-63.113 Z8.500 I0.338 J-0.881 F30000.000
G2 X64.823 Y-64.887 Z8.500 I0.323 J-0.887 F30000.000
G2 X64.162 Y-63.119 Z8.500 I-0.323 J0.887 F30000.000
G1 X64.162 Y-63.119 Z8.000 F24000.000
G2 X64.177 Y-63.113 Z8.000 I0.338 J-0.881 F30000.000
G2 X64.823 Y-64.887 Z8.000 I0.323 J-0.887 F30000.000
G2 X64.162 Y-63.119 Z8.000 I-0.323 J0.887 F30000.000
G1 X64.162 Y-63.119 Z7.500 F24000.000
G2 X64.177 Y-63.113 Z7.500 I0.338 J-0.881 F30000.000
G2 X64.823 Y-64.887 Z7.500 I0.323 J-0.887 F30000.000
G2 X64.162 Y-63.119 Z7.500 I-0.323 J0.887 F30000.000
G1 X64.162 Y-63.119 Z7.000 F24000.000
G2 X64.177 Y-63.113 Z7.000 I0.338 J-0.881 F30000.000
G2 X64.823 Y-64.887 Z7.000 I0.323 J-0.887 F30000.000
G2 X64.162 Y-63.119 Z7.000 I-0.323 J0.887 F30000.000
G1 X64.162 Y-63.119 Z6.500 F24000.000
G2 X64.177 Y-63.113 Z6.500 I0.338 J-0.881 F30000.000
G2 X64.823 Y-64.887 Z6.500 I0.323 J-0.887 F30000.000
G2 X64.162 Y-63.119 Z6.500 I-0.323 J0.887 F30000.000
G1 X64.162 Y-63.119 Z6.000 F24000.000
G2 X64.177 Y-63.113 Z6.000 I0.338 J-0.881 F30000.000
G2 X64.823 Y-64.887 Z6.000 I0.323 J-0.887 F30000.000
G2 X64.162 Y-63.119 Z6.000 I-0.323 J0.887 F30000.000
G1 X64.162 Y-63.119 Z5.500 F24000.000
G2 X64.177 Y-63.113 Z5.500 I0.338 J-0.881 F30000.000
G2 X64.823 Y-64.887 Z5.500 I0.323 J-0.887 F30000.000
G2 X64.162 Y-63.119 Z5.500 I-0.323 J0.887 F30000.000
G1 X64.162 Y-63.119 Z5.000 F24000.000
G2 X64.177 Y-63.113 Z5.000 I0.338 J-0.881 F30000.000
G2 X64.823 Y-64.887 Z5.000 I0.323 J-0.887 F30000.000
G2 X64.162 Y-63.119 Z5.000 I-0.323 J0.887 F30000.000
G1 X64.162 Y-63.119 Z4.500 F24000.000
G2 X64.177 Y-63.113 Z4.500 I0.338 J-0.881 F30000.000
G2 X64.823 Y-64.887 Z4.500 I0.323 J-0.887 F30000.000
G2 X64.162 Y-63.119 Z4.500 I-0.323 J0.887 F30000.000
G1 X64.162 Y-63.119 Z4.000 F24000.000
G2 X64.177 Y-63.113 Z4.000 I0.338 J-0.881 F30000.000
G2 X64.823 Y-64.887 Z4.000 I0.323 J-0.887 F30000.000
G2 X64.162 Y-63.119 Z4.000 I-0.323 J0.887 F30000.000
G1 X64.162 Y-63.119 Z3.500 F24000.000
G2 X64.177 Y-63.113 Z3.500 I0.338 J-0.881 F30000.000
G2 X64.823 Y-64.887 Z3.500 I0.323 J-0.887 F30000.000
G2 X64.162 Y-63.119 Z3.500 I-0.323 J0.887 F30000.000
G1 X64.162 Y-63.119 Z3.000 F24000.000
G2 X64.177 Y-63.113 Z3.000 I0.338 J-0.881 F30000.000
G2 X64.823 Y-64.887 Z3.000 I0.323 J-0.887 F30000.000
G2 X64.162 Y-63.119 Z3.000 I-0.323 J0.887 F30000.000
G1 X64.162 Y-63.119 Z2.500 F24000.000
G2 X64.177 Y-63.113 Z2.500 I0.338 J-0.881 F30000.000
G2 X64.823 Y-64.887 Z2.500 I0.323 J-0.887 F30000.000
G2 X64.162 Y-63.119 Z2.500 I-0.323 J0.887 F30000.000
G1 X64.162 Y-63.119 Z2.000 F24000.000
G2 X64.177 Y-63.113 Z2.000 I0.338 J-0.881 F30000.000
G2 X64.823 Y-64.887 Z2.000 I0.323 J-0.887 F30000.000
G2 X64.162 Y-63.119 Z2.000 I-0.323 J0.887 F30000.000
G1 X64.162 Y-63.119 Z1.500 F24000.000
G2 X64.177 Y-63.113 Z1.500 I0.338 J-0.881 F30000.000
G2 X64.823 Y-64.887 Z1.500 I0.323 J-0.887 F30000.000
G2 X64.162 Y-63.119 Z1.500 I-0.323 J0.887 F30000.000
G1 X64.162 Y-63.119 Z1.000 F24000.000
G2 X64.177 Y-63.113 Z1.000 I0.338 J-0.881 F30000.000
G2 X64.823 Y-64.887 Z1.000 I0.323 J-0.887 F30000.000
G2 X64.162 Y-63.119 Z1.000 I-0.323 J0.887 F30000.000
G1 X64.162 Y-63.119 Z0.500 F24000.000
G2 X64.177 Y-63.113 Z0.500 I0.338 J-0.881 F30000.000
G2 X64.823 Y-64.887 Z0.500 I0.323 J-0.887 F30000.000
G2 X64.162 Y-63.119 Z0.500 I-0.323 J0.887 F30000.000
G1 X64.162 Y-63.119 Z0.000 F24000.000
G2 X64.177 Y-63.113 Z0.000 I0.338 J-0.881 F30000.000
G2 X64.823 Y-64.887 Z0.000 I0.323 J-0.887 F30000.000
G2 X64.162 Y-63.119 Z0.000 I-0.323 J0.887 F30000.000
G1 X64.162 Y-63.119 Z-0.250 F24000.000
G2 X64.177 Y-63.113 Z-0.250 I0.338 J-0.881 F30000.000
G2 X64.823 Y-64.887 Z-0.250 I0.323 J-0.887 F30000.000
G2 X64.162 Y-63.119 Z-0.250 I-0.323 J0.887 F30000.000
G0 Z20.000
G0 Z20.000
G0 X64.162 Y-63.119
G0 X71.560 Y-77.165
G0 X71.560 Y-77.165 Z18.000
G1 X71.560 Y-77.165 Z12.500 F24000.000
G2 X71.677 Y-77.113 Z12.500 I0.440 J-0.835 F30000.000
G2 X72.887 Y-77.677 Z12.500 I0.323 J-0.887 F30000.000
G2 X72.323 Y-78.887 Z12.500 I-0.887 J-0.323 F30000.000
G2 X71.560 Y-77.165 Z12.500 I-0.323 J0.887 F30000.000
G1 X71.560 Y-77.165 Z12.000 F24000.000
G2 X71.677 Y-77.113 Z12.000 I0.440 J-0.835 F30000.000
G2 X72.887 Y-77.677 Z12.000 I0.323 J-0.887 F30000.000
G2 X72.323 Y-78.887 Z12.000 I-0.887 J-0.323 F30000.000
G2 X71.560 Y-77.165 Z12.000 I-0.323 J0.887 F30000.000
G1 X71.560 Y-77.165 Z11.500 F24000.000
G2 X71.677 Y-77.113 Z11.500 I0.440 J-0.835 F30000.000
G2 X72.887 Y-77.677 Z11.500 I0.323 J-0.887 F30000.000
G2 X72.323 Y-78.887 Z11.500 I-0.887 J-0.323 F30000.000
G2 X71.560 Y-77.165 Z11.500 I-0.323 J0.887 F30000.000
G1 X71.560 Y-77.165 Z11.000 F24000.000
G2 X71.677 Y-77.113 Z11.000 I0.440 J-0.835 F30000.000
G2 X72.887 Y-77.677 Z11.000 I0.323 J-0.887 F30000.000
G2 X72.323 Y-78.887 Z11.000 I-0.887 J-0.323 F30000.000
G2 X71.560 Y-77.165 Z11.000 I-0.323 J0.887 F30000.000
G1 X71.560 Y-77.165 Z10.500 F24000.000
G2 X71.677 Y-77.113 Z10.500 I0.440 J-0.835 F30000.000
G2 X72.887 Y-77.677 Z10.500 I0.323 J-0.887 F30000.000
G2 X72.323 Y-78.887 Z10.500 I-0.887 J-0.323 F30000.000
G2 X71.560 Y-77.165 Z10.500 I-0.323 J0.887 F30000.000
G1 X71.560 Y-77.165 Z10.000 F24000.000
G2 X71.677 Y-77.113 Z10.000 I0.440 J-0.835 F30000.000
G2 X72.887 Y-77.677 Z10.000 I0.323 J-0.887 F30000.000
G2 X72.323 Y-78.887 Z10.000 I-0.887 J-0.323 F30000.000
G2 X71.560 Y-77.165 Z10.000 I-0.323 J0.887 F30000.000
G1 X71.560 Y-77.165 Z9.500 F24000.000
G2 X71.677 Y-77.113 Z9.500 I0.440 J-0.835 F30000.000
G2 X72.887 Y-77.677 Z9.500 I0.323 J-0.887 F30000.000
G2 X72.323 Y-78.887 Z9.500 I-0.887 J-0.323 F30000.000
G2 X71.560 Y-77.165 Z9.500 I-0.323 J0.887 F30000.000
G1 X71.560 Y-77.165 Z9.000 F24000.000
G2 X71.677 Y-77.113 Z9.000 I0.440 J-0.835 F30000.000
G2 X72.887 Y-77.677 Z9.000 I0.323 J-0.887 F30000.000
G2 X72.323 Y-78.887 Z9.000 I-0.887 J-0.323 F30000.000
G2 X71.560 Y-77.165 Z9.000 I-0.323 J0.887 F30000.000
G1 X71.560 Y-77.165 Z8.500 F24000.000
G2 X71.677 Y-77.113 Z8.500 I0.440 J-0.835 F30000.000
G2 X72.887 Y-77.677 Z8.500 I0.323 J-0.887 F30000.000
G2 X72.323 Y-78.887 Z8.500 I-0.887 J-0.323 F30000.000
G2 X71.560 Y-77.165 Z8.500 I-0.323 J0.887 F30000.000
G1 X71.560 Y-77.165 Z8.000 F24000.000
G2 X71.677 Y-77.113 Z8.000 I0.440 J-0.835 F30000.000
G2 X72.887 Y-77.677 Z8.000 I0.323 J-0.887 F30000.000
G2 X72.323 Y-78.887 Z8.000 I-0.887 J-0.323 F30000.000
G2 X71.560 Y-77.165 Z8.000 I-0.323 J0.887 F30000.000
G1 X71.560 Y-77.165 Z7.500 F24000.000
G2 X71.677 Y-77.113 Z7.500 I0.440 J-0.835 F30000.000
G2 X72.887 Y-77.677 Z7.500 I0.323 J-0.887 F30000.000
G2 X72.323 Y-78.887 Z7.500 I-0.887 J-0.323 F30000.000
G2 X71.560 Y-77.165 Z7.500 I-0.323 J0.887 F30000.000
G1 X71.560 Y-77.165 Z7.000 F24000.000
G2 X71.677 Y-77.113 Z7.000 I0.440 J-0.835 F30000.000
G2 X72.887 Y-77.677 Z7.000 I0.323 J-0.887 F30000.000
G2 X72.323 Y-78.887 Z7.000 I-0.887 J-0.323 F30000.000
G2 X71.560 Y-77.165 Z7.000 I-0.323 J0.887 F30000.000
G1 X71.560 Y-77.165 Z6.500 F24000.000
G2 X71.677 Y-77.113 Z6.500 I0.440 J-0.835 F30000.000
G2 X72.887 Y-77.677 Z6.500 I0.323 J-0.887 F30000.000
G2 X72.323 Y-78.887 Z6.500 I-0.887 J-0.323 F30000.000
G2 X71.560 Y-77.165 Z6.500 I-0.323 J0.887 F30000.000
G1 X71.560 Y-77.165 Z6.000 F24000.000
G2 X71.677 Y-77.113 Z6.000 I0.440 J-0.835 F30000.000
G2 X72.887 Y-77.677 Z6.000 I0.323 J-0.887 F30000.000
G2 X72.323 Y-78.887 Z6.000 I-0.887 J-0.323 F30000.000
G2 X71.560 Y-77.165 Z6.000 I-0.323 J0.887 F30000.000
G1 X71.560 Y-77.165 Z5.500 F24000.000
G2 X71.677 Y-77.113 Z5.500 I0.440 J-0.835 F30000.000
G2 X72.887 Y-77.677 Z5.500 I0.323 J-0.887 F30000.000
G2 X72.323 Y-78.887 Z5.500 I-0.887 J-0.323 F30000.000
G2 X71.560 Y-77.165 Z5.500 I-0.323 J0.887 F30000.000
G1 X71.560 Y-77.165 Z5.000 F24000.000
G2 X71.677 Y-77.113 Z5.000 I0.440 J-0.835 F30000.000
G2 X72.887 Y-77.677 Z5.000 I0.323 J-0.887 F30000.000
G2 X72.323 Y-78.887 Z5.000 I-0.887 J-0.323 F30000.000
G2 X71.560 Y-77.165 Z5.000 I-0.323 J0.887 F30000.000
G1 X71.560 Y-77.165 Z4.500 F24000.000
G2 X71.677 Y-77.113 Z4.500 I0.440 J-0.835 F30000.000
G2 X72.887 Y-77.677 Z4.500 I0.323 J-0.887 F30000.000
G2 X72.323 Y-78.887 Z4.500 I-0.887 J-0.323 F30000.000
G2 X71.560 Y-77.165 Z4.500 I-0.323 J0.887 F30000.000
G1 X71.560 Y-77.165 Z4.000 F24000.000
G2 X71.677 Y-77.113 Z4.000 I0.440 J-0.835 F30000.000
G2 X72.887 Y-77.677 Z4.000 I0.323 J-0.887 F30000.000
G2 X72.323 Y-78.887 Z4.000 I-0.887 J-0.323 F30000.000
G2 X71.560 Y-77.165 Z4.000 I-0.323 J0.887 F30000.000
G1 X71.560 Y-77.165 Z3.500 F24000.000
G2 X71.677 Y-77.113 Z3.500 I0.440 J-0.835 F30000.000
G2 X72.887 Y-77.677 Z3.500 I0.323 J-0.887 F30000.000
G2 X72.323 Y-78.887 Z3.500 I-0.887 J-0.323 F30000.000
G2 X71.560 Y-77.165 Z3.500 I-0.323 J0.887 F30000.000
G1 X71.560 Y-77.165 Z3.000 F24000.000
G2 X71.677 Y-77.113 Z3.000 I0.440 J-0.835 F30000.000
G2 X72.887 Y-77.677 Z3.000 I0.323 J-0.887 F30000.000
G2 X72.323 Y-78.887 Z3.000 I-0.887 J-0.323 F30000.000
G2 X71.560 Y-77.165 Z3.000 I-0.323 J0.887 F30000.000
G1 X71.560 Y-77.165 Z2.500 F24000.000
G2 X71.677 Y-77.113 Z2.500 I0.440 J-0.835 F30000.000
G2 X72.887 Y-77.677 Z2.500 I0.323 J-0.887 F30000.000
G2 X72.323 Y-78.887 Z2.500 I-0.887 J-0.323 F30000.000
G2 X71.560 Y-77.165 Z2.500 I-0.323 J0.887 F30000.000
G1 X71.560 Y-77.165 Z2.000 F24000.000
G2 X71.677 Y-77.113 Z2.000 I0.440 J-0.835 F30000.000
G2 X72.887 Y-77.677 Z2.000 I0.323 J-0.887 F30000.000
G2 X72.323 Y-78.887 Z2.000 I-0.887 J-0.323 F30000.000
G2 X71.560 Y-77.165 Z2.000 I-0.323 J0.887 F30000.000
G1 X71.560 Y-77.165 Z1.500 F24000.000
G2 X71.677 Y-77.113 Z1.500 I0.440 J-0.835 F30000.000
G2 X72.887 Y-77.677 Z1.500 I0.323 J-0.887 F30000.000
G2 X72.323 Y-78.887 Z1.500 I-0.887 J-0.323 F30000.000
G2 X71.560 Y-77.165 Z1.500 I-0.323 J0.887 F30000.000
G1 X71.560 Y-77.165 Z1.000 F24000.000
G2 X71.677 Y-77.113 Z1.000 I0.440 J-0.835 F30000.000
G2 X72.887 Y-77.677 Z1.000 I0.323 J-0.887 F30000.000
G2 X72.323 Y-78.887 Z1.000 I-0.887 J-0.323 F30000.000
G2 X71.560 Y-77.165 Z1.000 I-0.323 J0.887 F30000.000
G1 X71.560 Y-77.165 Z0.500 F24000.000
G2 X71.677 Y-77.113 Z0.500 I0.440 J-0.835 F30000.000
G2 X72.887 Y-77.677 Z0.500 I0.323 J-0.887 F30000.000
G2 X72.323 Y-78.887 Z0.500 I-0.887 J-0.323 F30000.000
G2 X71.560 Y-77.165 Z0.500 I-0.323 J0.887 F30000.000
G1 X71.560 Y-77.165 Z0.000 F24000.000
G2 X71.677 Y-77.113 Z0.000 I0.440 J-0.835 F30000.000
G2 X72.887 Y-77.677 Z0.000 I0.323 J-0.887 F30000.000
G2 X72.323 Y-78.887 Z0.000 I-0.887 J-0.323 F30000.000
G2 X71.560 Y-77.165 Z0.000 I-0.323 J0.887 F30000.000
G1 X71.560 Y-77.165 Z-0.250 F24000.000
G2 X71.677 Y-77.113 Z-0.250 I0.440 J-0.835 F30000.000
G2 X72.887 Y-77.677 Z-0.250 I0.323 J-0.887 F30000.000
G2 X72.323 Y-78.887 Z-0.250 I-0.887 J-0.323 F30000.000
G2 X71.560 Y-77.165 Z-0.250 I-0.323 J0.887 F30000.000
G0 Z20.000
G0 Z20.000
G0 X71.560 Y-77.165
G0 X64.906 Y-91.148
G0 X64.906 Y-91.148 Z18.000
G1 X64.906 Y-91.148 Z12.500 F24000.000
G2 X64.823 Y-92.887 Z12.500 I-0.406 J-0.852 F30000.000
G2 X64.177 Y-91.113 Z12.500 I-0.323 J0.887 F30000.000
G2 X64.906 Y-91.148 Z12.500 I0.323 J-0.887 F30000.000
G1 X64.906 Y-91.148 Z12.000 F24000.000
G2 X64.823 Y-92.887 Z12.000 I-0.406 J-0.852 F30000.000
G2 X64.177 Y-91.113 Z12.000 I-0.323 J0.887 F30000.000
G2 X64.906 Y-91.148 Z12.000 I0.323 J-0.887 F30000.000
G1 X64.906 Y-91.148 Z11.500 F24000.000
G2 X64.823 Y-92.887 Z11.500 I-0.406 J-0.852 F30000.000
G2 X64.177 Y-91.113 Z11.500 I-0.323 J0.887 F30000.000
G2 X64.906 Y-91.148 Z11.500 I0.323 J-0.887 F30000.000
G1 X64.906 Y-91.148 Z11.000 F24000.000
G2 X64.823 Y-92.887 Z11.000 I-0.406 J-0.852 F30000.000
G2 X64.177 Y-91.113 Z11.000 I-0.323 J0.887 F30000.000
G2 X64.906 Y-91.148 Z11.000 I0.323 J-0.887 F30000.000
G1 X64.906 Y-91.148 Z10.500 F24000.000
G2 X64.823 Y-92.887 Z10.500 I-0.406 J-0.852 F30000.000
G2 X64.177 Y-91.113 Z10.500 I-0.323 J0.887 F30000.000
G2 X64.906 Y-91.148 Z10.500 I0.323 J-0.887 F30000.000
G1 X64.906 Y-91.148 Z10.000 F24000.000
G2 X64.823 Y-92.887 Z10.000 I-0.406 J-0.852 F30000.000
G2 X64.177 Y-91.113 Z10.000 I-0.323 J0.887 F30000.000
G2 X64.906 Y-91.148 Z10.000 I0.323 J-0.887 F30000.000
G1 X64.906 Y-91.148 Z9.500 F24000.000
G2 X64.823 Y-92.887 Z9.500 I-0.406 J-0.852 F30000.000
G2 X64.177 Y-91.113 Z9.500 I-0.323 J0.887 F30000.000
G2 X64.906 Y-91.148 Z9.500 I0.323 J-0.887 F30000.000
G1 X64.906 Y-91.148 Z9.000 F24000.000
G2 X64.823 Y-92.887 Z9.000 I-0.406 J-0.852 F30000.000
G2 X64.177 Y-91.113 Z9.000 I-0.323 J0.887 F30000.000
G2 X64.906 Y-91.148 Z9.000 I0.323 J-0.887 F30000.000
G1 X64.906 Y-91.148 Z8.500 F24000.000
G2 X64.823 Y-92.887 Z8.500 I-0.406 J-0.852 F30000.000
G2 X64.177 Y-91.113 Z8.500 I-0.323 J0.887 F30000.000
G2 X64.906 Y-91.148 Z8.500 I0.323 J-0.887 F30000.000
G1 X64.906 Y-91.148 Z8.000 F24000.000
G2 X64.823 Y-92.887 Z8.000 I-0.406 J-0.852 F30000.000
G2 X64.177 Y-91.113 Z8.000 I-0.323 J0.887 F30000.000
G2 X64.906 Y-91.148 Z8.000 I0.323 J-0.887 F30000.000
G1 X64.906 Y-91.148 Z7.500 F24000.000
G2 X64.823 Y-92.887 Z7.500 I-0.406 J-0.852 F30000.000
G2 X64.177 Y-91.113 Z7.500 I-0.323 J0.887 F30000.000
G2 X64.906 Y-91.148 Z7.500 I0.323 J-0.887 F30000.000
G1 X64.906 Y-91.148 Z7.000 F24000.000
G2 X64.823 Y-92.887 Z7.000 I-0.406 J-0.852 F30000.000
G2 X64.177 Y-91.113 Z7.000 I-0.323 J0.887 F30000.000
G2 X64.906 Y-91.148 Z7.000 I0.323 J-0.887 F30000.000
G1 X64.906 Y-91.148 Z6.500 F24000.000
G2 X64.823 Y-92.887 Z6.500 I-0.406 J-0.852 F30000.000
G2 X64.177 Y-91.113 Z6.500 I-0.323 J0.887 F30000.000
G2 X64.906 Y-91.148 Z6.500 I0.323 J-0.887 F30000.000
G1 X64.906 Y-91.148 Z6.000 F24000.000
G2 X64.823 Y-92.887 Z6.000 I-0.406 J-0.852 F30000.000
G2 X64.177 Y-91.113 Z6.000 I-0.323 J0.887 F30000.000
G2 X64.906 Y-91.148 Z6.000 I0.323 J-0.887 F30000.000
G1 X64.906 Y-91.148 Z5.500 F24000.000
G2 X64.823 Y-92.887 Z5.500 I-0.406 J-0.852 F30000.000
G2 X64.177 Y-91.113 Z5.500 I-0.323 J0.887 F30000.000
G2 X64.906 Y-91.148 Z5.500 I0.323 J-0.887 F30000.000
G1 X64.906 Y-91.148 Z5.000 F24000.000
G2 X64.823 Y-92.887 Z5.000 I-0.406 J-0.852 F30000.000
G2 X64.177 Y-91.113 Z5.000 I-0.323 J0.887 F30000.000
G2 X64.906 Y-91.148 Z5.000 I0.323 J-0.887 F30000.000
G1 X64.906 Y-91.148 Z4.500 F24000.000
G2 X64.823 Y-92.887 Z4.500 I-0.406 J-0.852 F30000.000
G2 X64.177 Y-91.113 Z4.500 I-0.323 J0.887 F30000.000
G2 X64.906 Y-91.148 Z4.500 I0.323 J-0.887 F30000.000
G1 X64.906 Y-91.148 Z4.000 F24000.000
G2 X64.823 Y-92.887 Z4.000 I-0.406 J-0.852 F30000.000
G2 X64.177 Y-91.113 Z4.000 I-0.323 J0.887 F30000.000
G2 X64.906 Y-91.148 Z4.000 I0.323 J-0.887 F30000.000
G1 X64.906 Y-91.148 Z3.500 F24000.000
G2 X64.823 Y-92.887 Z3.500 I-0.406 J-0.852 F30000.000
G2 X64.177 Y-91.113 Z3.500 I-0.323 J0.887 F30000.000
G2 X64.906 Y-91.148 Z3.500 I0.323 J-0.887 F30000.000
G1 X64.906 Y-91.148 Z3.000 F24000.000
G2 X64.823 Y-92.887 Z3.000 I-0.406 J-0.852 F30000.000
G2 X64.177 Y-91.113 Z3.000 I-0.323 J0.887 F30000.000
G2 X64.906 Y-91.148 Z3.000 I0.323 J-0.887 F30000.000
G1 X64.906 Y-91.148 Z2.500 F24000.000
G2 X64.823 Y-92.887 Z2.500 I-0.406 J-0.852 F30000.000
G2 X64.177 Y-91.113 Z2.500 I-0.323 J0.887 F30000.000
G2 X64.906 Y-91.148 Z2.500 I0.323 J-0.887 F30000.000
G1 X64.906 Y-91.148 Z2.000 F24000.000
G2 X64.823 Y-92.887 Z2.000 I-0.406 J-0.852 F30000.000
G2 X64.177 Y-91.113 Z2.000 I-0.323 J0.887 F30000.000
G2 X64.906 Y-91.148 Z2.000 I0.323 J-0.887 F30000.000
G1 X64.906 Y-91.148 Z1.500 F24000.000
G2 X64.823 Y-92.887 Z1.500 I-0.406 J-0.852 F30000.000
G2 X64.177 Y-91.113 Z1.500 I-0.323 J0.887 F30000.000
G2 X64.906 Y-91.148 Z1.500 I0.323 J-0.887 F30000.000
G1 X64.906 Y-91.148 Z1.000 F24000.000
G2 X64.823 Y-92.887 Z1.000 I-0.406 J-0.852 F30000.000
G2 X64.177 Y-91.113 Z1.000 I-0.323 J0.887 F30000.000
G2 X64.906 Y-91.148 Z1.000 I0.323 J-0.887 F30000.000
G1 X64.906 Y-91.148 Z0.500 F24000.000
G2 X64.823 Y-92.887 Z0.500 I-0.406 J-0.852 F30000.000
G2 X64.177 Y-91.113 Z0.500 I-0.323 J0.887 F30000.000
G2 X64.906 Y-91.148 Z0.500 I0.323 J-0.887 F30000.000
G1 X64.906 Y-91.148 Z0.000 F24000.000
G2 X64.823 Y-92.887 Z0.000 I-0.406 J-0.852 F30000.000
G2 X64.177 Y-91.113 Z0.000 I-0.323 J0.887 F30000.000
G2 X64.906 Y-91.148 Z0.000 I0.323 J-0.887 F30000.000
G1 X64.906 Y-91.148 Z-0.250 F24000.000
G2 X64.823 Y-92.887 Z-0.250 I-0.406 J-0.852 F30000.000
G2 X64.177 Y-91.113 Z-0.250 I-0.323 J0.887 F30000.000
G2 X64.906 Y-91.148 Z-0.250 I0.323 J-0.887 F30000.000
G0 Z20.000
G0 Z20.000
G0 X64.906 Y-91.148
G0 X89.763 Y-93.496
G0 X89.763 Y-93.496 Z18.000
G1 X89.763 Y-93.496 Z12.500 F24000.000
G2 X89.788 Y-93.462 Z12.500 I0.041 J-0.004 F30000.000
G2 X89.822 Y-93.538 Z12.500 I0.017 J-0.038 F30000.000
G2 X89.763 Y-93.496 Z12.500 I-0.017 J0.038 F30000.000
G1 X89.763 Y-93.496 Z12.000 F24000.000
G2 X89.788 Y-93.462 Z12.000 I0.041 J-0.004 F30000.000
G2 X89.822 Y-93.538 Z12.000 I0.017 J-0.038 F30000.000
G2 X89.763 Y-93.496 Z12.000 I-0.017 J0.038 F30000.000
G1 X89.763 Y-93.496 Z11.500 F24000.000
G2 X89.788 Y-93.462 Z11.500 I0.041 J-0.004 F30000.000
G2 X89.822 Y-93.538 Z11.500 I0.017 J-0.038 F30000.000
G2 X89.763 Y-93.496 Z11.500 I-0.017 J0.038 F30000.000
G1 X89.763 Y-93.496 Z11.000 F24000.000
G2 X89.788 Y-93.462 Z11.000 I0.041 J-0.004 F30000.000
G2 X89.822 Y-93.538 Z11.000 I0.017 J-0.038 F30000.000
G2 X89.763 Y-93.496 Z11.000 I-0.017 J0.038 F30000.000
G1 X89.763 Y-93.496 Z10.500 F24000.000
G2 X89.788 Y-93.462 Z10.500 I0.041 J-0.004 F30000.000
G2 X89.822 Y-93.538 Z10.500 I0.017 J-0.038 F30000.000
G2 X89.763 Y-93.496 Z10.500 I-0.017 J0.038 F30000.000
G1 X89.763 Y-93.496 Z10.000 F24000.000
G2 X89.788 Y-93.462 Z10.000 I0.041 J-0.004 F30000.000
G2 X89.822 Y-93.538 Z10.000 I0.017 J-0.038 F30000.000
G2 X89.763 Y-93.496 Z10.000 I-0.017 J0.038 F30000.000
G1 X89.763 Y-93.496 Z9.500 F24000.000
G2 X89.788 Y-93.462 Z9.500 I0.041 J-0.004 F30000.000
G2 X89.822 Y-93.538 Z9.500 I0.017 J-0.038 F30000.000
G2 X89.763 Y-93.496 Z9.500 I-0.017 J0.038 F30000.000
G1 X89.763 Y-93.496 Z9.000 F24000.000
G2 X89.788 Y-93.462 Z9.000 I0.041 J-0.004 F30000.000
G2 X89.822 Y-93.538 Z9.000 I0.017 J-0.038 F30000.000
G2 X89.763 Y-93.496 Z9.000 I-0.017 J0.038 F30000.000
G1 X89.763 Y-93.496 Z8.500 F24000.000
G2 X89.788 Y-93.462 Z8.500 I0.041 J-0.004 F30000.000
G2 X89.822 Y-93.538 Z8.500 I0.017 J-0.038 F30000.000
G2 X89.763 Y-93.496 Z8.500 I-0.017 J0.038 F30000.000
G1 X89.763 Y-93.496 Z8.000 F24000.000
G2 X89.788 Y-93.462 Z8.000 I0.041 J-0.004 F30000.000
G2 X89.822 Y-93.538 Z8.000 I0.017 J-0.038 F30000.000
G2 X89.763 Y-93.496 Z8.000 I-0.017 J0.038 F30000.000
G1 X89.763 Y-93.496 Z7.500 F24000.000
G2 X89.788 Y-93.462 Z7.500 I0.041 J-0.004 F30000.000
G2 X89.822 Y-93.538 Z7.500 I0.017 J-0.038 F30000.000
G2 X89.763 Y-93.496 Z7.500 I-0.017 J0.038 F30000.000
G1 X89.763 Y-93.496 Z7.000 F24000.000
G2 X89.788 Y-93.462 Z7.000 I0.041 J-0.004 F30000.000
G2 X89.822 Y-93.538 Z7.000 I0.017 J-0.038 F30000.000
G2 X89.763 Y-93.496 Z7.000 I-0.017 J0.038 F30000.000
G1 X89.763 Y-93.496 Z6.500 F24000.000
G2 X89.788 Y-93.462 Z6.500 I0.041 J-0.004 F30000.000
G2 X89.822 Y-93.538 Z6.500 I0.017 J-0.038 F30000.000
G2 X89.763 Y-93.496 Z6.500 I-0.017 J0.038 F30000.000
G1 X89.763 Y-93.496 Z6.000 F24000.000
G2 X89.788 Y-93.462 Z6.000 I0.041 J-0.004 F30000.000
G2 X89.822 Y-93.538 Z6.000 I0.017 J-0.038 F30000.000
G2 X89.763 Y-93.496 Z6.000 I-0.017 J0.038 F30000.000
G1 X89.763 Y-93.496 Z5.500 F24000.000
G2 X89.788 Y-93.462 Z5.500 I0.041 J-0.004 F30000.000
G2 X89.822 Y-93.538 Z5.500 I0.017 J-0.038 F30000.000
G2 X89.763 Y-93.496 Z5.500 I-0.017 J0.038 F30000.000
G1 X89.763 Y-93.496 Z5.000 F24000.000
G2 X89.788 Y-93.462 Z5.000 I0.041 J-0.004 F30000.000
G2 X89.822 Y-93.538 Z5.000 I0.017 J-0.038 F30000.000
G2 X89.763 Y-93.496 Z5.000 I-0.017 J0.038 F30000.000
G1 X89.763 Y-93.496 Z4.500 F24000.000
G2 X89.788 Y-93.462 Z4.500 I0.041 J-0.004 F30000.000
G2 X89.822 Y-93.538 Z4.500 I0.017 J-0.038 F30000.000
G2 X89.763 Y-93.496 Z4.500 I-0.017 J0.038 F30000.000
G1 X89.763 Y-93.496 Z4.000 F24000.000
G2 X89.788 Y-93.462 Z4.000 I0.041 J-0.004 F30000.000
G2 X89.822 Y-93.538 Z4.000 I0.017 J-0.038 F30000.000
G2 X89.763 Y-93.496 Z4.000 I-0.017 J0.038 F30000.000
G1 X89.763 Y-93.496 Z3.500 F24000.000
G2 X89.788 Y-93.462 Z3.500 I0.041 J-0.004 F30000.000
G2 X89.822 Y-93.538 Z3.500 I0.017 J-0.038 F30000.000
G2 X89.763 Y-93.496 Z3.500 I-0.017 J0.038 F30000.000
G1 X89.763 Y-93.496 Z3.000 F24000.000
G2 X89.788 Y-93.462 Z3.000 I0.041 J-0.004 F30000.000
G2 X89.822 Y-93.538 Z3.000 I0.017 J-0.038 F30000.000
G2 X89.763 Y-93.496 Z3.000 I-0.017 J0.038 F30000.000
G1 X89.763 Y-93.496 Z2.500 F24000.000
G2 X89.788 Y-93.462 Z2.500 I0.041 J-0.004 F30000.000
G2 X89.822 Y-93.538 Z2.500 I0.017 J-0.038 F30000.000
G2 X89.763 Y-93.496 Z2.500 I-0.017 J0.038 F30000.000
G1 X89.763 Y-93.496 Z2.000 F24000.000
G2 X89.788 Y-93.462 Z2.000 I0.041 J-0.004 F30000.000
G2 X89.822 Y-93.538 Z2.000 I0.017 J-0.038 F30000.000
G2 X89.763 Y-93.496 Z2.000 I-0.017 J0.038 F30000.000
G1 X89.763 Y-93.496 Z1.500 F24000.000
G2 X89.788 Y-93.462 Z1.500 I0.041 J-0.004 F30000.000
G2 X89.822 Y-93.538 Z1.500 I0.017 J-0.038 F30000.000
G2 X89.763 Y-93.496 Z1.500 I-0.017 J0.038 F30000.000
G1 X89.763 Y-93.496 Z1.000 F24000.000
G2 X89.788 Y-93.462 Z1.000 I0.041 J-0.004 F30000.000
G2 X89.822 Y-93.538 Z1.000 I0.017 J-0.038 F30000.000
G2 X89.763 Y-93.496 Z1.000 I-0.017 J0.038 F30000.000
G1 X89.763 Y-93.496 Z0.500 F24000.000
G2 X89.788 Y-93.462 Z0.500 I0.041 J-0.004 F30000.000
G2 X89.822 Y-93.538 Z0.500 I0.017 J-0.038 F30000.000
G2 X89.763 Y-93.496 Z0.500 I-0.017 J0.038 F30000.000
G1 X89.763 Y-93.496 Z0.000 F24000.000
G2 X89.788 Y-93.462 Z0.000 I0.041 J-0.004 F30000.000
G2 X89.822 Y-93.538 Z0.000 I0.017 J-0.038 F30000.000
G2 X89.763 Y-93.496 Z0.000 I-0.017 J0.038 F30000.000
G1 X89.763 Y-93.496 Z-0.250 F24000.000
G2 X89.788 Y-93.462 Z-0.250 I0.041 J-0.004 F30000.000
G2 X89.822 Y-93.538 Z-0.250 I0.017 J-0.038 F30000.000
G2 X89.763 Y-93.496 Z-0.250 I-0.017 J0.038 F30000.000
G0 Z20.000
G0 Z20.000
G0 X89.763 Y-93.496
G0 X104.684 Y-110.593
G0 X104.684 Y-110.593 Z18.000
G1 X104.684 Y-110.593 Z12.500 F24000.000
G2 X104.982 Y-110.418 Z12.500 I0.621 J-0.711 F30000.000
G2 X106.192 Y-110.982 Z12.500 I0.323 J-0.887 F30000.000
G2 X105.628 Y-112.192 Z12.500 I-0.887 J-0.323 F30000.000
G2 X104.684 Y-110.593 Z12.500 I-0.323 J0.887 F30000.000
G1 X104.684 Y-110.593 Z12.000 F24000.000
G2 X104.982 Y-110.418 Z12.000 I0.621 J-0.711 F30000.000
G2 X106.192 Y-110.982 Z12.000 I0.323 J-0.887 F30000.000
G2 X105.628 Y-112.192 Z12.000 I-0.887 J-0.323 F30000.000
G2 X104.684 Y-110.593 Z12.000 I-0.323 J0.887 F30000.000
G1 X104.684 Y-110.593 Z11.500 F24000.000
G2 X104.982 Y-110.418 Z11.500 I0.621 J-0.711 F30000.000
G2 X106.192 Y-110.982 Z11.500 I0.323 J-0.887 F30000.000
G2 X105.628 Y-112.192 Z11.500 I-0.887 J-0.323 F30000.000
G2 X104.684 Y-110.593 Z11.500 I-0.323 J0.887 F30000.000
G1 X104.684 Y-110.593 Z11.000 F24000.000
G2 X104.982 Y-110.418 Z11.000 I0.621 J-0.711 F30000.000
G2 X106.192 Y-110.982 Z11.000 I0.323 J-0.887 F30000.000
G2 X105.628 Y-112.192 Z11.000 I-0.887 J-0.323 F30000.000
G2 X104.684 Y-110.593 Z11.000 I-0.323 J0.887 F30000.000
G1 X104.684 Y-110.593 Z10.500 F24000.000
G2 X104.982 Y-110.418 Z10.500 I0.621 J-0.711 F30000.000
G2 X106.192 Y-110.982 Z10.500 I0.323 J-0.887 F30000.000
G2 X105.628 Y-112.192 Z10.500 I-0.887 J-0.323 F30000.000
G2 X104.684 Y-110.593 Z10.500 I-0.323 J0.887 F30000.000
G1 X104.684 Y-110.593 Z10.000 F24000.000
G2 X104.982 Y-110.418 Z10.000 I0.621 J-0.711 F30000.000
G2 X106.192 Y-110.982 Z10.000 I0.323 J-0.887 F30000.000
G2 X105.628 Y-112.192 Z10.000 I-0.887 J-0.323 F30000.000
G2 X104.684 Y-110.593 Z10.000 I-0.323 J0.887 F30000.000
G1 X104.684 Y-110.593 Z9.500 F24000.000
G2 X104.982 Y-110.418 Z9.500 I0.621 J-0.711 F30000.000
G2 X106.192 Y-110.982 Z9.500 I0.323 J-0.887 F30000.000
G2 X105.628 Y-112.192 Z9.500 I-0.887 J-0.323 F30000.000
G2 X104.684 Y-110.593 Z9.500 I-0.323 J0.887 F30000.000
G1 X104.684 Y-110.593 Z9.000 F24000.000
G2 X104.982 Y-110.418 Z9.000 I0.621 J-0.711 F30000.000
G2 X106.192 Y-110.982 Z9.000 I0.323 J-0.887 F30000.000
G2 X105.628 Y-112.192 Z9.000 I-0.887 J-0.323 F30000.000
G2 X104.684 Y-110.593 Z9.000 I-0.323 J0.887 F30000.000
G1 X104.684 Y-110.593 Z8.500 F24000.000
G2 X104.982 Y-110.418 Z8.500 I0.621 J-0.711 F30000.000
G2 X106.192 Y-110.982 Z8.500 I0.323 J-0.887 F30000.000
G2 X105.628 Y-112.192 Z8.500 I-0.887 J-0.323 F30000.000
G2 X104.684 Y-110.593 Z8.500 I-0.323 J0.887 F30000.000
G1 X104.684 Y-110.593 Z8.000 F24000.000
G2 X104.982 Y-110.418 Z8.000 I0.621 J-0.711 F30000.000
G2 X106.192 Y-110.982 Z8.000 I0.323 J-0.887 F30000.000
G2 X105.628 Y-112.192 Z8.000 I-0.887 J-0.323 F30000.000
G2 X104.684 Y-110.593 Z8.000 I-0.323 J0.887 F30000.000
G1 X104.684 Y-110.593 Z7.500 F24000.000
G2 X104.982 Y-110.418 Z7.500 I0.621 J-0.711 F30000.000
G2 X106.192 Y-110.982 Z7.500 I0.323 J-0.887 F30000.000
G2 X105.628 Y-112.192 Z7.500 I-0.887 J-0.323 F30000.000
G2 X104.684 Y-110.593 Z7.500 I-0.323 J0.887 F30000.000
G1 X104.684 Y-110.593 Z7.000 F24000.000
G2 X104.982 Y-110.418 Z7.000 I0.621 J-0.711 F30000.000
G2 X106.192 Y-110.982 Z7.000 I0.323 J-0.887 F30000.000
G2 X105.628 Y-112.192 Z7.000 I-0.887 J-0.323 F30000.000
G2 X104.684 Y-110.593 Z7.000 I-0.323 J0.887 F30000.000
G1 X104.684 Y-110.593 Z6.500 F24000.000
G2 X104.982 Y-110.418 Z6.500 I0.621 J-0.711 F30000.000
G2 X106.192 Y-110.982 Z6.500 I0.323 J-0.887 F30000.000
G2 X105.628 Y-112.192 Z6.500 I-0.887 J-0.323 F30000.000
G2 X104.684 Y-110.593 Z6.500 I-0.323 J0.887 F30000.000
G1 X104.684 Y-110.593 Z6.000 F24000.000
G2 X104.982 Y-110.418 Z6.000 I0.621 J-0.711 F30000.000
G2 X106.192 Y-110.982 Z6.000 I0.323 J-0.887 F30000.000
G2 X105.628 Y-112.192 Z6.000 I-0.887 J-0.323 F30000.000
G2 X104.684 Y-110.593 Z6.000 I-0.323 J0.887 F30000.000
G1 X104.684 Y-110.593 Z5.500 F24000.000
G2 X104.982 Y-110.418 Z5.500 I0.621 J-0.711 F30000.000
G2 X106.192 Y-110.982 Z5.500 I0.323 J-0.887 F30000.000
G2 X105.628 Y-112.192 Z5.500 I-0.887 J-0.323 F30000.000
G2 X104.684 Y-110.593 Z5.500 I-0.323 J0.887 F30000.000
G1 X104.684 Y-110.593 Z5.000 F24000.000
G2 X104.982 Y-110.418 Z5.000 I0.621 J-0.711 F30000.000
G2 X106.192 Y-110.982 Z5.000 I0.323 J-0.887 F30000.000
G2 X105.628 Y-112.192 Z5.000 I-0.887 J-0.323 F30000.000
G2 X104.684 Y-110.593 Z5.000 I-0.323 J0.887 F30000.000
G1 X104.684 Y-110.593 Z4.500 F24000.000
G2 X104.982 Y-110.418 Z4.500 I0.621 J-0.711 F30000.000
G2 X106.192 Y-110.982 Z4.500 I0.323 J-0.887 F30000.000
G2 X105.628 Y-112.192 Z4.500 I-0.887 J-0.323 F30000.000
G2 X104.684 Y-110.593 Z4.500 I-0.323 J0.887 F30000.000
G1 X104.684 Y-110.593 Z4.000 F24000.000
G2 X104.982 Y-110.418 Z4.000 I0.621 J-0.711 F30000.000
G2 X106.192 Y-110.982 Z4.000 I0.323 J-0.887 F30000.000
G2 X105.628 Y-112.192 Z4.000 I-0.887 J-0.323 F30000.000
G2 X104.684 Y-110.593 Z4.000 I-0.323 J0.887 F30000.000
G1 X104.684 Y-110.593 Z3.500 F24000.000
G2 X104.982 Y-110.418 Z3.500 I0.621 J-0.711 F30000.000
G2 X106.192 Y-110.982 Z3.500 I0.323 J-0.887 F30000.000
G2 X105.628 Y-112.192 Z3.500 I-0.887 J-0.323 F30000.000
G2 X104.684 Y-110.593 Z3.500 I-0.323 J0.887 F30000.000
G1 X104.684 Y-110.593 Z3.000 F24000.000
G2 X104.982 Y-110.418 Z3.000 I0.621 J-0.711 F30000.000
G2 X106.192 Y-110.982 Z3.000 I0.323 J-0.887 F30000.000
G2 X105.628 Y-112.192 Z3.000 I-0.887 J-0.323 F30000.000
G2 X104.684 Y-110.593 Z3.000 I-0.323 J0.887 F30000.000
G1 X104.684 Y-110.593 Z2.500 F24000.000
G2 X104.982 Y-110.418 Z2.500 I0.621 J-0.711 F30000.000
G2 X106.192 Y-110.982 Z2.500 I0.323 J-0.887 F30000.000
G2 X105.628 Y-112.192 Z2.500 I-0.887 J-0.323 F30000.000
G2 X104.684 Y-110.593 Z2.500 I-0.323 J0.887 F30000.000
G1 X104.684 Y-110.593 Z2.000 F24000.000
G2 X104.982 Y-110.418 Z2.000 I0.621 J-0.711 F30000.000
G2 X106.192 Y-110.982 Z2.000 I0.323 J-0.887 F30000.000
G2 X105.628 Y-112.192 Z2.000 I-0.887 J-0.323 F30000.000
G2 X104.684 Y-110.593 Z2.000 I-0.323 J0.887 F30000.000
G1 X104.684 Y-110.593 Z1.500 F24000.000
G2 X104.982 Y-110.418 Z1.500 I0.621 J-0.711 F30000.000
G2 X106.192 Y-110.982 Z1.500 I0.323 J-0.887 F30000.000
G2 X105.628 Y-112.192 Z1.500 I-0.887 J-0.323 F30000.000
G2 X104.684 Y-110.593 Z1.500 I-0.323 J0.887 F30000.000
G1 X104.684 Y-110.593 Z1.000 F24000.000
G2 X104.982 Y-110.418 Z1.000 I0.621 J-0.711 F30000.000
G2 X106.192 Y-110.982 Z1.000 I0.323 J-0.887 F30000.000
G2 X105.628 Y-112.192 Z1.000 I-0.887 J-0.323 F30000.000
G2 X104.684 Y-110.593 Z1.000 I-0.323 J0.887 F30000.000
G1 X104.684 Y-110.593 Z0.500 F24000.000
G2 X104.982 Y-110.418 Z0.500 I0.621 J-0.711 F30000.000
G2 X106.192 Y-110.982 Z0.500 I0.323 J-0.887 F30000.000
G2 X105.628 Y-112.192 Z0.500 I-0.887 J-0.323 F30000.000
G2 X104.684 Y-110.593 Z0.500 I-0.323 J0.887 F30000.000
G1 X104.684 Y-110.593 Z0.000 F24000.000
G2 X104.982 Y-110.418 Z0.000 I0.621 J-0.711 F30000.000
G2 X106.192 Y-110.982 Z0.000 I0.323 J-0.887 F30000.000
G2 X105.628 Y-112.192 Z0.000 I-0.887 J-0.323 F30000.000
G2 X104.684 Y-110.593 Z0.000 I-0.323 J0.887 F30000.000
G1 X104.684 Y-110.593 Z-0.250 F24000.000
G2 X104.982 Y-110.418 Z-0.250 I0.621 J-0.711 F30000.000
G2 X106.192 Y-110.982 Z-0.250 I0.323 J-0.887 F30000.000
G2 X105.628 Y-112.192 Z-0.250 I-0.887 J-0.323 F30000.000
G2 X104.684 Y-110.593 Z-0.250 I-0.323 J0.887 F30000.000
G0 Z20.000
G0 Z20.000
G0 X104.684 Y-110.593
G0 X120.775 Y-93.530
G0 X120.775 Y-93.530 Z18.000
G1 X120.775 Y-93.530 Z12.500 F24000.000
G2 X120.809 Y-93.458 Z12.500 I0.029 J0.031 F30000.000
G2 X120.805 Y-93.541 Z12.500 I-0.004 J-0.042 F30000.000
G1 X120.796 Y-93.541 Z12.500 F30000.000
G2 X120.775 Y-93.530 Z12.500 I0.008 J0.041 F30000.000
G1 X120.775 Y-93.530 Z12.000 F24000.000
G2 X120.809 Y-93.458 Z12.000 I0.029 J0.031 F30000.000
G2 X120.805 Y-93.541 Z12.000 I-0.004 J-0.042 F30000.000
G1 X120.796 Y-93.541 Z12.000 F30000.000
G2 X120.775 Y-93.530 Z12.000 I0.008 J0.041 F30000.000
G1 X120.775 Y-93.530 Z11.500 F24000.000
G2 X120.809 Y-93.458 Z11.500 I0.029 J0.031 F30000.000
G2 X120.805 Y-93.541 Z11.500 I-0.004 J-0.042 F30000.000
G1 X120.796 Y-93.541 Z11.500 F30000.000
G2 X120.775 Y-93.530 Z11.500 I0.008 J0.041 F30000.000
G1 X120.775 Y-93.530 Z11.000 F24000.000
G2 X120.809 Y-93.458 Z11.000 I0.029 J0.031 F30000.000
G2 X120.805 Y-93.541 Z11.000 I-0.004 J-0.042 F30000.000
G1 X120.796 Y-93.541 Z11.000 F30000.000
G2 X120.775 Y-93.530 Z11.000 I0.008 J0.041 F30000.000
G1 X120.775 Y-93.530 Z10.500 F24000.000
G2 X120.809 Y-93.458 Z10.500 I0.029 J0.031 F30000.000
G2 X120.805 Y-93.541 Z10.500 I-0.004 J-0.042 F30000.000
G1 X120.796 Y-93.541 Z10.500 F30000.000
G2 X120.775 Y-93.530 Z10.500 I0.008 J0.041 F30000.000
G1 X120.775 Y-93.530 Z10.000 F24000.000
G2 X120.809 Y-93.458 Z10.000 I0.029 J0.031 F30000.000
G2 X120.805 Y-93.541 Z10.000 I-0.004 J-0.042 F30000.000
G1 X120.796 Y-93.541 Z10.000 F30000.000
G2 X120.775 Y-93.530 Z10.000 I0.008 J0.041 F30000.000
G1 X120.775 Y-93.530 Z9.500 F24000.000
G2 X120.809 Y-93.458 Z9.500 I0.029 J0.031 F30000.000
G2 X120.805 Y-93.541 Z9.500 I-0.004 J-0.042 F30000.000
G1 X120.796 Y-93.541 Z9.500 F30000.000
G2 X120.775 Y-93.530 Z9.500 I0.008 J0.041 F30000.000
G1 X120.775 Y-93.530 Z9.000 F24000.000
G2 X120.809 Y-93.458 Z9.000 I0.029 J0.031 F30000.000
G2 X120.805 Y-93.541 Z9.000 I-0.004 J-0.042 F30000.000
G1 X120.796 Y-93.541 Z9.000 F30000.000
G2 X120.775 Y-93.530 Z9.000 I0.008 J0.041 F30000.000
G1 X120.775 Y-93.530 Z8.500 F24000.000
G2 X120.809 Y-93.458 Z8.500 I0.029 J0.031 F30000.000
G2 X120.805 Y-93.541 Z8.500 I-0.004 J-0.042 F30000.000
G1 X120.796 Y-93.541 Z8.500 F30000.000
G2 X120.775 Y-93.530 Z8.500 I0.008 J0.041 F30000.000
G1 X120.775 Y-93.530 Z8.000 F24000.000
G2 X120.809 Y-93.458 Z8.000 I0.029 J0.031 F30000.000
G2 X120.805 Y-93.541 Z8.000 I-0.004 J-0.042 F30000.000
G1 X120.796 Y-93.541 Z8.000 F30000.000
G2 X120.775 Y-93.530 Z8.000 I0.008 J0.041 F30000.000
G1 X120.775 Y-93.530 Z7.500 F24000.000
G2 X120.809 Y-93.458 Z7.500 I0.029 J0.031 F30000.000
G2 X120.805 Y-93.541 Z7.500 I-0.004 J-0.042 F30000.000
G1 X120.796 Y-93.541 Z7.500 F30000.000
G2 X120.775 Y-93.530 Z7.500 I0.008 J0.041 F30000.000
G1 X120.775 Y-93.530 Z7.000 F24000.000
G2 X120.809 Y-93.458 Z7.000 I0.029 J0.031 F30000.000
G2 X120.805 Y-93.541 Z7.000 I-0.004 J-0.042 F30000.000
G1 X120.796 Y-93.541 Z7.000 F30000.000
G2 X120.775 Y-93.530 Z7.000 I0.008 J0.041 F30000.000
G1 X120.775 Y-93.530 Z6.500 F24000.000
G2 X120.809 Y-93.458 Z6.500 I0.029 J0.031 F30000.000
G2 X120.805 Y-93.541 Z6.500 I-0.004 J-0.042 F30000.000
G1 X120.796 Y-93.541 Z6.500 F30000.000
G2 X120.775 Y-93.530 Z6.500 I0.008 J0.041 F30000.000
G1 X120.775 Y-93.530 Z6.000 F24000.000
G2 X120.809 Y-93.458 Z6.000 I0.029 J0.031 F30000.000
G2 X120.805 Y-93.541 Z6.000 I-0.004 J-0.042 F30000.000
G1 X120.796 Y-93.541 Z6.000 F30000.000
G2 X120.775 Y-93.530 Z6.000 I0.008 J0.041 F30000.000
G1 X120.775 Y-93.530 Z5.500 F24000.000
G2 X120.809 Y-93.458 Z5.500 I0.029 J0.031 F30000.000
G2 X120.805 Y-93.541 Z5.500 I-0.004 J-0.042 F30000.000
G1 X120.796 Y-93.541 Z5.500 F30000.000
G2 X120.775 Y-93.530 Z5.500 I0.008 J0.041 F30000.000
G1 X120.775 Y-93.530 Z5.000 F24000.000
G2 X120.809 Y-93.458 Z5.000 I0.029 J0.031 F30000.000
G2 X120.805 Y-93.541 Z5.000 I-0.004 J-0.042 F30000.000
G1 X120.796 Y-93.541 Z5.000 F30000.000
G2 X120.775 Y-93.530 Z5.000 I0.008 J0.041 F30000.000
G1 X120.775 Y-93.530 Z4.500 F24000.000
G2 X120.809 Y-93.458 Z4.500 I0.029 J0.031 F30000.000
G2 X120.805 Y-93.541 Z4.500 I-0.004 J-0.042 F30000.000
G1 X120.796 Y-93.541 Z4.500 F30000.000
G2 X120.775 Y-93.530 Z4.500 I0.008 J0.041 F30000.000
G1 X120.775 Y-93.530 Z4.000 F24000.000
G2 X120.809 Y-93.458 Z4.000 I0.029 J0.031 F30000.000
G2 X120.805 Y-93.541 Z4.000 I-0.004 J-0.042 F30000.000
G1 X120.796 Y-93.541 Z4.000 F30000.000
G2 X120.775 Y-93.530 Z4.000 I0.008 J0.041 F30000.000
G1 X120.775 Y-93.530 Z3.500 F24000.000
G2 X120.809 Y-93.458 Z3.500 I0.029 J0.031 F30000.000
G2 X120.805 Y-93.541 Z3.500 I-0.004 J-0.042 F30000.000
G1 X120.796 Y-93.541 Z3.500 F30000.000
G2 X120.775 Y-93.530 Z3.500 I0.008 J0.041 F30000.000
G1 X120.775 Y-93.530 Z3.000 F24000.000
G2 X120.809 Y-93.458 Z3.000 I0.029 J0.031 F30000.000
G2 X120.805 Y-93.541 Z3.000 I-0.004 J-0.042 F30000.000
G1 X120.796 Y-93.541 Z3.000 F30000.000
G2 X120.775 Y-93.530 Z3.000 I0.008 J0.041 F30000.000
G1 X120.775 Y-93.530 Z2.500 F24000.000
G2 X120.809 Y-93.458 Z2.500 I0.029 J0.031 F30000.000
G2 X120.805 Y-93.541 Z2.500 I-0.004 J-0.042 F30000.000
G1 X120.796 Y-93.541 Z2.500 F30000.000
G2 X120.775 Y-93.530 Z2.500 I0.008 J0.041 F30000.000
G1 X120.775 Y-93.530 Z2.000 F24000.000
G2 X120.809 Y-93.458 Z2.000 I0.029 J0.031 F30000.000
G2 X120.805 Y-93.541 Z2.000 I-0.004 J-0.042 F30000.000
G1 X120.796 Y-93.541 Z2.000 F30000.000
G2 X120.775 Y-93.530 Z2.000 I0.008 J0.041 F30000.000
G1 X120.775 Y-93.530 Z1.500 F24000.000
G2 X120.809 Y-93.458 Z1.500 I0.029 J0.031 F30000.000
G2 X120.805 Y-93.541 Z1.500 I-0.004 J-0.042 F30000.000
G1 X120.796 Y-93.541 Z1.500 F30000.000
G2 X120.775 Y-93.530 Z1.500 I0.008 J0.041 F30000.000
G1 X120.775 Y-93.530 Z1.000 F24000.000
G2 X120.809 Y-93.458 Z1.000 I0.029 J0.031 F30000.000
G2 X120.805 Y-93.541 Z1.000 I-0.004 J-0.042 F30000.000
G1 X120.796 Y-93.541 Z1.000 F30000.000
G2 X120.775 Y-93.530 Z1.000 I0.008 J0.041 F30000.000
G1 X120.775 Y-93.530 Z0.500 F24000.000
G2 X120.809 Y-93.458 Z0.500 I0.029 J0.031 F30000.000
G2 X120.805 Y-93.541 Z0.500 I-0.004 J-0.042 F30000.000
G1 X120.796 Y-93.541 Z0.500 F30000.000
G2 X120.775 Y-93.530 Z0.500 I0.008 J0.041 F30000.000
G1 X120.775 Y-93.530 Z0.000 F24000.000
G2 X120.809 Y-93.458 Z0.000 I0.029 J0.031 F30000.000
G2 X120.805 Y-93.541 Z0.000 I-0.004 J-0.042 F30000.000
G1 X120.796 Y-93.541 Z0.000 F30000.000
G2 X120.775 Y-93.530 Z0.000 I0.008 J0.041 F30000.000
G1 X120.775 Y-93.530 Z-0.250 F24000.000
G2 X120.809 Y-93.458 Z-0.250 I0.029 J0.031 F30000.000
G2 X120.805 Y-93.541 Z-0.250 I-0.004 J-0.042 F30000.000
G1 X120.796 Y-93.541 Z-0.250 F30000.000
G2 X120.775 Y-93.530 Z-0.250 I0.008 J0.041 F30000.000
G0 Z20.000
G0 Z20.000
G0 X120.775 Y-93.530
G0 X137.897 Y-78.620
G0 X137.897 Y-78.620 Z18.000
G1 X137.897 Y-78.620 Z12.500 F24000.000
G2 X138.287 Y-77.113 Z12.500 I0.712 J0.620 F30000.000
G2 X139.497 Y-77.677 Z12.500 I0.323 J-0.887 F30000.000
G2 X138.932 Y-78.887 Z12.500 I-0.887 J-0.323 F30000.000
G2 X137.897 Y-78.620 Z12.500 I-0.323 J0.887 F30000.000
G1 X137.897 Y-78.620 Z12.000 F24000.000
G2 X138.287 Y-77.113 Z12.000 I0.712 J0.620 F30000.000
G2 X139.497 Y-77.677 Z12.000 I0.323 J-0.887 F30000.000
G2 X138.932 Y-78.887 Z12.000 I-0.887 J-0.323 F30000.000
G2 X137.897 Y-78.620 Z12.000 I-0.323 J0.887 F30000.000
G1 X137.897 Y-78.620 Z11.500 F24000.000
G2 X138.287 Y-77.113 Z11.500 I0.712 J0.620 F30000.000
G2 X139.497 Y-77.677 Z11.500 I0.323 J-0.887 F30000.000
G2 X138.932 Y-78.887 Z11.500 I-0.887 J-0.323 F30000.000
G2 X137.897 Y-78.620 Z11.500 I-0.323 J0.887 F30000.000
G1 X137.897 Y-78.620 Z11.000 F24000.000
G2 X138.287 Y-77.113 Z11.000 I0.712 J0.620 F30000.000
G2 X139.497 Y-77.677 Z11.000 I0.323 J-0.887 F30000.000
G2 X138.932 Y-78.887 Z11.000 I-0.887 J-0.323 F30000.000
G2 X137.897 Y-78.620 Z11.000 I-0.323 J0.887 F30000.000
G1 X137.897 Y-78.620 Z10.500 F24000.000
G2 X138.287 Y-77.113 Z10.500 I0.712 J0.620 F30000.000
G2 X139.497 Y-77.677 Z10.500 I0.323 J-0.887 F30000.000
G2 X138.932 Y-78.887 Z10.500 I-0.887 J-0.323 F30000.000
G2 X137.897 Y-78.620 Z10.500 I-0.323 J0.887 F30000.000
G1 X137.897 Y-78.620 Z10.000 F24000.000
G2 X138.287 Y-77.113 Z10.000 I0.712 J0.620 F30000.000
G2 X139.497 Y-77.677 Z10.000 I0.323 J-0.887 F30000.000
G2 X138.932 Y-78.887 Z10.000 I-0.887 J-0.323 F30000.000
G2 X137.897 Y-78.620 Z10.000 I-0.323 J0.887 F30000.000
G1 X137.897 Y-78.620 Z9.500 F24000.000
G2 X138.287 Y-77.113 Z9.500 I0.712 J0.620 F30000.000
G2 X139.497 Y-77.677 Z9.500 I0.323 J-0.887 F30000.000
G2 X138.932 Y-78.887 Z9.500 I-0.887 J-0.323 F30000.000
G2 X137.897 Y-78.620 Z9.500 I-0.323 J0.887 F30000.000
G1 X137.897 Y-78.620 Z9.000 F24000.000
G2 X138.287 Y-77.113 Z9.000 I0.712 J0.620 F30000.000
G2 X139.497 Y-77.677 Z9.000 I0.323 J-0.887 F30000.000
G2 X138.932 Y-78.887 Z9.000 I-0.887 J-0.323 F30000.000
G2 X137.897 Y-78.620 Z9.000 I-0.323 J0.887 F30000.000
G1 X137.897 Y-78.620 Z8.500 F24000.000
G2 X138.287 Y-77.113 Z8.500 I0.712 J0.620 F30000.000
G2 X139.497 Y-77.677 Z8.500 I0.323 J-0.887 F30000.000
G2 X138.932 Y-78.887 Z8.500 I-0.887 J-0.323 F30000.000
G2 X137.897 Y-78.620 Z8.500 I-0.323 J0.887 F30000.000
G1 X137.897 Y-78.620 Z8.000 F24000.000
G2 X138.287 Y-77.113 Z8.000 I0.712 J0.620 F30000.000
G2 X139.497 Y-77.677 Z8.000 I0.323 J-0.887 F30000.000
G2 X138.932 Y-78.887 Z8.000 I-0.887 J-0.323 F30000.000
G2 X137.897 Y-78.620 Z8.000 I-0.323 J0.887 F30000.000
G1 X137.897 Y-78.620 Z7.500 F24000.000
G2 X138.287 Y-77.113 Z7.500 I0.712 J0.620 F30000.000
G2 X139.497 Y-77.677 Z7.500 I0.323 J-0.887 F30000.000
G2 X138.932 Y-78.887 Z7.500 I-0.887 J-0.323 F30000.000
G2 X137.897 Y-78.620 Z7.500 I-0.323 J0.887 F30000.000
G1 X137.897 Y-78.620 Z7.000 F24000.000
G2 X138.287 Y-77.113 Z7.000 I0.712 J0.620 F30000.000
G2 X139.497 Y-77.677 Z7.000 I0.323 J-0.887 F30000.000
G2 X138.932 Y-78.887 Z7.000 I-0.887 J-0.323 F30000.000
G2 X137.897 Y-78.620 Z7.000 I-0.323 J0.887 F30000.000
G1 X137.897 Y-78.620 Z6.500 F24000.000
G2 X138.287 Y-77.113 Z6.500 I0.712 J0.620 F30000.000
G2 X139.497 Y-77.677 Z6.500 I0.323 J-0.887 F30000.000
G2 X138.932 Y-78.887 Z6.500 I-0.887 J-0.323 F30000.000
G2 X137.897 Y-78.620 Z6.500 I-0.323 J0.887 F30000.000
G1 X137.897 Y-78.620 Z6.000 F24000.000
G2 X138.287 Y-77.113 Z6.000 I0.712 J0.620 F30000.000
G2 X139.497 Y-77.677 Z6.000 I0.323 J-0.887 F30000.000
G2 X138.932 Y-78.887 Z6.000 I-0.887 J-0.323 F30000.000
G2 X137.897 Y-78.620 Z6.000 I-0.323 J0.887 F30000.000
G1 X137.897 Y-78.620 Z5.500 F24000.000
G2 X138.287 Y-77.113 Z5.500 I0.712 J0.620 F30000.000
G2 X139.497 Y-77.677 Z5.500 I0.323 J-0.887 F30000.000
G2 X138.932 Y-78.887 Z5.500 I-0.887 J-0.323 F30000.000
G2 X137.897 Y-78.620 Z5.500 I-0.323 J0.887 F30000.000
G1 X137.897 Y-78.620 Z5.000 F24000.000
G2 X138.287 Y-77.113 Z5.000 I0.712 J0.620 F30000.000
G2 X139.497 Y-77.677 Z5.000 I0.323 J-0.887 F30000.000
G2 X138.932 Y-78.887 Z5.000 I-0.887 J-0.323 F30000.000
G2 X137.897 Y-78.620 Z5.000 I-0.323 J0.887 F30000.000
G1 X137.897 Y-78.620 Z4.500 F24000.000
G2 X138.287 Y-77.113 Z4.500 I0.712 J0.620 F30000.000
G2 X139.497 Y-77.677 Z4.500 I0.323 J-0.887 F30000.000
G2 X138.932 Y-78.887 Z4.500 I-0.887 J-0.323 F30000.000
G2 X137.897 Y-78.620 Z4.500 I-0.323 J0.887 F30000.000
G1 X137.897 Y-78.620 Z4.000 F24000.000
G2 X138.287 Y-77.113 Z4.000 I0.712 J0.620 F30000.000
G2 X139.497 Y-77.677 Z4.000 I0.323 J-0.887 F30000.000
G2 X138.932 Y-78.887 Z4.000 I-0.887 J-0.323 F30000.000
G2 X137.897 Y-78.620 Z4.000 I-0.323 J0.887 F30000.000
G1 X137.897 Y-78.620 Z3.500 F24000.000
G2 X138.287 Y-77.113 Z3.500 I0.712 J0.620 F30000.000
G2 X139.497 Y-77.677 Z3.500 I0.323 J-0.887 F30000.000
G2 X138.932 Y-78.887 Z3.500 I-0.887 J-0.323 F30000.000
G2 X137.897 Y-78.620 Z3.500 I-0.323 J0.887 F30000.000
G1 X137.897 Y-78.620 Z3.000 F24000.000
G2 X138.287 Y-77.113 Z3.000 I0.712 J0.620 F30000.000
G2 X139.497 Y-77.677 Z3.000 I0.323 J-0.887 F30000.000
G2 X138.932 Y-78.887 Z3.000 I-0.887 J-0.323 F30000.000
G2 X137.897 Y-78.620 Z3.000 I-0.323 J0.887 F30000.000
G1 X137.897 Y-78.620 Z2.500 F24000.000
G2 X138.287 Y-77.113 Z2.500 I0.712 J0.620 F30000.000
G2 X139.497 Y-77.677 Z2.500 I0.323 J-0.887 F30000.000
G2 X138.932 Y-78.887 Z2.500 I-0.887 J-0.323 F30000.000
G2 X137.897 Y-78.620 Z2.500 I-0.323 J0.887 F30000.000
G1 X137.897 Y-78.620 Z2.000 F24000.000
G2 X138.287 Y-77.113 Z2.000 I0.712 J0.620 F30000.000
G2 X139.497 Y-77.677 Z2.000 I0.323 J-0.887 F30000.000
G2 X138.932 Y-78.887 Z2.000 I-0.887 J-0.323 F30000.000
G2 X137.897 Y-78.620 Z2.000 I-0.323 J0.887 F30000.000
G1 X137.897 Y-78.620 Z1.500 F24000.000
G2 X138.287 Y-77.113 Z1.500 I0.712 J0.620 F30000.000
G2 X139.497 Y-77.677 Z1.500 I0.323 J-0.887 F30000.000
G2 X138.932 Y-78.887 Z1.500 I-0.887 J-0.323 F30000.000
G2 X137.897 Y-78.620 Z1.500 I-0.323 J0.887 F30000.000
G1 X137.897 Y-78.620 Z1.000 F24000.000
G2 X138.287 Y-77.113 Z1.000 I0.712 J0.620 F30000.000
G2 X139.497 Y-77.677 Z1.000 I0.323 J-0.887 F30000.000
G2 X138.932 Y-78.887 Z1.000 I-0.887 J-0.323 F30000.000
G2 X137.897 Y-78.620 Z1.000 I-0.323 J0.887 F30000.000
G1 X137.897 Y-78.620 Z0.500 F24000.000
G2 X138.287 Y-77.113 Z0.500 I0.712 J0.620 F30000.000
G2 X139.497 Y-77.677 Z0.500 I0.323 J-0.887 F30000.000
G2 X138.932 Y-78.887 Z0.500 I-0.887 J-0.323 F30000.000
G2 X137.897 Y-78.620 Z0.500 I-0.323 J0.887 F30000.000
G1 X137.897 Y-78.620 Z0.000 F24000.000
G2 X138.287 Y-77.113 Z0.000 I0.712 J0.620 F30000.000
G2 X139.497 Y-77.677 Z0.000 I0.323 J-0.887 F30000.000
G2 X138.932 Y-78.887 Z0.000 I-0.887 J-0.323 F30000.000
G2 X137.897 Y-78.620 Z0.000 I-0.323 J0.887 F30000.000
G1 X137.897 Y-78.620 Z-0.250 F24000.000
G2 X138.287 Y-77.113 Z-0.250 I0.712 J0.620 F30000.000
G2 X139.497 Y-77.677 Z-0.250 I0.323 J-0.887 F30000.000
G2 X138.932 Y-78.887 Z-0.250 I-0.887 J-0.323 F30000.000
G2 X137.897 Y-78.620 Z-0.250 I-0.323 J0.887 F30000.000
G0 Z20.000
G0 Z20.000
G0 X137.897 Y-78.620
G0 X120.835 Y-62.528
G0 X120.835 Y-62.528 Z18.000
G1 X120.835 Y-62.528 Z12.500 F24000.000
G2 X120.822 Y-62.538 Z12.500 I-0.030 J0.028 F30000.000
G2 X120.788 Y-62.462 Z12.500 I-0.017 J0.038 F30000.000
G2 X120.835 Y-62.528 Z12.500 I0.017 J-0.038 F30000.000
G1 X120.835 Y-62.528 Z12.000 F24000.000
G2 X120.822 Y-62.538 Z12.000 I-0.030 J0.028 F30000.000
G2 X120.788 Y-62.462 Z12.000 I-0.017 J0.038 F30000.000
G2 X120.835 Y-62.528 Z12.000 I0.017 J-0.038 F30000.000
G1 X120.835 Y-62.528 Z11.500 F24000.000
G2 X120.822 Y-62.538 Z11.500 I-0.030 J0.028 F30000.000
G2 X120.788 Y-62.462 Z11.500 I-0.017 J0.038 F30000.000
G2 X120.835 Y-62.528 Z11.500 I0.017 J-0.038 F30000.000
G1 X120.835 Y-62.528 Z11.000 F24000.000
G2 X120.822 Y-62.538 Z11.000 I-0.030 J0.028 F30000.000
G2 X120.788 Y-62.462 Z11.000 I-0.017 J0.038 F30000.000
G2 X120.835 Y-62.528 Z11.000 I0.017 J-0.038 F30000.000
G1 X120.835 Y-62.528 Z10.500 F24000.000
G2 X120.822 Y-62.538 Z10.500 I-0.030 J0.028 F30000.000
G2 X120.788 Y-62.462 Z10.500 I-0.017 J0.038 F30000.000
G2 X120.835 Y-62.528 Z10.500 I0.017 J-0.038 F30000.000
G1 X120.835 Y-62.528 Z10.000 F24000.000
G2 X120.822 Y-62.538 Z10.000 I-0.030 J0.028 F30000.000
G2 X120.788 Y-62.462 Z10.000 I-0.017 J0.038 F30000.000
G2 X120.835 Y-62.528 Z10.000 I0.017 J-0.038 F30000.000
G1 X120.835 Y-62.528 Z9.500 F24000.000
G2 X120.822 Y-62.538 Z9.500 I-0.030 J0.028 F30000.000
G2 X120.788 Y-62.462 Z9.500 I-0.017 J0.038 F30000.000
G2 X120.835 Y-62.528 Z9.500 I0.017 J-0.038 F30000.000
G1 X120.835 Y-62.528 Z9.000 F24000.000
G2 X120.822 Y-62.538 Z9.000 I-0.030 J0.028 F30000.000
G2 X120.788 Y-62.462 Z9.000 I-0.017 J0.038 F30000.000
G2 X120.835 Y-62.528 Z9.000 I0.017 J-0.038 F30000.000
G1 X120.835 Y-62.528 Z8.500 F24000.000
G2 X120.822 Y-62.538 Z8.500 I-0.030 J0.028 F30000.000
G2 X120.788 Y-62.462 Z8.500 I-0.017 J0.038 F30000.000
G2 X120.835 Y-62.528 Z8.500 I0.017 J-0.038 F30000.000
G1 X120.835 Y-62.528 Z8.000 F24000.000
G2 X120.822 Y-62.538 Z8.000 I-0.030 J0.028 F30000.000
G2 X120.788 Y-62.462 Z8.000 I-0.017 J0.038 F30000.000
G2 X120.835 Y-62.528 Z8.000 I0.017 J-0.038 F30000.000
G1 X120.835 Y-62.528 Z7.500 F24000.000
G2 X120.822 Y-62.538 Z7.500 I-0.030 J0.028 F30000.000
G2 X120.788 Y-62.462 Z7.500 I-0.017 J0.038 F30000.000
G2 X120.835 Y-62.528 Z7.500 I0.017 J-0.038 F30000.000
G1 X120.835 Y-62.528 Z7.000 F24000.000
G2 X120.822 Y-62.538 Z7.000 I-0.030 J0.028 F30000.000
G2 X120.788 Y-62.462 Z7.000 I-0.017 J0.038 F30000.000
G2 X120.835 Y-62.528 Z7.000 I0.017 J-0.038 F30000.000
G1 X120.835 Y-62.528 Z6.500 F24000.000
G2 X120.822 Y-62.538 Z6.500 I-0.030 J0.028 F30000.000
G2 X120.788 Y-62.462 Z6.500 I-0.017 J0.038 F30000.000
G2 X120.835 Y-62.528 Z6.500 I0.017 J-0.038 F30000.000
G1 X120.835 Y-62.528 Z6.000 F24000.000
G2 X120.822 Y-62.538 Z6.000 I-0.030 J0.028 F30000.000
G2 X120.788 Y-62.462 Z6.000 I-0.017 J0.038 F30000.000
G2 X120.835 Y-62.528 Z6.000 I0.017 J-0.038 F30000.000
G1 X120.835 Y-62.528 Z5.500 F24000.000
G2 X120.822 Y-62.538 Z5.500 I-0.030 J0.028 F30000.000
G2 X120.788 Y-62.462 Z5.500 I-0.017 J0.038 F30000.000
G2 X120.835 Y-62.528 Z5.500 I0.017 J-0.038 F30000.000
G1 X120.835 Y-62.528 Z5.000 F24000.000
G2 X120.822 Y-62.538 Z5.000 I-0.030 J0.028 F30000.000
G2 X120.788 Y-62.462 Z5.000 I-0.017 J0.038 F30000.000
G2 X120.835 Y-62.528 Z5.000 I0.017 J-0.038 F30000.000
G1 X120.835 Y-62.528 Z4.500 F24000.000
G2 X120.822 Y-62.538 Z4.500 I-0.030 J0.028 F30000.000
G2 X120.788 Y-62.462 Z4.500 I-0.017 J0.038 F30000.000
G2 X120.835 Y-62.528 Z4.500 I0.017 J-0.038 F30000.000
G1 X120.835 Y-62.528 Z4.000 F24000.000
G2 X120.822 Y-62.538 Z4.000 I-0.030 J0.028 F30000.000
G2 X120.788 Y-62.462 Z4.000 I-0.017 J0.038 F30000.000
G2 X120.835 Y-62.528 Z4.000 I0.017 J-0.038 F30000.000
G1 X120.835 Y-62.528 Z3.500 F24000.000
G2 X120.822 Y-62.538 Z3.500 I-0.030 J0.028 F30000.000
G2 X120.788 Y-62.462 Z3.500 I-0.017 J0.038 F30000.000
G2 X120.835 Y-62.528 Z3.500 I0.017 J-0.038 F30000.000
G1 X120.835 Y-62.528 Z3.000 F24000.000
G2 X120.822 Y-62.538 Z3.000 I-0.030 J0.028 F30000.000
G2 X120.788 Y-62.462 Z3.000 I-0.017 J0.038 F30000.000
G2 X120.835 Y-62.528 Z3.000 I0.017 J-0.038 F30000.000
G1 X120.835 Y-62.528 Z2.500 F24000.000
G2 X120.822 Y-62.538 Z2.500 I-0.030 J0.028 F30000.000
G2 X120.788 Y-62.462 Z2.500 I-0.017 J0.038 F30000.000
G2 X120.835 Y-62.528 Z2.500 I0.017 J-0.038 F30000.000
G1 X120.835 Y-62.528 Z2.000 F24000.000
G2 X120.822 Y-62.538 Z2.000 I-0.030 J0.028 F30000.000
G2 X120.788 Y-62.462 Z2.000 I-0.017 J0.038 F30000.000
G2 X120.835 Y-62.528 Z2.000 I0.017 J-0.038 F30000.000
G1 X120.835 Y-62.528 Z1.500 F24000.000
G2 X120.822 Y-62.538 Z1.500 I-0.030 J0.028 F30000.000
G2 X120.788 Y-62.462 Z1.500 I-0.017 J0.038 F30000.000
G2 X120.835 Y-62.528 Z1.500 I0.017 J-0.038 F30000.000
G1 X120.835 Y-62.528 Z1.000 F24000.000
G2 X120.822 Y-62.538 Z1.000 I-0.030 J0.028 F30000.000
G2 X120.788 Y-62.462 Z1.000 I-0.017 J0.038 F30000.000
G2 X120.835 Y-62.528 Z1.000 I0.017 J-0.038 F30000.000
G1 X120.835 Y-62.528 Z0.500 F24000.000
G2 X120.822 Y-62.538 Z0.500 I-0.030 J0.028 F30000.000
G2 X120.788 Y-62.462 Z0.500 I-0.017 J0.038 F30000.000
G2 X120.835 Y-62.528 Z0.500 I0.017 J-0.038 F30000.000
G1 X120.835 Y-62.528 Z0.000 F24000.000
G2 X120.822 Y-62.538 Z0.000 I-0.030 J0.028 F30000.000
G2 X120.788 Y-62.462 Z0.000 I-0.017 J0.038 F30000.000
G2 X120.835 Y-62.528 Z0.000 I0.017 J-0.038 F30000.000
G1 X120.835 Y-62.528 Z-0.250 F24000.000
G2 X120.822 Y-62.538 Z-0.250 I-0.030 J0.028 F30000.000
G2 X120.788 Y-62.462 Z-0.250 I-0.017 J0.038 F30000.000
G2 X120.835 Y-62.528 Z-0.250 I0.017 J-0.038 F30000.000
G0 Z20.000
G0 Z20.000
G0 X120.835 Y-62.528
G0 X113.416 Y-69.920
G0 X113.416 Y-69.920 Z18.000
G1 X113.416 Y-69.920 Z12.500 F24000.000
G2 X107.052 Y-89.315 Z12.500 I-8.111 J-8.080 F30000.000
G2 X93.990 Y-79.748 Z12.500 I-1.748 J11.315 F30000.000
G2 X103.557 Y-66.685 Z12.500 I11.315 J1.748 F30000.000
G2 X113.416 Y-69.920 Z12.500 I1.748 J-11.315 F30000.000
G1 X113.416 Y-69.920 Z12.000 F24000.000
G2 X107.052 Y-89.315 Z12.000 I-8.111 J-8.080 F30000.000
G2 X93.990 Y-79.748 Z12.000 I-1.748 J11.315 F30000.000
G2 X103.557 Y-66.685 Z12.000 I11.315 J1.748 F30000.000
G2 X113.416 Y-69.920 Z12.000 I1.748 J-11.315 F30000.000
G1 X113.416 Y-69.920 Z11.500 F24000.000
G2 X107.052 Y-89.315 Z11.500 I-8.111 J-8.080 F30000.000
G2 X93.990 Y-79.748 Z11.500 I-1.748 J11.315 F30000.000
G2 X103.557 Y-66.685 Z11.500 I11.315 J1.748 F30000.000
G2 X113.416 Y-69.920 Z11.500 I1.748 J-11.315 F30000.000
G1 X113.416 Y-69.920 Z11.000 F24000.000
G2 X107.052 Y-89.315 Z11.000 I-8.111 J-8.080 F30000.000
G2 X93.990 Y-79.748 Z11.000 I-1.748 J11.315 F30000.000
G2 X103.557 Y-66.685 Z11.000 I11.315 J1.748 F30000.000
G2 X113.416 Y-69.920 Z11.000 I1.748 J-11.315 F30000.000
G1 X113.416 Y-69.920 Z10.500 F24000.000
G2 X107.052 Y-89.315 Z10.500 I-8.111 J-8.080 F30000.000
G2 X93.990 Y-79.748 Z10.500 I-1.748 J11.315 F30000.000
G2 X103.557 Y-66.685 Z10.500 I11.315 J1.748 F30000.000
G2 X113.416 Y-69.920 Z10.500 I1.748 J-11.315 F30000.000
G1 X113.416 Y-69.920 Z10.000 F24000.000
G2 X107.052 Y-89.315 Z10.000 I-8.111 J-8.080 F30000.000
G2 X93.990 Y-79.748 Z10.000 I-1.748 J11.315 F30000.000
G2 X103.557 Y-66.685 Z10.000 I11.315 J1.748 F30000.000
G2 X113.416 Y-69.920 Z10.000 I1.748 J-11.315 F30000.000
G1 X113.416 Y-69.920 Z9.500 F24000.000
G2 X107.052 Y-89.315 Z9.500 I-8.111 J-8.080 F30000.000
G2 X93.990 Y-79.748 Z9.500 I-1.748 J11.315 F30000.000
G2 X103.557 Y-66.685 Z9.500 I11.315 J1.748 F30000.000
G2 X113.416 Y-69.920 Z9.500 I1.748 J-11.315 F30000.000
G1 X113.416 Y-69.920 Z9.000 F24000.000
G2 X107.052 Y-89.315 Z9.000 I-8.111 J-8.080 F30000.000
G2 X93.990 Y-79.748 Z9.000 I-1.748 J11.315 F30000.000
G2 X103.557 Y-66.685 Z9.000 I11.315 J1.748 F30000.000
G2 X113.416 Y-69.920 Z9.000 I1.748 J-11.315 F30000.000
G1 X113.416 Y-69.920 Z8.500 F24000.000
G2 X107.052 Y-89.315 Z8.500 I-8.111 J-8.080 F30000.000
G2 X93.990 Y-79.748 Z8.500 I-1.748 J11.315 F30000.000
G2 X103.557 Y-66.685 Z8.500 I11.315 J1.748 F30000.000
G2 X113.416 Y-69.920 Z8.500 I1.748 J-11.315 F30000.000
G1 X113.416 Y-69.920 Z8.000 F24000.000
G2 X107.052 Y-89.315 Z8.000 I-8.111 J-8.080 F30000.000
G2 X93.990 Y-79.748 Z8.000 I-1.748 J11.315 F30000.000
G2 X103.557 Y-66.685 Z8.000 I11.315 J1.748 F30000.000
G2 X113.416 Y-69.920 Z8.000 I1.748 J-11.315 F30000.000
G1 X113.416 Y-69.920 Z7.500 F24000.000
G2 X107.052 Y-89.315 Z7.500 I-8.111 J-8.080 F30000.000
G2 X93.990 Y-79.748 Z7.500 I-1.748 J11.315 F30000.000
G2 X103.557 Y-66.685 Z7.500 I11.315 J1.748 F30000.000
G2 X113.416 Y-69.920 Z7.500 I1.748 J-11.315 F30000.000
G1 X113.416 Y-69.920 Z7.000 F24000.000
G2 X107.052 Y-89.315 Z7.000 I-8.111 J-8.080 F30000.000
G2 X93.990 Y-79.748 Z7.000 I-1.748 J11.315 F30000.000
G2 X103.557 Y-66.685 Z7.000 I11.315 J1.748 F30000.000
G2 X113.416 Y-69.920 Z7.000 I1.748 J-11.315 F30000.000
G1 X113.416 Y-69.920 Z6.500 F24000.000
G2 X107.052 Y-89.315 Z6.500 I-8.111 J-8.080 F30000.000
G2 X93.990 Y-79.748 Z6.500 I-1.748 J11.315 F30000.000
G2 X103.557 Y-66.685 Z6.500 I11.315 J1.748 F30000.000
G2 X113.416 Y-69.920 Z6.500 I1.748 J-11.315 F30000.000
G1 X113.416 Y-69.920 Z6.000 F24000.000
G2 X107.052 Y-89.315 Z6.000 I-8.111 J-8.080 F30000.000
G2 X93.990 Y-79.748 Z6.000 I-1.748 J11.315 F30000.000
G2 X103.557 Y-66.685 Z6.000 I11.315 J1.748 F30000.000
G2 X113.416 Y-69.920 Z6.000 I1.748 J-11.315 F30000.000
G1 X113.416 Y-69.920 Z5.500 F24000.000
G2 X107.052 Y-89.315 Z5.500 I-8.111 J-8.080 F30000.000
G2 X93.990 Y-79.748 Z5.500 I-1.748 J11.315 F30000.000
G2 X103.557 Y-66.685 Z5.500 I11.315 J1.748 F30000.000
G2 X113.416 Y-69.920 Z5.500 I1.748 J-11.315 F30000.000
G1 X113.416 Y-69.920 Z5.000 F24000.000
G2 X107.052 Y-89.315 Z5.000 I-8.111 J-8.080 F30000.000
G2 X93.990 Y-79.748 Z5.000 I-1.748 J11.315 F30000.000
G2 X103.557 Y-66.685 Z5.000 I11.315 J1.748 F30000.000
G2 X113.416 Y-69.920 Z5.000 I1.748 J-11.315 F30000.000
G1 X113.416 Y-69.920 Z4.500 F24000.000
G2 X107.052 Y-89.315 Z4.500 I-8.111 J-8.080 F30000.000
G2 X93.990 Y-79.748 Z4.500 I-1.748 J11.315 F30000.000
G2 X103.557 Y-66.685 Z4.500 I11.315 J1.748 F30000.000
G2 X113.416 Y-69.920 Z4.500 I1.748 J-11.315 F30000.000
G1 X113.416 Y-69.920 Z4.000 F24000.000
G2 X107.052 Y-89.315 Z4.000 I-8.111 J-8.080 F30000.000
G2 X93.990 Y-79.748 Z4.000 I-1.748 J11.315 F30000.000
G2 X103.557 Y-66.685 Z4.000 I11.315 J1.748 F30000.000
G2 X113.416 Y-69.920 Z4.000 I1.748 J-11.315 F30000.000
G1 X113.416 Y-69.920 Z3.500 F24000.000
G2 X107.052 Y-89.315 Z3.500 I-8.111 J-8.080 F30000.000
G2 X93.990 Y-79.748 Z3.500 I-1.748 J11.315 F30000.000
G2 X103.557 Y-66.685 Z3.500 I11.315 J1.748 F30000.000
G2 X113.416 Y-69.920 Z3.500 I1.748 J-11.315 F30000.000
G1 X113.416 Y-69.920 Z3.000 F24000.000
G2 X107.052 Y-89.315 Z3.000 I-8.111 J-8.080 F30000.000
G2 X93.990 Y-79.748 Z3.000 I-1.748 J11.315 F30000.000
G2 X103.557 Y-66.685 Z3.000 I11.315 J1.748 F30000.000
G2 X113.416 Y-69.920 Z3.000 I1.748 J-11.315 F30000.000
G1 X113.416 Y-69.920 Z2.500 F24000.000
G2 X107.052 Y-89.315 Z2.500 I-8.111 J-8.080 F30000.000
G2 X93.990 Y-79.748 Z2.500 I-1.748 J11.315 F30000.000
G2 X103.557 Y-66.685 Z2.500 I11.315 J1.748 F30000.000
G2 X113.416 Y-69.920 Z2.500 I1.748 J-11.315 F30000.000
G1 X113.416 Y-69.920 Z2.000 F24000.000
G2 X107.052 Y-89.315 Z2.000 I-8.111 J-8.080 F30000.000
G2 X93.990 Y-79.748 Z2.000 I-1.748 J11.315 F30000.000
G2 X103.557 Y-66.685 Z2.000 I11.315 J1.748 F30000.000
G2 X113.416 Y-69.920 Z2.000 I1.748 J-11.315 F30000.000
G1 X113.416 Y-69.920 Z1.500 F24000.000
G2 X107.052 Y-89.315 Z1.500 I-8.111 J-8.080 F30000.000
G2 X93.990 Y-79.748 Z1.500 I-1.748 J11.315 F30000.000
G2 X103.557 Y-66.685 Z1.500 I11.315 J1.748 F30000.000
G2 X113.416 Y-69.920 Z1.500 I1.748 J-11.315 F30000.000
G1 X113.416 Y-69.920 Z1.000 F24000.000
G2 X107.052 Y-89.315 Z1.000 I-8.111 J-8.080 F30000.000
G2 X93.990 Y-79.748 Z1.000 I-1.748 J11.315 F30000.000
G2 X103.557 Y-66.685 Z1.000 I11.315 J1.748 F30000.000
G2 X113.416 Y-69.920 Z1.000 I1.748 J-11.315 F30000.000
G1 X113.416 Y-69.920 Z0.500 F24000.000
G2 X107.052 Y-89.315 Z0.500 I-8.111 J-8.080 F30000.000
G2 X93.990 Y-79.748 Z0.500 I-1.748 J11.315 F30000.000
G2 X103.557 Y-66.685 Z0.500 I11.315 J1.748 F30000.000
G2 X113.416 Y-69.920 Z0.500 I1.748 J-11.315 F30000.000
G1 X113.416 Y-69.920 Z0.000 F24000.000
G2 X107.052 Y-89.315 Z0.000 I-8.111 J-8.080 F30000.000
G2 X93.990 Y-79.748 Z0.000 I-1.748 J11.315 F30000.000
G2 X103.557 Y-66.685 Z0.000 I11.315 J1.748 F30000.000
G2 X113.416 Y-69.920 Z0.000 I1.748 J-11.315 F30000.000
G1 X113.416 Y-69.920 Z-0.250 F24000.000
G2 X107.052 Y-89.315 Z-0.250 I-8.111 J-8.080 F30000.000
G2 X93.990 Y-79.748 Z-0.250 I-1.748 J11.315 F30000.000
G2 X103.557 Y-66.685 Z-0.250 I11.315 J1.748 F30000.000
G2 X113.416 Y-69.920 Z-0.250 I1.748 J-11.315 F30000.000
G0 Z20.000
G0 Z20.000
G0 X113.416 Y-69.920
G0 X105.594 Y-45.594
G0 X105.594 Y-45.594 Z18.000
G1 X105.594 Y-45.594 Z12.500 F24000.000
G2 X104.982 Y-43.808 Z12.500 I-0.289 J0.899 F30000.000
G2 X106.192 Y-44.372 Z12.500 I0.323 J-0.887 F30000.000
G2 X105.628 Y-45.582 Z12.500 I-0.887 J-0.323 F30000.000
G2 X105.594 Y-45.594 Z12.500 I-0.323 J0.887 F30000.000
G1 X105.594 Y-45.594 Z12.000 F24000.000
G2 X104.982 Y-43.808 Z12.000 I-0.289 J0.899 F30000.000
G2 X106.192 Y-44.372 Z12.000 I0.323 J-0.887 F30000.000
G2 X105.628 Y-45.582 Z12.000 I-0.887 J-0.323 F30000.000
G2 X105.594 Y-45.594 Z12.000 I-0.323 J0.887 F30000.000
G1 X105.594 Y-45.594 Z11.500 F24000.000
G2 X104.982 Y-43.808 Z11.500 I-0.289 J0.899 F30000.000
G2 X106.192 Y-44.372 Z11.500 I0.323 J-0.887 F30000.000
G2 X105.628 Y-45.582 Z11.500 I-0.887 J-0.323 F30000.000
G2 X105.594 Y-45.594 Z11.500 I-0.323 J0.887 F30000.000
G1 X105.594 Y-45.594 Z11.000 F24000.000
G2 X104.982 Y-43.808 Z11.000 I-0.289 J0.899 F30000.000
G2 X106.192 Y-44.372 Z11.000 I0.323 J-0.887 F30000.000
G2 X105.628 Y-45.582 Z11.000 I-0.887 J-0.323 F30000.000
G2 X105.594 Y-45.594 Z11.000 I-0.323 J0.887 F30000.000
G1 X105.594 Y-45.594 Z10.500 F24000.000
G2 X104.982 Y-43.808 Z10.500 I-0.289 J0.899 F30000.000
G2 X106.192 Y-44.372 Z10.500 I0.323 J-0.887 F30000.000
G2 X105.628 Y-45.582 Z10.500 I-0.887 J-0.323 F30000.000
G2 X105.594 Y-45.594 Z10.500 I-0.323 J0.887 F30000.000
G1 X105.594 Y-45.594 Z10.000 F24000.000
G2 X104.982 Y-43.808 Z10.000 I-0.289 J0.899 F30000.000
G2 X106.192 Y-44.372 Z10.000 I0.323 J-0.887 F30000.000
G2 X105.628 Y-45.582 Z10.000 I-0.887 J-0.323 F30000.000
G2 X105.594 Y-45.594 Z10.000 I-0.323 J0.887 F30000.000
G1 X105.594 Y-45.594 Z9.500 F24000.000
G2 X104.982 Y-43.808 Z9.500 I-0.289 J0.899 F30000.000
G2 X106.192 Y-44.372 Z9.500 I0.323 J-0.887 F30000.000
G2 X105.628 Y-45.582 Z9.500 I-0.887 J-0.323 F30000.000
G2 X105.594 Y-45.594 Z9.500 I-0.323 J0.887 F30000.000
G1 X105.594 Y-45.594 Z9.000 F24000.000
G2 X104.982 Y-43.808 Z9.000 I-0.289 J0.899 F30000.000
G2 X106.192 Y-44.372 Z9.000 I0.323 J-0.887 F30000.000
G2 X105.628 Y-45.582 Z9.000 I-0.887 J-0.323 F30000.000
G2 X105.594 Y-45.594 Z9.000 I-0.323 J0.887 F30000.000
G1 X105.594 Y-45.594 Z8.500 F24000.000
G2 X104.982 Y-43.808 Z8.500 I-0.289 J0.899 F30000.000
G2 X106.192 Y-44.372 Z8.500 I0.323 J-0.887 F30000.000
G2 X105.628 Y-45.582 Z8.500 I-0.887 J-0.323 F30000.000
G2 X105.594 Y-45.594 Z8.500 I-0.323 J0.887 F30000.000
G1 X105.594 Y-45.594 Z8.000 F24000.000
G2 X104.982 Y-43.808 Z8.000 I-0.289 J0.899 F30000.000
G2 X106.192 Y-44.372 Z8.000 I0.323 J-0.887 F30000.000
G2 X105.628 Y-45.582 Z8.000 I-0.887 J-0.323 F30000.000
G2 X105.594 Y-45.594 Z8.000 I-0.323 J0.887 F30000.000
G1 X105.594 Y-45.594 Z7.500 F24000.000
G2 X104.982 Y-43.808 Z7.500 I-0.289 J0.899 F30000.000
G2 X106.192 Y-44.372 Z7.500 I0.323 J-0.887 F30000.000
G2 X105.628 Y-45.582 Z7.500 I-0.887 J-0.323 F30000.000
G2 X105.594 Y-45.594 Z7.500 I-0.323 J0.887 F30000.000
G1 X105.594 Y-45.594 Z7.000 F24000.000
G2 X104.982 Y-43.808 Z7.000 I-0.289 J0.899 F30000.000
G2 X106.192 Y-44.372 Z7.000 I0.323 J-0.887 F30000.000
G2 X105.628 Y-45.582 Z7.000 I-0.887 J-0.323 F30000.000
G2 X105.594 Y-45.594 Z7.000 I-0.323 J0.887 F30000.000
G1 X105.594 Y-45.594 Z6.500 F24000.000
G2 X104.982 Y-43.808 Z6.500 I-0.289 J0.899 F30000.000
G2 X106.192 Y-44.372 Z6.500 I0.323 J-0.887 F30000.000
G2 X105.628 Y-45.582 Z6.500 I-0.887 J-0.323 F30000.000
G2 X105.594 Y-45.594 Z6.500 I-0.323 J0.887 F30000.000
G1 X105.594 Y-45.594 Z6.000 F24000.000
G2 X104.982 Y-43.808 Z6.000 I-0.289 J0.899 F30000.000
G2 X106.192 Y-44.372 Z6.000 I0.323 J-0.887 F30000.000
G2 X105.628 Y-45.582 Z6.000 I-0.887 J-0.323 F30000.000
G2 X105.594 Y-45.594 Z6.000 I-0.323 J0.887 F30000.000
G1 X105.594 Y-45.594 Z5.500 F24000.000
G2 X104.982 Y-43.808 Z5.500 I-0.289 J0.899 F30000.000
G2 X106.192 Y-44.372 Z5.500 I0.323 J-0.887 F30000.000
G2 X105.628 Y-45.582 Z5.500 I-0.887 J-0.323 F30000.000
G2 X105.594 Y-45.594 Z5.500 I-0.323 J0.887 F30000.000
G1 X105.594 Y-45.594 Z5.000 F24000.000
G2 X104.982 Y-43.808 Z5.000 I-0.289 J0.899 F30000.000
G2 X106.192 Y-44.372 Z5.000 I0.323 J-0.887 F30000.000
G2 X105.628 Y-45.582 Z5.000 I-0.887 J-0.323 F30000.000
G2 X105.594 Y-45.594 Z5.000 I-0.323 J0.887 F30000.000
G1 X105.594 Y-45.594 Z4.500 F24000.000
G2 X104.982 Y-43.808 Z4.500 I-0.289 J0.899 F30000.000
G2 X106.192 Y-44.372 Z4.500 I0.323 J-0.887 F30000.000
G2 X105.628 Y-45.582 Z4.500 I-0.887 J-0.323 F30000.000
G2 X105.594 Y-45.594 Z4.500 I-0.323 J0.887 F30000.000
G1 X105.594 Y-45.594 Z4.000 F24000.000
G2 X104.982 Y-43.808 Z4.000 I-0.289 J0.899 F30000.000
G2 X106.192 Y-44.372 Z4.000 I0.323 J-0.887 F30000.000
G2 X105.628 Y-45.582 Z4.000 I-0.887 J-0.323 F30000.000
G2 X105.594 Y-45.594 Z4.000 I-0.323 J0.887 F30000.000
G1 X105.594 Y-45.594 Z3.500 F24000.000
G2 X104.982 Y-43.808 Z3.500 I-0.289 J0.899 F30000.000
G2 X106.192 Y-44.372 Z3.500 I0.323 J-0.887 F30000.000
G2 X105.628 Y-45.582 Z3.500 I-0.887 J-0.323 F30000.000
G2 X105.594 Y-45.594 Z3.500 I-0.323 J0.887 F30000.000
G1 X105.594 Y-45.594 Z3.000 F24000.000
G2 X104.982 Y-43.808 Z3.000 I-0.289 J0.899 F30000.000
G2 X106.192 Y-44.372 Z3.000 I0.323 J-0.887 F30000.000
G2 X105.628 Y-45.582 Z3.000 I-0.887 J-0.323 F30000.000
G2 X105.594 Y-45.594 Z3.000 I-0.323 J0.887 F30000.000
G1 X105.594 Y-45.594 Z2.500 F24000.000
G2 X104.982 Y-43.808 Z2.500 I-0.289 J0.899 F30000.000
G2 X106.192 Y-44.372 Z2.500 I0.323 J-0.887 F30000.000
G2 X105.628 Y-45.582 Z2.500 I-0.887 J-0.323 F30000.000
G2 X105.594 Y-45.594 Z2.500 I-0.323 J0.887 F30000.000
G1 X105.594 Y-45.594 Z2.000 F24000.000
G2 X104.982 Y-43.808 Z2.000 I-0.289 J0.899 F30000.000
G2 X106.192 Y-44.372 Z2.000 I0.323 J-0.887 F30000.000
G2 X105.628 Y-45.582 Z2.000 I-0.887 J-0.323 F30000.000
G2 X105.594 Y-45.594 Z2.000 I-0.323 J0.887 F30000.000
G1 X105.594 Y-45.594 Z1.500 F24000.000
G2 X104.982 Y-43.808 Z1.500 I-0.289 J0.899 F30000.000
G2 X106.192 Y-44.372 Z1.500 I0.323 J-0.887 F30000.000
G2 X105.628 Y-45.582 Z1.500 I-0.887 J-0.323 F30000.000
G2 X105.594 Y-45.594 Z1.500 I-0.323 J0.887 F30000.000
G1 X105.594 Y-45.594 Z1.000 F24000.000
G2 X104.982 Y-43.808 Z1.000 I-0.289 J0.899 F30000.000
G2 X106.192 Y-44.372 Z1.000 I0.323 J-0.887 F30000.000
G2 X105.628 Y-45.582 Z1.000 I-0.887 J-0.323 F30000.000
G2 X105.594 Y-45.594 Z1.000 I-0.323 J0.887 F30000.000
G1 X105.594 Y-45.594 Z0.500 F24000.000
G2 X104.982 Y-43.808 Z0.500 I-0.289 J0.899 F30000.000
G2 X106.192 Y-44.372 Z0.500 I0.323 J-0.887 F30000.000
G2 X105.628 Y-45.582 Z0.500 I-0.887 J-0.323 F30000.000
G2 X105.594 Y-45.594 Z0.500 I-0.323 J0.887 F30000.000
G1 X105.594 Y-45.594 Z0.000 F24000.000
G2 X104.982 Y-43.808 Z0.000 I-0.289 J0.899 F30000.000
G2 X106.192 Y-44.372 Z0.000 I0.323 J-0.887 F30000.000
G2 X105.628 Y-45.582 Z0.000 I-0.887 J-0.323 F30000.000
G2 X105.594 Y-45.594 Z0.000 I-0.323 J0.887 F30000.000
G1 X105.594 Y-45.594 Z-0.250 F24000.000
G2 X104.982 Y-43.808 Z-0.250 I-0.289 J0.899 F30000.000
G2 X106.192 Y-44.372 Z-0.250 I0.323 J-0.887 F30000.000
G2 X105.628 Y-45.582 Z-0.250 I-0.887 J-0.323 F30000.000
G2 X105.594 Y-45.594 Z-0.250 I-0.323 J0.887 F30000.000
G0 Z20.000
G0 Z20.000
G0 X105.594 Y-45.594
G0 X89.834 Y-62.469
G0 X89.834 Y-62.469 Z18.000
G1 X89.834 Y-62.469 Z12.500 F24000.000
G2 X89.821 Y-62.539 Z12.500 I-0.029 J-0.031 F30000.000
G2 X89.788 Y-62.461 Z12.500 I-0.016 J0.039 F30000.000
G2 X89.834 Y-62.469 Z12.500 I0.016 J-0.039 F30000.000
G1 X89.834 Y-62.469 Z12.000 F24000.000
G2 X89.821 Y-62.539 Z12.000 I-0.029 J-0.031 F30000.000
G2 X89.788 Y-62.461 Z12.000 I-0.016 J0.039 F30000.000
G2 X89.834 Y-62.469 Z12.000 I0.016 J-0.039 F30000.000
G1 X89.834 Y-62.469 Z11.500 F24000.000
G2 X89.821 Y-62.539 Z11.500 I-0.029 J-0.031 F30000.000
G2 X89.788 Y-62.461 Z11.500 I-0.016 J0.039 F30000.000
G2 X89.834 Y-62.469 Z11.500 I0.016 J-0.039 F30000.000
G1 X89.834 Y-62.469 Z11.000 F24000.000
G2 X89.821 Y-62.539 Z11.000 I-0.029 J-0.031 F30000.000
G2 X89.788 Y-62.461 Z11.000 I-0.016 J0.039 F30000.000
G2 X89.834 Y-62.469 Z11.000 I0.016 J-0.039 F30000.000
G1 X89.834 Y-62.469 Z10.500 F24000.000
G2 X89.821 Y-62.539 Z10.500 I-0.029 J-0.031 F30000.000
G2 X89.788 Y-62.461 Z10.500 I-0.016 J0.039 F30000.000
G2 X89.834 Y-62.469 Z10.500 I0.016 J-0.039 F30000.000
G1 X89.834 Y-62.469 Z10.000 F24000.000
G2 X89.821 Y-62.539 Z10.000 I-0.029 J-0.031 F30000.000
G2 X89.788 Y-62.461 Z10.000 I-0.016 J0.039 F30000.000
G2 X89.834 Y-62.469 Z10.000 I0.016 J-0.039 F30000.000
G1 X89.834 Y-62.469 Z9.500 F24000.000
G2 X89.821 Y-62.539 Z9.500 I-0.029 J-0.031 F30000.000
G2 X89.788 Y-62.461 Z9.500 I-0.016 J0.039 F30000.000
G2 X89.834 Y-62.469 Z9.500 I0.016 J-0.039 F30000.000
G1 X89.834 Y-62.469 Z9.000 F24000.000
G2 X89.821 Y-62.539 Z9.000 I-0.029 J-0.031 F30000.000
G2 X89.788 Y-62.461 Z9.000 I-0.016 J0.039 F30000.000
G2 X89.834 Y-62.469 Z9.000 I0.016 J-0.039 F30000.000
G1 X89.834 Y-62.469 Z8.500 F24000.000
G2 X89.821 Y-62.539 Z8.500 I-0.029 J-0.031 F30000.000
G2 X89.788 Y-62.461 Z8.500 I-0.016 J0.039 F30000.000
G2 X89.834 Y-62.469 Z8.500 I0.016 J-0.039 F30000.000
G1 X89.834 Y-62.469 Z8.000 F24000.000
G2 X89.821 Y-62.539 Z8.000 I-0.029 J-0.031 F30000.000
G2 X89.788 Y-62.461 Z8.000 I-0.016 J0.039 F30000.000
G2 X89.834 Y-62.469 Z8.000 I0.016 J-0.039 F30000.000
G1 X89.834 Y-62.469 Z7.500 F24000.000
G2 X89.821 Y-62.539 Z7.500 I-0.029 J-0.031 F30000.000
G2 X89.788 Y-62.461 Z7.500 I-0.016 J0.039 F30000.000
G2 X89.834 Y-62.469 Z7.500 I0.016 J-0.039 F30000.000
G1 X89.834 Y-62.469 Z7.000 F24000.000
G2 X89.821 Y-62.539 Z7.000 I-0.029 J-0.031 F30000.000
G2 X89.788 Y-62.461 Z7.000 I-0.016 J0.039 F30000.000
G2 X89.834 Y-62.469 Z7.000 I0.016 J-0.039 F30000.000
G1 X89.834 Y-62.469 Z6.500 F24000.000
G2 X89.821 Y-62.539 Z6.500 I-0.029 J-0.031 F30000.000
G2 X89.788 Y-62.461 Z6.500 I-0.016 J0.039 F30000.000
G2 X89.834 Y-62.469 Z6.500 I0.016 J-0.039 F30000.000
G1 X89.834 Y-62.469 Z6.000 F24000.000
G2 X89.821 Y-62.539 Z6.000 I-0.029 J-0.031 F30000.000
G2 X89.788 Y-62.461 Z6.000 I-0.016 J0.039 F30000.000
G2 X89.834 Y-62.469 Z6.000 I0.016 J-0.039 F30000.000
G1 X89.834 Y-62.469 Z5.500 F24000.000
G2 X89.821 Y-62.539 Z5.500 I-0.029 J-0.031 F30000.000
G2 X89.788 Y-62.461 Z5.500 I-0.016 J0.039 F30000.000
G2 X89.834 Y-62.469 Z5.500 I0.016 J-0.039 F30000.000
G1 X89.834 Y-62.469 Z5.000 F24000.000
G2 X89.821 Y-62.539 Z5.000 I-0.029 J-0.031 F30000.000
G2 X89.788 Y-62.461 Z5.000 I-0.016 J0.039 F30000.000
G2 X89.834 Y-62.469 Z5.000 I0.016 J-0.039 F30000.000
G1 X89.834 Y-62.469 Z4.500 F24000.000
G2 X89.821 Y-62.539 Z4.500 I-0.029 J-0.031 F30000.000
G2 X89.788 Y-62.461 Z4.500 I-0.016 J0.039 F30000.000
G2 X89.834 Y-62.469 Z4.500 I0.016 J-0.039 F30000.000
G1 X89.834 Y-62.469 Z4.000 F24000.000
G2 X89.821 Y-62.539 Z4.000 I-0.029 J-0.031 F30000.000
G2 X89.788 Y-62.461 Z4.000 I-0.016 J0.039 F30000.000
G2 X89.834 Y-62.469 Z4.000 I0.016 J-0.039 F30000.000
G1 X89.834 Y-62.469 Z3.500 F24000.000
G2 X89.821 Y-62.539 Z3.500 I-0.029 J-0.031 F30000.000
G2 X89.788 Y-62.461 Z3.500 I-0.016 J0.039 F30000.000
G2 X89.834 Y-62.469 Z3.500 I0.016 J-0.039 F30000.000
G1 X89.834 Y-62.469 Z3.000 F24000.000
G2 X89.821 Y-62.539 Z3.000 I-0.029 J-0.031 F30000.000
G2 X89.788 Y-62.461 Z3.000 I-0.016 J0.039 F30000.000
G2 X89.834 Y-62.469 Z3.000 I0.016 J-0.039 F30000.000
G1 X89.834 Y-62.469 Z2.500 F24000.000
G2 X89.821 Y-62.539 Z2.500 I-0.029 J-0.031 F30000.000
G2 X89.788 Y-62.461 Z2.500 I-0.016 J0.039 F30000.000
G2 X89.834 Y-62.469 Z2.500 I0.016 J-0.039 F30000.000
G1 X89.834 Y-62.469 Z2.000 F24000.000
G2 X89.821 Y-62.539 Z2.000 I-0.029 J-0.031 F30000.000
G2 X89.788 Y-62.461 Z2.000 I-0.016 J0.039 F30000.000
G2 X89.834 Y-62.469 Z2.000 I0.016 J-0.039 F30000.000
G1 X89.834 Y-62.469 Z1.500 F24000.000
G2 X89.821 Y-62.539 Z1.500 I-0.029 J-0.031 F30000.000
G2 X89.788 Y-62.461 Z1.500 I-0.016 J0.039 F30000.000
G2 X89.834 Y-62.469 Z1.500 I0.016 J-0.039 F30000.000
G1 X89.834 Y-62.469 Z1.000 F24000.000
G2 X89.821 Y-62.539 Z1.000 I-0.029 J-0.031 F30000.000
G2 X89.788 Y-62.461 Z1.000 I-0.016 J0.039 F30000.000
G2 X89.834 Y-62.469 Z1.000 I0.016 J-0.039 F30000.000
G1 X89.834 Y-62.469 Z0.500 F24000.000
G2 X89.821 Y-62.539 Z0.500 I-0.029 J-0.031 F30000.000
G2 X89.788 Y-62.461 Z0.500 I-0.016 J0.039 F30000.000
G2 X89.834 Y-62.469 Z0.500 I0.016 J-0.039 F30000.000
G1 X89.834 Y-62.469 Z0.000 F24000.000
G2 X89.821 Y-62.539 Z0.000 I-0.029 J-0.031 F30000.000
G2 X89.788 Y-62.461 Z0.000 I-0.016 J0.039 F30000.000
G2 X89.834 Y-62.469 Z0.000 I0.016 J-0.039 F30000.000
G1 X89.834 Y-62.469 Z-0.250 F24000.000
G2 X89.821 Y-62.539 Z-0.250 I-0.029 J-0.031 F30000.000
G2 X89.788 Y-62.461 Z-0.250 I-0.016 J0.039 F30000.000
G2 X89.834 Y-62.469 Z-0.250 I0.016 J-0.039 F30000.000
G0 Z20.000
G0 Z20.000
G0 X89.834 Y-62.469
G0 X44.717 Y-142.614
G0 X44.717 Y-142.614 Z18.000
G1 X44.717 Y-142.614 Z12.500 F24000.000
G2 X44.669 Y-143.409 Z12.500 I-0.217 J-0.386 F30000.000
G2 X44.091 Y-143.169 Z12.500 I-0.169 J0.409 F30000.000
G2 X44.331 Y-142.591 Z12.500 I0.409 J0.169 F30000.000
G2 X44.717 Y-142.614 Z12.500 I0.169 J-0.409 F30000.000
G1 X44.717 Y-142.614 Z12.000 F24000.000
G2 X44.669 Y-143.409 Z12.000 I-0.217 J-0.386 F30000.000
G2 X44.091 Y-143.169 Z12.000 I-0.169 J0.409 F30000.000
G2 X44.331 Y-142.591 Z12.000 I0.409 J0.169 F30000.000
G2 X44.717 Y-142.614 Z12.000 I0.169 J-0.409 F30000.000
G1 X44.717 Y-142.614 Z11.500 F24000.000
G2 X44.669 Y-143.409 Z11.500 I-0.217 J-0.386 F30000.000
G2 X44.091 Y-143.169 Z11.500 I-0.169 J0.409 F30000.000
G2 X44.331 Y-142.591 Z11.500 I0.409 J0.169 F30000.000
G2 X44.717 Y-142.614 Z11.500 I0.169 J-0.409 F30000.000
G1 X44.717 Y-142.614 Z11.000 F24000.000
G2 X44.669 Y-143.409 Z11.000 I-0.217 J-0.386 F30000.000
G2 X44.091 Y-143.169 Z11.000 I-0.169 J0.409 F30000.000
G2 X44.331 Y-142.591 Z11.000 I0.409 J0.169 F30000.000
G2 X44.717 Y-142.614 Z11.000 I0.169 J-0.409 F30000.000
G1 X44.717 Y-142.614 Z10.500 F24000.000
G2 X44.669 Y-143.409 Z10.500 I-0.217 J-0.386 F30000.000
G2 X44.091 Y-143.169 Z10.500 I-0.169 J0.409 F30000.000
G2 X44.331 Y-142.591 Z10.500 I0.409 J0.169 F30000.000
G2 X44.717 Y-142.614 Z10.500 I0.169 J-0.409 F30000.000
G1 X44.717 Y-142.614 Z10.000 F24000.000
G2 X44.669 Y-143.409 Z10.000 I-0.217 J-0.386 F30000.000
G2 X44.091 Y-143.169 Z10.000 I-0.169 J0.409 F30000.000
G2 X44.331 Y-142.591 Z10.000 I0.409 J0.169 F30000.000
G2 X44.717 Y-142.614 Z10.000 I0.169 J-0.409 F30000.000
G1 X44.717 Y-142.614 Z9.500 F24000.000
G2 X44.669 Y-143.409 Z9.500 I-0.217 J-0.386 F30000.000
G2 X44.091 Y-143.169 Z9.500 I-0.169 J0.409 F30000.000
G2 X44.331 Y-142.591 Z9.500 I0.409 J0.169 F30000.000
G2 X44.717 Y-142.614 Z9.500 I0.169 J-0.409 F30000.000
G1 X44.717 Y-142.614 Z9.000 F24000.000
G2 X44.669 Y-143.409 Z9.000 I-0.217 J-0.386 F30000.000
G2 X44.091 Y-143.169 Z9.000 I-0.169 J0.409 F30000.000
G2 X44.331 Y-142.591 Z9.000 I0.409 J0.169 F30000.000
G2 X44.717 Y-142.614 Z9.000 I0.169 J-0.409 F30000.000
G1 X44.717 Y-142.614 Z8.500 F24000.000
G2 X44.669 Y-143.409 Z8.500 I-0.217 J-0.386 F30000.000
G2 X44.091 Y-143.169 Z8.500 I-0.169 J0.409 F30000.000
G2 X44.331 Y-142.591 Z8.500 I0.409 J0.169 F30000.000
G2 X44.717 Y-142.614 Z8.500 I0.169 J-0.409 F30000.000
G1 X44.717 Y-142.614 Z8.000 F24000.000
G2 X44.669 Y-143.409 Z8.000 I-0.217 J-0.386 F30000.000
G2 X44.091 Y-143.169 Z8.000 I-0.169 J0.409 F30000.000
G2 X44.331 Y-142.591 Z8.000 I0.409 J0.169 F30000.000
G2 X44.717 Y-142.614 Z8.000 I0.169 J-0.409 F30000.000
G1 X44.717 Y-142.614 Z7.500 F24000.000
G2 X44.669 Y-143.409 Z7.500 I-0.217 J-0.386 F30000.000
G2 X44.091 Y-143.169 Z7.500 I-0.169 J0.409 F30000.000
G2 X44.331 Y-142.591 Z7.500 I0.409 J0.169 F30000.000
G2 X44.717 Y-142.614 Z7.500 I0.169 J-0.409 F30000.000
G1 X44.717 Y-142.614 Z7.000 F24000.000
G2 X44.669 Y-143.409 Z7.000 I-0.217 J-0.386 F30000.000
G2 X44.091 Y-143.169 Z7.000 I-0.169 J0.409 F30000.000
G2 X44.331 Y-142.591 Z7.000 I0.409 J0.169 F30000.000
G2 X44.717 Y-142.614 Z7.000 I0.169 J-0.409 F30000.000
G1 X44.717 Y-142.614 Z6.500 F24000.000
G2 X44.669 Y-143.409 Z6.500 I-0.217 J-0.386 F30000.000
G2 X44.091 Y-143.169 Z6.500 I-0.169 J0.409 F30000.000
G2 X44.331 Y-142.591 Z6.500 I0.409 J0.169 F30000.000
G2 X44.717 Y-142.614 Z6.500 I0.169 J-0.409 F30000.000
G1 X44.717 Y-142.614 Z6.000 F24000.000
G2 X44.669 Y-143.409 Z6.000 I-0.217 J-0.386 F30000.000
G2 X44.091 Y-143.169 Z6.000 I-0.169 J0.409 F30000.000
G2 X44.331 Y-142.591 Z6.000 I0.409 J0.169 F30000.000
G2 X44.717 Y-142.614 Z6.000 I0.169 J-0.409 F30000.000
G1 X44.717 Y-142.614 Z5.500 F24000.000
G2 X44.669 Y-143.409 Z5.500 I-0.217 J-0.386 F30000.000
G2 X44.091 Y-143.169 Z5.500 I-0.169 J0.409 F30000.000
G2 X44.331 Y-142.591 Z5.500 I0.409 J0.169 F30000.000
G2 X44.717 Y-142.614 Z5.500 I0.169 J-0.409 F30000.000
G1 X44.717 Y-142.614 Z5.000 F24000.000
G2 X44.669 Y-143.409 Z5.000 I-0.217 J-0.386 F30000.000
G2 X44.091 Y-143.169 Z5.000 I-0.169 J0.409 F30000.000
G2 X44.331 Y-142.591 Z5.000 I0.409 J0.169 F30000.000
G2 X44.717 Y-142.614 Z5.000 I0.169 J-0.409 F30000.000
G1 X44.717 Y-142.614 Z4.500 F24000.000
G2 X44.669 Y-143.409 Z4.500 I-0.217 J-0.386 F30000.000
G2 X44.091 Y-143.169 Z4.500 I-0.169 J0.409 F30000.000
G2 X44.331 Y-142.591 Z4.500 I0.409 J0.169 F30000.000
G2 X44.717 Y-142.614 Z4.500 I0.169 J-0.409 F30000.000
G1 X44.717 Y-142.614 Z4.000 F24000.000
G2 X44.669 Y-143.409 Z4.000 I-0.217 J-0.386 F30000.000
G2 X44.091 Y-143.169 Z4.000 I-0.169 J0.409 F30000.000
G2 X44.331 Y-142.591 Z4.000 I0.409 J0.169 F30000.000
G2 X44.717 Y-142.614 Z4.000 I0.169 J-0.409 F30000.000
G1 X44.717 Y-142.614 Z3.500 F24000.000
G2 X44.669 Y-143.409 Z3.500 I-0.217 J-0.386 F30000.000
G2 X44.091 Y-143.169 Z3.500 I-0.169 J0.409 F30000.000
G2 X44.331 Y-142.591 Z3.500 I0.409 J0.169 F30000.000
G2 X44.717 Y-142.614 Z3.500 I0.169 J-0.409 F30000.000
G1 X44.717 Y-142.614 Z3.000 F24000.000
G2 X44.669 Y-143.409 Z3.000 I-0.217 J-0.386 F30000.000
G2 X44.091 Y-143.169 Z3.000 I-0.169 J0.409 F30000.000
G2 X44.331 Y-142.591 Z3.000 I0.409 J0.169 F30000.000
G2 X44.717 Y-142.614 Z3.000 I0.169 J-0.409 F30000.000
G1 X44.717 Y-142.614 Z2.500 F24000.000
G2 X44.669 Y-143.409 Z2.500 I-0.217 J-0.386 F30000.000
G2 X44.091 Y-143.169 Z2.500 I-0.169 J0.409 F30000.000
G2 X44.331 Y-142.591 Z2.500 I0.409 J0.169 F30000.000
G2 X44.717 Y-142.614 Z2.500 I0.169 J-0.409 F30000.000
G1 X44.717 Y-142.614 Z2.000 F24000.000
G2 X44.669 Y-143.409 Z2.000 I-0.217 J-0.386 F30000.000
G2 X44.091 Y-143.169 Z2.000 I-0.169 J0.409 F30000.000
G2 X44.331 Y-142.591 Z2.000 I0.409 J0.169 F30000.000
G2 X44.717 Y-142.614 Z2.000 I0.169 J-0.409 F30000.000
G1 X44.717 Y-142.614 Z1.500 F24000.000
G2 X44.669 Y-143.409 Z1.500 I-0.217 J-0.386 F30000.000
G2 X44.091 Y-143.169 Z1.500 I-0.169 J0.409 F30000.000
G2 X44.331 Y-142.591 Z1.500 I0.409 J0.169 F30000.000
G2 X44.717 Y-142.614 Z1.500 I0.169 J-0.409 F30000.000
G1 X44.717 Y-142.614 Z1.000 F24000.000
G2 X44.669 Y-143.409 Z1.000 I-0.217 J-0.386 F30000.000
G2 X44.091 Y-143.169 Z1.000 I-0.169 J0.409 F30000.000
G2 X44.331 Y-142.591 Z1.000 I0.409 J0.169 F30000.000
G2 X44.717 Y-142.614 Z1.000 I0.169 J-0.409 F30000.000
G1 X44.717 Y-142.614 Z0.500 F24000.000
G2 X44.669 Y-143.409 Z0.500 I-0.217 J-0.386 F30000.000
G2 X44.091 Y-143.169 Z0.500 I-0.169 J0.409 F30000.000
G2 X44.331 Y-142.591 Z0.500 I0.409 J0.169 F30000.000
G2 X44.717 Y-142.614 Z0.500 I0.169 J-0.409 F30000.000
G1 X44.717 Y-142.614 Z0.000 F24000.000
G2 X44.669 Y-143.409 Z0.000 I-0.217 J-0.386 F30000.000
G2 X44.091 Y-143.169 Z0.000 I-0.169 J0.409 F30000.000
G2 X44.331 Y-142.591 Z0.000 I0.409 J0.169 F30000.000
G2 X44.717 Y-142.614 Z0.000 I0.169 J-0.409 F30000.000
G1 X44.717 Y-142.614 Z-0.250 F24000.000
G2 X44.669 Y-143.409 Z-0.250 I-0.217 J-0.386 F30000.000
G2 X44.091 Y-143.169 Z-0.250 I-0.169 J0.409 F30000.000
G2 X44.331 Y-142.591 Z-0.250 I0.409 J0.169 F30000.000
G2 X44.717 Y-142.614 Z-0.250 I0.169 J-0.409 F30000.000
G0 Z20.000
G0 Z20.000
G0 X44.717 Y-142.614
G0 X191.963 Y-58.021
G0 X191.963 Y-58.021 Z18.000
G1 X191.963 Y-58.021 Z12.500 F24000.000
G2 X191.984 Y-57.961 Z12.500 I0.037 J0.021 F30000.000
G2 X192.016 Y-58.039 Z12.500 I0.016 J-0.039 F30000.000
G2 X191.963 Y-58.021 Z12.500 I-0.016 J0.039 F30000.000
G1 X191.963 Y-58.021 Z12.000 F24000.000
G2 X191.984 Y-57.961 Z12.000 I0.037 J0.021 F30000.000
G2 X192.016 Y-58.039 Z12.000 I0.016 J-0.039 F30000.000
G2 X191.963 Y-58.021 Z12.000 I-0.016 J0.039 F30000.000
G1 X191.963 Y-58.021 Z11.500 F24000.000
G2 X191.984 Y-57.961 Z11.500 I0.037 J0.021 F30000.000
G2 X192.016 Y-58.039 Z11.500 I0.016 J-0.039 F30000.000
G2 X191.963 Y-58.021 Z11.500 I-0.016 J0.039 F30000.000
G1 X191.963 Y-58.021 Z11.000 F24000.000
G2 X191.984 Y-57.961 Z11.000 I0.037 J0.021 F30000.000
G2 X192.016 Y-58.039 Z11.000 I0.016 J-0.039 F30000.000
G2 X191.963 Y-58.021 Z11.000 I-0.016 J0.039 F30000.000
G1 X191.963 Y-58.021 Z10.500 F24000.000
G2 X191.984 Y-57.961 Z10.500 I0.037 J0.021 F30000.000
G2 X192.016 Y-58.039 Z10.500 I0.016 J-0.039 F30000.000
G2 X191.963 Y-58.021 Z10.500 I-0.016 J0.039 F30000.000
G1 X191.963 Y-58.021 Z10.000 F24000.000
G2 X191.984 Y-57.961 Z10.000 I0.037 J0.021 F30000.000
G2 X192.016 Y-58.039 Z10.000 I0.016 J-0.039 F30000.000
G2 X191.963 Y-58.021 Z10.000 I-0.016 J0.039 F30000.000
G1 X191.963 Y-58.021 Z9.500 F24000.000
G2 X191.984 Y-57.961 Z9.500 I0.037 J0.021 F30000.000
G2 X192.016 Y-58.039 Z9.500 I0.016 J-0.039 F30000.000
G2 X191.963 Y-58.021 Z9.500 I-0.016 J0.039 F30000.000
G1 X191.963 Y-58.021 Z9.000 F24000.000
G2 X191.984 Y-57.961 Z9.000 I0.037 J0.021 F30000.000
G2 X192.016 Y-58.039 Z9.000 I0.016 J-0.039 F30000.000
G2 X191.963 Y-58.021 Z9.000 I-0.016 J0.039 F30000.000
G1 X191.963 Y-58.021 Z8.500 F24000.000
G2 X191.984 Y-57.961 Z8.500 I0.037 J0.021 F30000.000
G2 X192.016 Y-58.039 Z8.500 I0.016 J-0.039 F30000.000
G2 X191.963 Y-58.021 Z8.500 I-0.016 J0.039 F30000.000
G1 X191.963 Y-58.021 Z8.000 F24000.000
G2 X191.984 Y-57.961 Z8.000 I0.037 J0.021 F30000.000
G2 X192.016 Y-58.039 Z8.000 I0.016 J-0.039 F30000.000
G2 X191.963 Y-58.021 Z8.000 I-0.016 J0.039 F30000.000
G1 X191.963 Y-58.021 Z7.500 F24000.000
G2 X191.984 Y-57.961 Z7.500 I0.037 J0.021 F30000.000
G2 X192.016 Y-58.039 Z7.500 I0.016 J-0.039 F30000.000
G2 X191.963 Y-58.021 Z7.500 I-0.016 J0.039 F30000.000
G1 X191.963 Y-58.021 Z7.000 F24000.000
G2 X191.984 Y-57.961 Z7.000 I0.037 J0.021 F30000.000
G2 X192.016 Y-58.039 Z7.000 I0.016 J-0.039 F30000.000
G2 X191.963 Y-58.021 Z7.000 I-0.016 J0.039 F30000.000
G1 X191.963 Y-58.021 Z6.500 F24000.000
G2 X191.984 Y-57.961 Z6.500 I0.037 J0.021 F30000.000
G2 X192.016 Y-58.039 Z6.500 I0.016 J-0.039 F30000.000
G2 X191.963 Y-58.021 Z6.500 I-0.016 J0.039 F30000.000
G1 X191.963 Y-58.021 Z6.000 F24000.000
G2 X191.984 Y-57.961 Z6.000 I0.037 J0.021 F30000.000
G2 X192.016 Y-58.039 Z6.000 I0.016 J-0.039 F30000.000
G2 X191.963 Y-58.021 Z6.000 I-0.016 J0.039 F30000.000
G1 X191.963 Y-58.021 Z5.500 F24000.000
G2 X191.984 Y-57.961 Z5.500 I0.037 J0.021 F30000.000
G2 X192.016 Y-58.039 Z5.500 I0.016 J-0.039 F30000.000
G2 X191.963 Y-58.021 Z5.500 I-0.016 J0.039 F30000.000
G1 X191.963 Y-58.021 Z5.000 F24000.000
G2 X191.984 Y-57.961 Z5.000 I0.037 J0.021 F30000.000
G2 X192.016 Y-58.039 Z5.000 I0.016 J-0.039 F30000.000
G2 X191.963 Y-58.021 Z5.000 I-0.016 J0.039 F30000.000
G1 X191.963 Y-58.021 Z4.500 F24000.000
G2 X191.984 Y-57.961 Z4.500 I0.037 J0.021 F30000.000
G2 X192.016 Y-58.039 Z4.500 I0.016 J-0.039 F30000.000
G2 X191.963 Y-58.021 Z4.500 I-0.016 J0.039 F30000.000
G1 X191.963 Y-58.021 Z4.000 F24000.000
G2 X191.984 Y-57.961 Z4.000 I0.037 J0.021 F30000.000
G2 X192.016 Y-58.039 Z4.000 I0.016 J-0.039 F30000.000
G2 X191.963 Y-58.021 Z4.000 I-0.016 J0.039 F30000.000
G1 X191.963 Y-58.021 Z3.500 F24000.000
G2 X191.984 Y-57.961 Z3.500 I0.037 J0.021 F30000.000
G2 X192.016 Y-58.039 Z3.500 I0.016 J-0.039 F30000.000
G2 X191.963 Y-58.021 Z3.500 I-0.016 J0.039 F30000.000
G1 X191.963 Y-58.021 Z3.000 F24000.000
G2 X191.984 Y-57.961 Z3.000 I0.037 J0.021 F30000.000
G2 X192.016 Y-58.039 Z3.000 I0.016 J-0.039 F30000.000
G2 X191.963 Y-58.021 Z3.000 I-0.016 J0.039 F30000.000
G1 X191.963 Y-58.021 Z2.500 F24000.000
G2 X191.984 Y-57.961 Z2.500 I0.037 J0.021 F30000.000
G2 X192.016 Y-58.039 Z2.500 I0.016 J-0.039 F30000.000
G2 X191.963 Y-58.021 Z2.500 I-0.016 J0.039 F30000.000
G1 X191.963 Y-58.021 Z2.000 F24000.000
G2 X191.984 Y-57.961 Z2.000 I0.037 J0.021 F30000.000
G2 X192.016 Y-58.039 Z2.000 I0.016 J-0.039 F30000.000
G2 X191.963 Y-58.021 Z2.000 I-0.016 J0.039 F30000.000
G1 X191.963 Y-58.021 Z1.500 F24000.000
G2 X191.984 Y-57.961 Z1.500 I0.037 J0.021 F30000.000
G2 X192.016 Y-58.039 Z1.500 I0.016 J-0.039 F30000.000
G2 X191.963 Y-58.021 Z1.500 I-0.016 J0.039 F30000.000
G1 X191.963 Y-58.021 Z1.000 F24000.000
G2 X191.984 Y-57.961 Z1.000 I0.037 J0.021 F30000.000
G2 X192.016 Y-58.039 Z1.000 I0.016 J-0.039 F30000.000
G2 X191.963 Y-58.021 Z1.000 I-0.016 J0.039 F30000.000
G1 X191.963 Y-58.021 Z0.500 F24000.000
G2 X191.984 Y-57.961 Z0.500 I0.037 J0.021 F30000.000
G2 X192.016 Y-58.039 Z0.500 I0.016 J-0.039 F30000.000
G2 X191.963 Y-58.021 Z0.500 I-0.016 J0.039 F30000.000
G1 X191.963 Y-58.021 Z0.000 F24000.000
G2 X191.984 Y-57.961 Z0.000 I0.037 J0.021 F30000.000
G2 X192.016 Y-58.039 Z0.000 I0.016 J-0.039 F30000.000
G2 X191.963 Y-58.021 Z0.000 I-0.016 J0.039 F30000.000
G1 X191.963 Y-58.021 Z-0.250 F24000.000
G2 X191.984 Y-57.961 Z-0.250 I0.037 J0.021 F30000.000
G2 X192.016 Y-58.039 Z-0.250 I0.016 J-0.039 F30000.000
G2 X191.963 Y-58.021 Z-0.250 I-0.016 J0.039 F30000.000
G0 Z20.000
G0 Z20.000
G0 X191.963 Y-58.021
G0 X192.000 Y-27.041
G0 X192.000 Y-27.041 Z18.000
G1 X192.000 Y-27.041 Z12.500 F24000.000
G2 X191.983 Y-26.962 Z12.500 I0.000 J0.041 F30000.000
G2 X192.017 Y-27.038 Z12.500 I0.017 J-0.038 F30000.000
G2 X192.000 Y-27.041 Z12.500 I-0.017 J0.038 F30000.000
G1 X192.000 Y-27.041 Z12.000 F24000.000
G2 X191.983 Y-26.962 Z12.000 I0.000 J0.041 F30000.000
G2 X192.017 Y-27.038 Z12.000 I0.017 J-0.038 F30000.000
G2 X192.000 Y-27.041 Z12.000 I-0.017 J0.038 F30000.000
G1 X192.000 Y-27.041 Z11.500 F24000.000
G2 X191.983 Y-26.962 Z11.500 I0.000 J0.041 F30000.000
G2 X192.017 Y-27.038 Z11.500 I0.017 J-0.038 F30000.000
G2 X192.000 Y-27.041 Z11.500 I-0.017 J0.038 F30000.000
G1 X192.000 Y-27.041 Z11.000 F24000.000
G2 X191.983 Y-26.962 Z11.000 I0.000 J0.041 F30000.000
G2 X192.017 Y-27.038 Z11.000 I0.017 J-0.038 F30000.000
G2 X192.000 Y-27.041 Z11.000 I-0.017 J0.038 F30000.000
G1 X192.000 Y-27.041 Z10.500 F24000.000
G2 X191.983 Y-26.962 Z10.500 I0.000 J0.041 F30000.000
G2 X192.017 Y-27.038 Z10.500 I0.017 J-0.038 F30000.000
G2 X192.000 Y-27.041 Z10.500 I-0.017 J0.038 F30000.000
G1 X192.000 Y-27.041 Z10.000 F24000.000
G2 X191.983 Y-26.962 Z10.000 I0.000 J0.041 F30000.000
G2 X192.017 Y-27.038 Z10.000 I0.017 J-0.038 F30000.000
G2 X192.000 Y-27.041 Z10.000 I-0.017 J0.038 F30000.000
G1 X192.000 Y-27.041 Z9.500 F24000.000
G2 X191.983 Y-26.962 Z9.500 I0.000 J0.041 F30000.000
G2 X192.017 Y-27.038 Z9.500 I0.017 J-0.038 F30000.000
G2 X192.000 Y-27.041 Z9.500 I-0.017 J0.038 F30000.000
G1 X192.000 Y-27.041 Z9.000 F24000.000
G2 X191.983 Y-26.962 Z9.000 I0.000 J0.041 F30000.000
G2 X192.017 Y-27.038 Z9.000 I0.017 J-0.038 F30000.000
G2 X192.000 Y-27.041 Z9.000 I-0.017 J0.038 F30000.000
G1 X192.000 Y-27.041 Z8.500 F24000.000
G2 X191.983 Y-26.962 Z8.500 I0.000 J0.041 F30000.000
G2 X192.017 Y-27.038 Z8.500 I0.017 J-0.038 F30000.000
G2 X192.000 Y-27.041 Z8.500 I-0.017 J0.038 F30000.000
G1 X192.000 Y-27.041 Z8.000 F24000.000
G2 X191.983 Y-26.962 Z8.000 I0.000 J0.041 F30000.000
G2 X192.017 Y-27.038 Z8.000 I0.017 J-0.038 F30000.000
G2 X192.000 Y-27.041 Z8.000 I-0.017 J0.038 F30000.000
G1 X192.000 Y-27.041 Z7.500 F24000.000
G2 X191.983 Y-26.962 Z7.500 I0.000 J0.041 F30000.000
G2 X192.017 Y-27.038 Z7.500 I0.017 J-0.038 F30000.000
G2 X192.000 Y-27.041 Z7.500 I-0.017 J0.038 F30000.000
G1 X192.000 Y-27.041 Z7.000 F24000.000
G2 X191.983 Y-26.962 Z7.000 I0.000 J0.041 F30000.000
G2 X192.017 Y-27.038 Z7.000 I0.017 J-0.038 F30000.000
G2 X192.000 Y-27.041 Z7.000 I-0.017 J0.038 F30000.000
G1 X192.000 Y-27.041 Z6.500 F24000.000
G2 X191.983 Y-26.962 Z6.500 I0.000 J0.041 F30000.000
G2 X192.017 Y-27.038 Z6.500 I0.017 J-0.038 F30000.000
G2 X192.000 Y-27.041 Z6.500 I-0.017 J0.038 F30000.000
G1 X192.000 Y-27.041 Z6.000 F24000.000
G2 X191.983 Y-26.962 Z6.000 I0.000 J0.041 F30000.000
G2 X192.017 Y-27.038 Z6.000 I0.017 J-0.038 F30000.000
G2 X192.000 Y-27.041 Z6.000 I-0.017 J0.038 F30000.000
G1 X192.000 Y-27.041 Z5.500 F24000.000
G2 X191.983 Y-26.962 Z5.500 I0.000 J0.041 F30000.000
G2 X192.017 Y-27.038 Z5.500 I0.017 J-0.038 F30000.000
G2 X192.000 Y-27.041 Z5.500 I-0.017 J0.038 F30000.000
G1 X192.000 Y-27.041 Z5.000 F24000.000
G2 X191.983 Y-26.962 Z5.000 I0.000 J0.041 F30000.000
G2 X192.017 Y-27.038 Z5.000 I0.017 J-0.038 F30000.000
G2 X192.000 Y-27.041 Z5.000 I-0.017 J0.038 F30000.000
G1 X192.000 Y-27.041 Z4.500 F24000.000
G2 X191.983 Y-26.962 Z4.500 I0.000 J0.041 F30000.000
G2 X192.017 Y-27.038 Z4.500 I0.017 J-0.038 F30000.000
G2 X192.000 Y-27.041 Z4.500 I-0.017 J0.038 F30000.000
G1 X192.000 Y-27.041 Z4.000 F24000.000
G2 X191.983 Y-26.962 Z4.000 I0.000 J0.041 F30000.000
G2 X192.017 Y-27.038 Z4.000 I0.017 J-0.038 F30000.000
G2 X192.000 Y-27.041 Z4.000 I-0.017 J0.038 F30000.000
G1 X192.000 Y-27.041 Z3.500 F24000.000
G2 X191.983 Y-26.962 Z3.500 I0.000 J0.041 F30000.000
G2 X192.017 Y-27.038 Z3.500 I0.017 J-0.038 F30000.000
G2 X192.000 Y-27.041 Z3.500 I-0.017 J0.038 F30000.000
G1 X192.000 Y-27.041 Z3.000 F24000.000
G2 X191.983 Y-26.962 Z3.000 I0.000 J0.041 F30000.000
G2 X192.017 Y-27.038 Z3.000 I0.017 J-0.038 F30000.000
G2 X192.000 Y-27.041 Z3.000 I-0.017 J0.038 F30000.000
G1 X192.000 Y-27.041 Z2.500 F24000.000
G2 X191.983 Y-26.962 Z2.500 I0.000 J0.041 F30000.000
G2 X192.017 Y-27.038 Z2.500 I0.017 J-0.038 F30000.000
G2 X192.000 Y-27.041 Z2.500 I-0.017 J0.038 F30000.000
G1 X192.000 Y-27.041 Z2.000 F24000.000
G2 X191.983 Y-26.962 Z2.000 I0.000 J0.041 F30000.000
G2 X192.017 Y-27.038 Z2.000 I0.017 J-0.038 F30000.000
G2 X192.000 Y-27.041 Z2.000 I-0.017 J0.038 F30000.000
G1 X192.000 Y-27.041 Z1.500 F24000.000
G2 X191.983 Y-26.962 Z1.500 I0.000 J0.041 F30000.000
G2 X192.017 Y-27.038 Z1.500 I0.017 J-0.038 F30000.000
G2 X192.000 Y-27.041 Z1.500 I-0.017 J0.038 F30000.000
G1 X192.000 Y-27.041 Z1.000 F24000.000
G2 X191.983 Y-26.962 Z1.000 I0.000 J0.041 F30000.000
G2 X192.017 Y-27.038 Z1.000 I0.017 J-0.038 F30000.000
G2 X192.000 Y-27.041 Z1.000 I-0.017 J0.038 F30000.000
G1 X192.000 Y-27.041 Z0.500 F24000.000
G2 X191.983 Y-26.962 Z0.500 I0.000 J0.041 F30000.000
G2 X192.017 Y-27.038 Z0.500 I0.017 J-0.038 F30000.000
G2 X192.000 Y-27.041 Z0.500 I-0.017 J0.038 F30000.000
G1 X192.000 Y-27.041 Z0.000 F24000.000
G2 X191.983 Y-26.962 Z0.000 I0.000 J0.041 F30000.000
G2 X192.017 Y-27.038 Z0.000 I0.017 J-0.038 F30000.000
G2 X192.000 Y-27.041 Z0.000 I-0.017 J0.038 F30000.000
G1 X192.000 Y-27.041 Z-0.250 F24000.000
G2 X191.983 Y-26.962 Z-0.250 I0.000 J0.041 F30000.000
G2 X192.017 Y-27.038 Z-0.250 I0.017 J-0.038 F30000.000
G2 X192.000 Y-27.041 Z-0.250 I-0.017 J0.038 F30000.000
G0 Z20.000
G0 Z20.000
G0 X192.000 Y-27.041
G0 X199.394 Y-34.415
G0 X199.394 Y-34.415 Z18.000
G1 X199.394 Y-34.415 Z12.500 F24000.000
G2 X208.376 Y-31.085 Z12.500 I8.106 J-8.085 F30000.000
G2 X207.082 Y-53.941 Z12.500 I-0.876 J-11.415 F30000.000
G1 X206.229 Y-53.878 Z12.500 F30000.000
G2 X199.394 Y-34.415 Z12.500 I1.272 J11.378 F30000.000
G1 X199.394 Y-34.415 Z12.000 F24000.000
G2 X208.376 Y-31.085 Z12.000 I8.106 J-8.085 F30000.000
G2 X207.082 Y-53.941 Z12.000 I-0.876 J-11.415 F30000.000
G1 X206.229 Y-53.878 Z12.000 F30000.000
G2 X199.394 Y-34.415 Z12.000 I1.272 J11.378 F30000.000
G1 X199.394 Y-34.415 Z11.500 F24000.000
G2 X208.376 Y-31.085 Z11.500 I8.106 J-8.085 F30000.000
G2 X207.082 Y-53.941 Z11.500 I-0.876 J-11.415 F30000.000
G1 X206.229 Y-53.878 Z11.500 F30000.000
G2 X199.394 Y-34.415 Z11.500 I1.272 J11.378 F30000.000
G1 X199.394 Y-34.415 Z11.000 F24000.000
G2 X208.376 Y-31.085 Z11.000 I8.106 J-8.085 F30000.000
G2 X207.082 Y-53.941 Z11.000 I-0.876 J-11.415 F30000.000
G1 X206.229 Y-53.878 Z11.000 F30000.000
G2 X199.394 Y-34.415 Z11.000 I1.272 J11.378 F30000.000
G1 X199.394 Y-34.415 Z10.500 F24000.000
G2 X208.376 Y-31.085 Z10.500 I8.106 J-8.085 F30000.000
G2 X207.082 Y-53.941 Z10.500 I-0.876 J-11.415 F30000.000
G1 X206.229 Y-53.878 Z10.500 F30000.000
G2 X199.394 Y-34.415 Z10.500 I1.272 J11.378 F30000.000
G1 X199.394 Y-34.415 Z10.000 F24000.000
G2 X208.376 Y-31.085 Z10.000 I8.106 J-8.085 F30000.000
G2 X207.082 Y-53.941 Z10.000 I-0.876 J-11.415 F30000.000
G1 X206.229 Y-53.878 Z10.000 F30000.000
G2 X199.394 Y-34.415 Z10.000 I1.272 J11.378 F30000.000
G1 X199.394 Y-34.415 Z9.500 F24000.000
G2 X208.376 Y-31.085 Z9.500 I8.106 J-8.085 F30000.000
G2 X207.082 Y-53.941 Z9.500 I-0.876 J-11.415 F30000.000
G1 X206.229 Y-53.878 Z9.500 F30000.000
G2 X199.394 Y-34.415 Z9.500 I1.272 J11.378 F30000.000
G1 X199.394 Y-34.415 Z9.000 F24000.000
G2 X208.376 Y-31.085 Z9.000 I8.106 J-8.085 F30000.000
G2 X207.082 Y-53.941 Z9.000 I-0.876 J-11.415 F30000.000
G1 X206.229 Y-53.878 Z9.000 F30000.000
G2 X199.394 Y-34.415 Z9.000 I1.272 J11.378 F30000.000
G1 X199.394 Y-34.415 Z8.500 F24000.000
G2 X208.376 Y-31.085 Z8.500 I8.106 J-8.085 F30000.000
G2 X207.082 Y-53.941 Z8.500 I-0.876 J-11.415 F30000.000
G1 X206.229 Y-53.878 Z8.500 F30000.000
G2 X199.394 Y-34.415 Z8.500 I1.272 J11.378 F30000.000
G1 X199.394 Y-34.415 Z8.000 F24000.000
G2 X208.376 Y-31.085 Z8.000 I8.106 J-8.085 F30000.000
G2 X207.082 Y-53.941 Z8.000 I-0.876 J-11.415 F30000.000
G1 X206.229 Y-53.878 Z8.000 F30000.000
G2 X199.394 Y-34.415 Z8.000 I1.272 J11.378 F30000.000
G1 X199.394 Y-34.415 Z7.500 F24000.000
G2 X208.376 Y-31.085 Z7.500 I8.106 J-8.085 F30000.000
G2 X207.082 Y-53.941 Z7.500 I-0.876 J-11.415 F30000.000
G1 X206.229 Y-53.878 Z7.500 F30000.000
G2 X199.394 Y-34.415 Z7.500 I1.272 J11.378 F30000.000
G1 X199.394 Y-34.415 Z7.000 F24000.000
G2 X208.376 Y-31.085 Z7.000 I8.106 J-8.085 F30000.000
G2 X207.082 Y-53.941 Z7.000 I-0.876 J-11.415 F30000.000
G1 X206.229 Y-53.878 Z7.000 F30000.000
G2 X199.394 Y-34.415 Z7.000 I1.272 J11.378 F30000.000
G1 X199.394 Y-34.415 Z6.500 F24000.000
G2 X208.376 Y-31.085 Z6.500 I8.106 J-8.085 F30000.000
G2 X207.082 Y-53.941 Z6.500 I-0.876 J-11.415 F30000.000
G1 X206.229 Y-53.878 Z6.500 F30000.000
G2 X199.394 Y-34.415 Z6.500 I1.272 J11.378 F30000.000
G1 X199.394 Y-34.415 Z6.000 F24000.000
G2 X208.376 Y-31.085 Z6.000 I8.106 J-8.085 F30000.000
G2 X207.082 Y-53.941 Z6.000 I-0.876 J-11.415 F30000.000
G1 X206.229 Y-53.878 Z6.000 F30000.000
G2 X199.394 Y-34.415 Z6.000 I1.272 J11.378 F30000.000
