(Exported by FreeCAD)
(Post Processor: KineticNCBeamicon2_post)
(Output Time:2024-09-02 21:36:54.509065)
(begin preamble)
%
G17 G21 G40 G49 G80 G90
M08
G21
(begin operation: Fixture)
(machine: not set, mm/min)
G54
(finish operation: Fixture)
(begin operation: 3.1)
(machine: not set, mm/min)
(3.1)
M05
M09M6 T1
M3 S25000
(finish operation: 3.1)
(begin operation: Holes)
(machine: not set, mm/min)
(Profile)
(Compensated Tool Path. Diameter: 3.1)
G0 Z20.000
G0 X29.813 Y25.313
G0 Z18.000
G1 X29.813 Y25.313 Z12.500 F24000.000
G2 X29.669 Y24.591 Z12.500 I-0.313 J-0.313 F30000.000
G2 X29.331 Y25.409 Z12.500 I-0.169 J0.409 F30000.000
G2 X29.813 Y25.313 Z12.500 I0.169 J-0.409 F30000.000
G1 X29.813 Y25.313 Z12.000 F24000.000
G2 X29.669 Y24.591 Z12.000 I-0.313 J-0.313 F30000.000
G2 X29.331 Y25.409 Z12.000 I-0.169 J0.409 F30000.000
G2 X29.813 Y25.313 Z12.000 I0.169 J-0.409 F30000.000
G1 X29.813 Y25.313 Z11.500 F24000.000
G2 X29.669 Y24.591 Z11.500 I-0.313 J-0.313 F30000.000
G2 X29.331 Y25.409 Z11.500 I-0.169 J0.409 F30000.000
G2 X29.813 Y25.313 Z11.500 I0.169 J-0.409 F30000.000
G1 X29.813 Y25.313 Z11.000 F24000.000
G2 X29.669 Y24.591 Z11.000 I-0.313 J-0.313 F30000.000
G2 X29.331 Y25.409 Z11.000 I-0.169 J0.409 F30000.000
G2 X29.813 Y25.313 Z11.000 I0.169 J-0.409 F30000.000
G1 X29.813 Y25.313 Z10.500 F24000.000
G2 X29.669 Y24.591 Z10.500 I-0.313 J-0.313 F30000.000
G2 X29.331 Y25.409 Z10.500 I-0.169 J0.409 F30000.000
G2 X29.813 Y25.313 Z10.500 I0.169 J-0.409 F30000.000
G1 X29.813 Y25.313 Z10.000 F24000.000
G2 X29.669 Y24.591 Z10.000 I-0.313 J-0.313 F30000.000
G2 X29.331 Y25.409 Z10.000 I-0.169 J0.409 F30000.000
G2 X29.813 Y25.313 Z10.000 I0.169 J-0.409 F30000.000
G1 X29.813 Y25.313 Z9.500 F24000.000
G2 X29.669 Y24.591 Z9.500 I-0.313 J-0.313 F30000.000
G2 X29.331 Y25.409 Z9.500 I-0.169 J0.409 F30000.000
G2 X29.813 Y25.313 Z9.500 I0.169 J-0.409 F30000.000
G1 X29.813 Y25.313 Z9.000 F24000.000
G2 X29.669 Y24.591 Z9.000 I-0.313 J-0.313 F30000.000
G2 X29.331 Y25.409 Z9.000 I-0.169 J0.409 F30000.000
G2 X29.813 Y25.313 Z9.000 I0.169 J-0.409 F30000.000
G1 X29.813 Y25.313 Z8.500 F24000.000
G2 X29.669 Y24.591 Z8.500 I-0.313 J-0.313 F30000.000
G2 X29.331 Y25.409 Z8.500 I-0.169 J0.409 F30000.000
G2 X29.813 Y25.313 Z8.500 I0.169 J-0.409 F30000.000
G1 X29.813 Y25.313 Z8.000 F24000.000
G2 X29.669 Y24.591 Z8.000 I-0.313 J-0.313 F30000.000
G2 X29.331 Y25.409 Z8.000 I-0.169 J0.409 F30000.000
G2 X29.813 Y25.313 Z8.000 I0.169 J-0.409 F30000.000
G1 X29.813 Y25.313 Z7.500 F24000.000
G2 X29.669 Y24.591 Z7.500 I-0.313 J-0.313 F30000.000
G2 X29.331 Y25.409 Z7.500 I-0.169 J0.409 F30000.000
G2 X29.813 Y25.313 Z7.500 I0.169 J-0.409 F30000.000
G1 X29.813 Y25.313 Z7.000 F24000.000
G2 X29.669 Y24.591 Z7.000 I-0.313 J-0.313 F30000.000
G2 X29.331 Y25.409 Z7.000 I-0.169 J0.409 F30000.000
G2 X29.813 Y25.313 Z7.000 I0.169 J-0.409 F30000.000
G1 X29.813 Y25.313 Z6.500 F24000.000
G2 X29.669 Y24.591 Z6.500 I-0.313 J-0.313 F30000.000
G2 X29.331 Y25.409 Z6.500 I-0.169 J0.409 F30000.000
G2 X29.813 Y25.313 Z6.500 I0.169 J-0.409 F30000.000
G1 X29.813 Y25.313 Z6.000 F24000.000
G2 X29.669 Y24.591 Z6.000 I-0.313 J-0.313 F30000.000
G2 X29.331 Y25.409 Z6.000 I-0.169 J0.409 F30000.000
G2 X29.813 Y25.313 Z6.000 I0.169 J-0.409 F30000.000
G1 X29.813 Y25.313 Z5.500 F24000.000
G2 X29.669 Y24.591 Z5.500 I-0.313 J-0.313 F30000.000
G2 X29.331 Y25.409 Z5.500 I-0.169 J0.409 F30000.000
G2 X29.813 Y25.313 Z5.500 I0.169 J-0.409 F30000.000
G1 X29.813 Y25.313 Z5.000 F24000.000
G2 X29.669 Y24.591 Z5.000 I-0.313 J-0.313 F30000.000
G2 X29.331 Y25.409 Z5.000 I-0.169 J0.409 F30000.000
G2 X29.813 Y25.313 Z5.000 I0.169 J-0.409 F30000.000
G1 X29.813 Y25.313 Z4.500 F24000.000
G2 X29.669 Y24.591 Z4.500 I-0.313 J-0.313 F30000.000
G2 X29.331 Y25.409 Z4.500 I-0.169 J0.409 F30000.000
G2 X29.813 Y25.313 Z4.500 I0.169 J-0.409 F30000.000
G1 X29.813 Y25.313 Z4.000 F24000.000
G2 X29.669 Y24.591 Z4.000 I-0.313 J-0.313 F30000.000
G2 X29.331 Y25.409 Z4.000 I-0.169 J0.409 F30000.000
G2 X29.813 Y25.313 Z4.000 I0.169 J-0.409 F30000.000
G1 X29.813 Y25.313 Z3.500 F24000.000
G2 X29.669 Y24.591 Z3.500 I-0.313 J-0.313 F30000.000
G2 X29.331 Y25.409 Z3.500 I-0.169 J0.409 F30000.000
G2 X29.813 Y25.313 Z3.500 I0.169 J-0.409 F30000.000
G1 X29.813 Y25.313 Z3.000 F24000.000
G2 X29.669 Y24.591 Z3.000 I-0.313 J-0.313 F30000.000
G2 X29.331 Y25.409 Z3.000 I-0.169 J0.409 F30000.000
G2 X29.813 Y25.313 Z3.000 I0.169 J-0.409 F30000.000
G1 X29.813 Y25.313 Z2.500 F24000.000
G2 X29.669 Y24.591 Z2.500 I-0.313 J-0.313 F30000.000
G2 X29.331 Y25.409 Z2.500 I-0.169 J0.409 F30000.000
G2 X29.813 Y25.313 Z2.500 I0.169 J-0.409 F30000.000
G1 X29.813 Y25.313 Z2.000 F24000.000
G2 X29.669 Y24.591 Z2.000 I-0.313 J-0.313 F30000.000
G2 X29.331 Y25.409 Z2.000 I-0.169 J0.409 F30000.000
G2 X29.813 Y25.313 Z2.000 I0.169 J-0.409 F30000.000
G1 X29.813 Y25.313 Z1.500 F24000.000
G2 X29.669 Y24.591 Z1.500 I-0.313 J-0.313 F30000.000
G2 X29.331 Y25.409 Z1.500 I-0.169 J0.409 F30000.000
G2 X29.813 Y25.313 Z1.500 I0.169 J-0.409 F30000.000
G1 X29.813 Y25.313 Z1.000 F24000.000
G2 X29.669 Y24.591 Z1.000 I-0.313 J-0.313 F30000.000
G2 X29.331 Y25.409 Z1.000 I-0.169 J0.409 F30000.000
G2 X29.813 Y25.313 Z1.000 I0.169 J-0.409 F30000.000
G1 X29.813 Y25.313 Z0.500 F24000.000
G2 X29.669 Y24.591 Z0.500 I-0.313 J-0.313 F30000.000
G2 X29.331 Y25.409 Z0.500 I-0.169 J0.409 F30000.000
G2 X29.813 Y25.313 Z0.500 I0.169 J-0.409 F30000.000
G1 X29.813 Y25.313 Z0.000 F24000.000
G2 X29.669 Y24.591 Z0.000 I-0.313 J-0.313 F30000.000
G2 X29.331 Y25.409 Z0.000 I-0.169 J0.409 F30000.000
G2 X29.813 Y25.313 Z0.000 I0.169 J-0.409 F30000.000
G1 X29.813 Y25.313 Z-0.250 F24000.000
G2 X29.669 Y24.591 Z-0.250 I-0.313 J-0.313 F30000.000
G2 X29.331 Y25.409 Z-0.250 I-0.169 J0.409 F30000.000
G2 X29.813 Y25.313 Z-0.250 I0.169 J-0.409 F30000.000
G0 Z20.000
G0 Z20.000
G0 X29.813 Y25.313
G0 X49.180 Y79.146
G0 X49.180 Y79.146 Z18.000
G1 X49.180 Y79.146 Z12.500 F24000.000
G2 X49.177 Y80.922 Z12.500 I0.320 J0.888 F30000.000
G2 X50.387 Y80.357 Z12.500 I0.323 J-0.887 F30000.000
G2 X49.823 Y79.147 Z12.500 I-0.887 J-0.323 F30000.000
G2 X49.180 Y79.146 Z12.500 I-0.323 J0.887 F30000.000
G1 X49.180 Y79.146 Z12.000 F24000.000
G2 X49.177 Y80.922 Z12.000 I0.320 J0.888 F30000.000
G2 X50.387 Y80.357 Z12.000 I0.323 J-0.887 F30000.000
G2 X49.823 Y79.147 Z12.000 I-0.887 J-0.323 F30000.000
G2 X49.180 Y79.146 Z12.000 I-0.323 J0.887 F30000.000
G1 X49.180 Y79.146 Z11.500 F24000.000
G2 X49.177 Y80.922 Z11.500 I0.320 J0.888 F30000.000
G2 X50.387 Y80.357 Z11.500 I0.323 J-0.887 F30000.000
G2 X49.823 Y79.147 Z11.500 I-0.887 J-0.323 F30000.000
G2 X49.180 Y79.146 Z11.500 I-0.323 J0.887 F30000.000
G1 X49.180 Y79.146 Z11.000 F24000.000
G2 X49.177 Y80.922 Z11.000 I0.320 J0.888 F30000.000
G2 X50.387 Y80.357 Z11.000 I0.323 J-0.887 F30000.000
G2 X49.823 Y79.147 Z11.000 I-0.887 J-0.323 F30000.000
G2 X49.180 Y79.146 Z11.000 I-0.323 J0.887 F30000.000
G1 X49.180 Y79.146 Z10.500 F24000.000
G2 X49.177 Y80.922 Z10.500 I0.320 J0.888 F30000.000
G2 X50.387 Y80.357 Z10.500 I0.323 J-0.887 F30000.000
G2 X49.823 Y79.147 Z10.500 I-0.887 J-0.323 F30000.000
G2 X49.180 Y79.146 Z10.500 I-0.323 J0.887 F30000.000
G1 X49.180 Y79.146 Z10.000 F24000.000
G2 X49.177 Y80.922 Z10.000 I0.320 J0.888 F30000.000
G2 X50.387 Y80.357 Z10.000 I0.323 J-0.887 F30000.000
G2 X49.823 Y79.147 Z10.000 I-0.887 J-0.323 F30000.000
G2 X49.180 Y79.146 Z10.000 I-0.323 J0.887 F30000.000
G1 X49.180 Y79.146 Z9.500 F24000.000
G2 X49.177 Y80.922 Z9.500 I0.320 J0.888 F30000.000
G2 X50.387 Y80.357 Z9.500 I0.323 J-0.887 F30000.000
G2 X49.823 Y79.147 Z9.500 I-0.887 J-0.323 F30000.000
G2 X49.180 Y79.146 Z9.500 I-0.323 J0.887 F30000.000
G1 X49.180 Y79.146 Z9.000 F24000.000
G2 X49.177 Y80.922 Z9.000 I0.320 J0.888 F30000.000
G2 X50.387 Y80.357 Z9.000 I0.323 J-0.887 F30000.000
G2 X49.823 Y79.147 Z9.000 I-0.887 J-0.323 F30000.000
G2 X49.180 Y79.146 Z9.000 I-0.323 J0.887 F30000.000
G1 X49.180 Y79.146 Z8.500 F24000.000
G2 X49.177 Y80.922 Z8.500 I0.320 J0.888 F30000.000
G2 X50.387 Y80.357 Z8.500 I0.323 J-0.887 F30000.000
G2 X49.823 Y79.147 Z8.500 I-0.887 J-0.323 F30000.000
G2 X49.180 Y79.146 Z8.500 I-0.323 J0.887 F30000.000
G1 X49.180 Y79.146 Z8.000 F24000.000
G2 X49.177 Y80.922 Z8.000 I0.320 J0.888 F30000.000
G2 X50.387 Y80.357 Z8.000 I0.323 J-0.887 F30000.000
G2 X49.823 Y79.147 Z8.000 I-0.887 J-0.323 F30000.000
G2 X49.180 Y79.146 Z8.000 I-0.323 J0.887 F30000.000
G1 X49.180 Y79.146 Z7.500 F24000.000
G2 X49.177 Y80.922 Z7.500 I0.320 J0.888 F30000.000
G2 X50.387 Y80.357 Z7.500 I0.323 J-0.887 F30000.000
G2 X49.823 Y79.147 Z7.500 I-0.887 J-0.323 F30000.000
G2 X49.180 Y79.146 Z7.500 I-0.323 J0.887 F30000.000
G1 X49.180 Y79.146 Z7.000 F24000.000
G2 X49.177 Y80.922 Z7.000 I0.320 J0.888 F30000.000
G2 X50.387 Y80.357 Z7.000 I0.323 J-0.887 F30000.000
G2 X49.823 Y79.147 Z7.000 I-0.887 J-0.323 F30000.000
G2 X49.180 Y79.146 Z7.000 I-0.323 J0.887 F30000.000
G1 X49.180 Y79.146 Z6.500 F24000.000
G2 X49.177 Y80.922 Z6.500 I0.320 J0.888 F30000.000
G2 X50.387 Y80.357 Z6.500 I0.323 J-0.887 F30000.000
G2 X49.823 Y79.147 Z6.500 I-0.887 J-0.323 F30000.000
G2 X49.180 Y79.146 Z6.500 I-0.323 J0.887 F30000.000
G1 X49.180 Y79.146 Z6.000 F24000.000
G2 X49.177 Y80.922 Z6.000 I0.320 J0.888 F30000.000
G2 X50.387 Y80.357 Z6.000 I0.323 J-0.887 F30000.000
G2 X49.823 Y79.147 Z6.000 I-0.887 J-0.323 F30000.000
G2 X49.180 Y79.146 Z6.000 I-0.323 J0.887 F30000.000
G1 X49.180 Y79.146 Z5.500 F24000.000
G2 X49.177 Y80.922 Z5.500 I0.320 J0.888 F30000.000
G2 X50.387 Y80.357 Z5.500 I0.323 J-0.887 F30000.000
G2 X49.823 Y79.147 Z5.500 I-0.887 J-0.323 F30000.000
G2 X49.180 Y79.146 Z5.500 I-0.323 J0.887 F30000.000
G1 X49.180 Y79.146 Z5.000 F24000.000
G2 X49.177 Y80.922 Z5.000 I0.320 J0.888 F30000.000
G2 X50.387 Y80.357 Z5.000 I0.323 J-0.887 F30000.000
G2 X49.823 Y79.147 Z5.000 I-0.887 J-0.323 F30000.000
G2 X49.180 Y79.146 Z5.000 I-0.323 J0.887 F30000.000
G1 X49.180 Y79.146 Z4.500 F24000.000
G2 X49.177 Y80.922 Z4.500 I0.320 J0.888 F30000.000
G2 X50.387 Y80.357 Z4.500 I0.323 J-0.887 F30000.000
G2 X49.823 Y79.147 Z4.500 I-0.887 J-0.323 F30000.000
G2 X49.180 Y79.146 Z4.500 I-0.323 J0.887 F30000.000
G1 X49.180 Y79.146 Z4.000 F24000.000
G2 X49.177 Y80.922 Z4.000 I0.320 J0.888 F30000.000
G2 X50.387 Y80.357 Z4.000 I0.323 J-0.887 F30000.000
G2 X49.823 Y79.147 Z4.000 I-0.887 J-0.323 F30000.000
G2 X49.180 Y79.146 Z4.000 I-0.323 J0.887 F30000.000
G1 X49.180 Y79.146 Z3.500 F24000.000
G2 X49.177 Y80.922 Z3.500 I0.320 J0.888 F30000.000
G2 X50.387 Y80.357 Z3.500 I0.323 J-0.887 F30000.000
G2 X49.823 Y79.147 Z3.500 I-0.887 J-0.323 F30000.000
G2 X49.180 Y79.146 Z3.500 I-0.323 J0.887 F30000.000
G1 X49.180 Y79.146 Z3.000 F24000.000
G2 X49.177 Y80.922 Z3.000 I0.320 J0.888 F30000.000
G2 X50.387 Y80.357 Z3.000 I0.323 J-0.887 F30000.000
G2 X49.823 Y79.147 Z3.000 I-0.887 J-0.323 F30000.000
G2 X49.180 Y79.146 Z3.000 I-0.323 J0.887 F30000.000
G1 X49.180 Y79.146 Z2.500 F24000.000
G2 X49.177 Y80.922 Z2.500 I0.320 J0.888 F30000.000
G2 X50.387 Y80.357 Z2.500 I0.323 J-0.887 F30000.000
G2 X49.823 Y79.147 Z2.500 I-0.887 J-0.323 F30000.000
G2 X49.180 Y79.146 Z2.500 I-0.323 J0.887 F30000.000
G1 X49.180 Y79.146 Z2.000 F24000.000
G2 X49.177 Y80.922 Z2.000 I0.320 J0.888 F30000.000
G2 X50.387 Y80.357 Z2.000 I0.323 J-0.887 F30000.000
G2 X49.823 Y79.147 Z2.000 I-0.887 J-0.323 F30000.000
G2 X49.180 Y79.146 Z2.000 I-0.323 J0.887 F30000.000
G1 X49.180 Y79.146 Z1.500 F24000.000
G2 X49.177 Y80.922 Z1.500 I0.320 J0.888 F30000.000
G2 X50.387 Y80.357 Z1.500 I0.323 J-0.887 F30000.000
G2 X49.823 Y79.147 Z1.500 I-0.887 J-0.323 F30000.000
G2 X49.180 Y79.146 Z1.500 I-0.323 J0.887 F30000.000
G1 X49.180 Y79.146 Z1.000 F24000.000
G2 X49.177 Y80.922 Z1.000 I0.320 J0.888 F30000.000
G2 X50.387 Y80.357 Z1.000 I0.323 J-0.887 F30000.000
G2 X49.823 Y79.147 Z1.000 I-0.887 J-0.323 F30000.000
G2 X49.180 Y79.146 Z1.000 I-0.323 J0.887 F30000.000
G1 X49.180 Y79.146 Z0.500 F24000.000
G2 X49.177 Y80.922 Z0.500 I0.320 J0.888 F30000.000
G2 X50.387 Y80.357 Z0.500 I0.323 J-0.887 F30000.000
G2 X49.823 Y79.147 Z0.500 I-0.887 J-0.323 F30000.000
G2 X49.180 Y79.146 Z0.500 I-0.323 J0.887 F30000.000
G1 X49.180 Y79.146 Z0.000 F24000.000
G2 X49.177 Y80.922 Z0.000 I0.320 J0.888 F30000.000
G2 X50.387 Y80.357 Z0.000 I0.323 J-0.887 F30000.000
G2 X49.823 Y79.147 Z0.000 I-0.887 J-0.323 F30000.000
G2 X49.180 Y79.146 Z0.000 I-0.323 J0.887 F30000.000
G1 X49.180 Y79.146 Z-0.250 F24000.000
G2 X49.177 Y80.922 Z-0.250 I0.320 J0.888 F30000.000
G2 X50.387 Y80.357 Z-0.250 I0.323 J-0.887 F30000.000
G2 X49.823 Y79.147 Z-0.250 I-0.887 J-0.323 F30000.000
G2 X49.180 Y79.146 Z-0.250 I-0.323 J0.887 F30000.000
G0 Z20.000
G0 Z20.000
G0 X49.180 Y79.146
G0 X49.490 Y107.090
G0 X49.490 Y107.090 Z18.000
G1 X49.490 Y107.090 Z12.500 F24000.000
G2 X49.177 Y108.922 Z12.500 I0.010 J0.944 F30000.000
G2 X50.387 Y108.357 Z12.500 I0.323 J-0.887 F30000.000
G2 X49.823 Y107.147 Z12.500 I-0.887 J-0.323 F30000.000
G2 X49.490 Y107.090 Z12.500 I-0.323 J0.887 F30000.000
G1 X49.490 Y107.090 Z12.000 F24000.000
G2 X49.177 Y108.922 Z12.000 I0.010 J0.944 F30000.000
G2 X50.387 Y108.357 Z12.000 I0.323 J-0.887 F30000.000
G2 X49.823 Y107.147 Z12.000 I-0.887 J-0.323 F30000.000
G2 X49.490 Y107.090 Z12.000 I-0.323 J0.887 F30000.000
G1 X49.490 Y107.090 Z11.500 F24000.000
G2 X49.177 Y108.922 Z11.500 I0.010 J0.944 F30000.000
G2 X50.387 Y108.357 Z11.500 I0.323 J-0.887 F30000.000
G2 X49.823 Y107.147 Z11.500 I-0.887 J-0.323 F30000.000
G2 X49.490 Y107.090 Z11.500 I-0.323 J0.887 F30000.000
G1 X49.490 Y107.090 Z11.000 F24000.000
G2 X49.177 Y108.922 Z11.000 I0.010 J0.944 F30000.000
G2 X50.387 Y108.357 Z11.000 I0.323 J-0.887 F30000.000
G2 X49.823 Y107.147 Z11.000 I-0.887 J-0.323 F30000.000
G2 X49.490 Y107.090 Z11.000 I-0.323 J0.887 F30000.000
G1 X49.490 Y107.090 Z10.500 F24000.000
G2 X49.177 Y108.922 Z10.500 I0.010 J0.944 F30000.000
G2 X50.387 Y108.357 Z10.500 I0.323 J-0.887 F30000.000
G2 X49.823 Y107.147 Z10.500 I-0.887 J-0.323 F30000.000
G2 X49.490 Y107.090 Z10.500 I-0.323 J0.887 F30000.000
G1 X49.490 Y107.090 Z10.000 F24000.000
G2 X49.177 Y108.922 Z10.000 I0.010 J0.944 F30000.000
G2 X50.387 Y108.357 Z10.000 I0.323 J-0.887 F30000.000
G2 X49.823 Y107.147 Z10.000 I-0.887 J-0.323 F30000.000
G2 X49.490 Y107.090 Z10.000 I-0.323 J0.887 F30000.000
G1 X49.490 Y107.090 Z9.500 F24000.000
G2 X49.177 Y108.922 Z9.500 I0.010 J0.944 F30000.000
G2 X50.387 Y108.357 Z9.500 I0.323 J-0.887 F30000.000
G2 X49.823 Y107.147 Z9.500 I-0.887 J-0.323 F30000.000
G2 X49.490 Y107.090 Z9.500 I-0.323 J0.887 F30000.000
G1 X49.490 Y107.090 Z9.000 F24000.000
G2 X49.177 Y108.922 Z9.000 I0.010 J0.944 F30000.000
G2 X50.387 Y108.357 Z9.000 I0.323 J-0.887 F30000.000
G2 X49.823 Y107.147 Z9.000 I-0.887 J-0.323 F30000.000
G2 X49.490 Y107.090 Z9.000 I-0.323 J0.887 F30000.000
G1 X49.490 Y107.090 Z8.500 F24000.000
G2 X49.177 Y108.922 Z8.500 I0.010 J0.944 F30000.000
G2 X50.387 Y108.357 Z8.500 I0.323 J-0.887 F30000.000
G2 X49.823 Y107.147 Z8.500 I-0.887 J-0.323 F30000.000
G2 X49.490 Y107.090 Z8.500 I-0.323 J0.887 F30000.000
G1 X49.490 Y107.090 Z8.000 F24000.000
G2 X49.177 Y108.922 Z8.000 I0.010 J0.944 F30000.000
G2 X50.387 Y108.357 Z8.000 I0.323 J-0.887 F30000.000
G2 X49.823 Y107.147 Z8.000 I-0.887 J-0.323 F30000.000
G2 X49.490 Y107.090 Z8.000 I-0.323 J0.887 F30000.000
G1 X49.490 Y107.090 Z7.500 F24000.000
G2 X49.177 Y108.922 Z7.500 I0.010 J0.944 F30000.000
G2 X50.387 Y108.357 Z7.500 I0.323 J-0.887 F30000.000
G2 X49.823 Y107.147 Z7.500 I-0.887 J-0.323 F30000.000
G2 X49.490 Y107.090 Z7.500 I-0.323 J0.887 F30000.000
G1 X49.490 Y107.090 Z7.000 F24000.000
G2 X49.177 Y108.922 Z7.000 I0.010 J0.944 F30000.000
G2 X50.387 Y108.357 Z7.000 I0.323 J-0.887 F30000.000
G2 X49.823 Y107.147 Z7.000 I-0.887 J-0.323 F30000.000
G2 X49.490 Y107.090 Z7.000 I-0.323 J0.887 F30000.000
G1 X49.490 Y107.090 Z6.500 F24000.000
G2 X49.177 Y108.922 Z6.500 I0.010 J0.944 F30000.000
G2 X50.387 Y108.357 Z6.500 I0.323 J-0.887 F30000.000
G2 X49.823 Y107.147 Z6.500 I-0.887 J-0.323 F30000.000
G2 X49.490 Y107.090 Z6.500 I-0.323 J0.887 F30000.000
G1 X49.490 Y107.090 Z6.000 F24000.000
G2 X49.177 Y108.922 Z6.000 I0.010 J0.944 F30000.000
G2 X50.387 Y108.357 Z6.000 I0.323 J-0.887 F30000.000
G2 X49.823 Y107.147 Z6.000 I-0.887 J-0.323 F30000.000
G2 X49.490 Y107.090 Z6.000 I-0.323 J0.887 F30000.000
G1 X49.490 Y107.090 Z5.500 F24000.000
G2 X49.177 Y108.922 Z5.500 I0.010 J0.944 F30000.000
G2 X50.387 Y108.357 Z5.500 I0.323 J-0.887 F30000.000
G2 X49.823 Y107.147 Z5.500 I-0.887 J-0.323 F30000.000
G2 X49.490 Y107.090 Z5.500 I-0.323 J0.887 F30000.000
G1 X49.490 Y107.090 Z5.000 F24000.000
G2 X49.177 Y108.922 Z5.000 I0.010 J0.944 F30000.000
G2 X50.387 Y108.357 Z5.000 I0.323 J-0.887 F30000.000
G2 X49.823 Y107.147 Z5.000 I-0.887 J-0.323 F30000.000
G2 X49.490 Y107.090 Z5.000 I-0.323 J0.887 F30000.000
G1 X49.490 Y107.090 Z4.500 F24000.000
G2 X49.177 Y108.922 Z4.500 I0.010 J0.944 F30000.000
G2 X50.387 Y108.357 Z4.500 I0.323 J-0.887 F30000.000
G2 X49.823 Y107.147 Z4.500 I-0.887 J-0.323 F30000.000
G2 X49.490 Y107.090 Z4.500 I-0.323 J0.887 F30000.000
G1 X49.490 Y107.090 Z4.000 F24000.000
G2 X49.177 Y108.922 Z4.000 I0.010 J0.944 F30000.000
G2 X50.387 Y108.357 Z4.000 I0.323 J-0.887 F30000.000
G2 X49.823 Y107.147 Z4.000 I-0.887 J-0.323 F30000.000
G2 X49.490 Y107.090 Z4.000 I-0.323 J0.887 F30000.000
G1 X49.490 Y107.090 Z3.500 F24000.000
G2 X49.177 Y108.922 Z3.500 I0.010 J0.944 F30000.000
G2 X50.387 Y108.357 Z3.500 I0.323 J-0.887 F30000.000
G2 X49.823 Y107.147 Z3.500 I-0.887 J-0.323 F30000.000
G2 X49.490 Y107.090 Z3.500 I-0.323 J0.887 F30000.000
G1 X49.490 Y107.090 Z3.000 F24000.000
G2 X49.177 Y108.922 Z3.000 I0.010 J0.944 F30000.000
G2 X50.387 Y108.357 Z3.000 I0.323 J-0.887 F30000.000
G2 X49.823 Y107.147 Z3.000 I-0.887 J-0.323 F30000.000
G2 X49.490 Y107.090 Z3.000 I-0.323 J0.887 F30000.000
G1 X49.490 Y107.090 Z2.500 F24000.000
G2 X49.177 Y108.922 Z2.500 I0.010 J0.944 F30000.000
G2 X50.387 Y108.357 Z2.500 I0.323 J-0.887 F30000.000
G2 X49.823 Y107.147 Z2.500 I-0.887 J-0.323 F30000.000
G2 X49.490 Y107.090 Z2.500 I-0.323 J0.887 F30000.000
G1 X49.490 Y107.090 Z2.000 F24000.000
G2 X49.177 Y108.922 Z2.000 I0.010 J0.944 F30000.000
G2 X50.387 Y108.357 Z2.000 I0.323 J-0.887 F30000.000
G2 X49.823 Y107.147 Z2.000 I-0.887 J-0.323 F30000.000
G2 X49.490 Y107.090 Z2.000 I-0.323 J0.887 F30000.000
G1 X49.490 Y107.090 Z1.500 F24000.000
G2 X49.177 Y108.922 Z1.500 I0.010 J0.944 F30000.000
G2 X50.387 Y108.357 Z1.500 I0.323 J-0.887 F30000.000
G2 X49.823 Y107.147 Z1.500 I-0.887 J-0.323 F30000.000
G2 X49.490 Y107.090 Z1.500 I-0.323 J0.887 F30000.000
G1 X49.490 Y107.090 Z1.000 F24000.000
G2 X49.177 Y108.922 Z1.000 I0.010 J0.944 F30000.000
G2 X50.387 Y108.357 Z1.000 I0.323 J-0.887 F30000.000
G2 X49.823 Y107.147 Z1.000 I-0.887 J-0.323 F30000.000
G2 X49.490 Y107.090 Z1.000 I-0.323 J0.887 F30000.000
G1 X49.490 Y107.090 Z0.500 F24000.000
G2 X49.177 Y108.922 Z0.500 I0.010 J0.944 F30000.000
G2 X50.387 Y108.357 Z0.500 I0.323 J-0.887 F30000.000
G2 X49.823 Y107.147 Z0.500 I-0.887 J-0.323 F30000.000
G2 X49.490 Y107.090 Z0.500 I-0.323 J0.887 F30000.000
G1 X49.490 Y107.090 Z0.000 F24000.000
G2 X49.177 Y108.922 Z0.000 I0.010 J0.944 F30000.000
G2 X50.387 Y108.357 Z0.000 I0.323 J-0.887 F30000.000
G2 X49.823 Y107.147 Z0.000 I-0.887 J-0.323 F30000.000
G2 X49.490 Y107.090 Z0.000 I-0.323 J0.887 F30000.000
G1 X49.490 Y107.090 Z-0.250 F24000.000
G2 X49.177 Y108.922 Z-0.250 I0.010 J0.944 F30000.000
G2 X50.387 Y108.357 Z-0.250 I0.323 J-0.887 F30000.000
G2 X49.823 Y107.147 Z-0.250 I-0.887 J-0.323 F30000.000
G2 X49.490 Y107.090 Z-0.250 I-0.323 J0.887 F30000.000
G0 Z20.000
G0 Z20.000
G0 X49.490 Y107.090
G0 X29.669 Y154.591
G0 X29.669 Y154.591 Z18.000
G1 X29.669 Y154.591 Z12.500 F24000.000
G2 X29.091 Y154.831 Z12.500 I-0.169 J0.409 F30000.000
G2 X29.331 Y155.409 Z12.500 I0.409 J0.169 F30000.000
G2 X29.669 Y154.591 Z12.500 I0.169 J-0.409 F30000.000
G1 X29.669 Y154.591 Z12.000 F24000.000
G2 X29.091 Y154.831 Z12.000 I-0.169 J0.409 F30000.000
G2 X29.331 Y155.409 Z12.000 I0.409 J0.169 F30000.000
G2 X29.669 Y154.591 Z12.000 I0.169 J-0.409 F30000.000
G1 X29.669 Y154.591 Z11.500 F24000.000
G2 X29.091 Y154.831 Z11.500 I-0.169 J0.409 F30000.000
G2 X29.331 Y155.409 Z11.500 I0.409 J0.169 F30000.000
G2 X29.669 Y154.591 Z11.500 I0.169 J-0.409 F30000.000
G1 X29.669 Y154.591 Z11.000 F24000.000
G2 X29.091 Y154.831 Z11.000 I-0.169 J0.409 F30000.000
G2 X29.331 Y155.409 Z11.000 I0.409 J0.169 F30000.000
G2 X29.669 Y154.591 Z11.000 I0.169 J-0.409 F30000.000
G1 X29.669 Y154.591 Z10.500 F24000.000
G2 X29.091 Y154.831 Z10.500 I-0.169 J0.409 F30000.000
G2 X29.331 Y155.409 Z10.500 I0.409 J0.169 F30000.000
G2 X29.669 Y154.591 Z10.500 I0.169 J-0.409 F30000.000
G1 X29.669 Y154.591 Z10.000 F24000.000
G2 X29.091 Y154.831 Z10.000 I-0.169 J0.409 F30000.000
G2 X29.331 Y155.409 Z10.000 I0.409 J0.169 F30000.000
G2 X29.669 Y154.591 Z10.000 I0.169 J-0.409 F30000.000
G1 X29.669 Y154.591 Z9.500 F24000.000
G2 X29.091 Y154.831 Z9.500 I-0.169 J0.409 F30000.000
G2 X29.331 Y155.409 Z9.500 I0.409 J0.169 F30000.000
G2 X29.669 Y154.591 Z9.500 I0.169 J-0.409 F30000.000
G1 X29.669 Y154.591 Z9.000 F24000.000
G2 X29.091 Y154.831 Z9.000 I-0.169 J0.409 F30000.000
G2 X29.331 Y155.409 Z9.000 I0.409 J0.169 F30000.000
G2 X29.669 Y154.591 Z9.000 I0.169 J-0.409 F30000.000
G1 X29.669 Y154.591 Z8.500 F24000.000
G2 X29.091 Y154.831 Z8.500 I-0.169 J0.409 F30000.000
G2 X29.331 Y155.409 Z8.500 I0.409 J0.169 F30000.000
G2 X29.669 Y154.591 Z8.500 I0.169 J-0.409 F30000.000
G1 X29.669 Y154.591 Z8.000 F24000.000
G2 X29.091 Y154.831 Z8.000 I-0.169 J0.409 F30000.000
G2 X29.331 Y155.409 Z8.000 I0.409 J0.169 F30000.000
G2 X29.669 Y154.591 Z8.000 I0.169 J-0.409 F30000.000
G1 X29.669 Y154.591 Z7.500 F24000.000
G2 X29.091 Y154.831 Z7.500 I-0.169 J0.409 F30000.000
G2 X29.331 Y155.409 Z7.500 I0.409 J0.169 F30000.000
G2 X29.669 Y154.591 Z7.500 I0.169 J-0.409 F30000.000
G1 X29.669 Y154.591 Z7.000 F24000.000
G2 X29.091 Y154.831 Z7.000 I-0.169 J0.409 F30000.000
G2 X29.331 Y155.409 Z7.000 I0.409 J0.169 F30000.000
G2 X29.669 Y154.591 Z7.000 I0.169 J-0.409 F30000.000
G1 X29.669 Y154.591 Z6.500 F24000.000
G2 X29.091 Y154.831 Z6.500 I-0.169 J0.409 F30000.000
G2 X29.331 Y155.409 Z6.500 I0.409 J0.169 F30000.000
G2 X29.669 Y154.591 Z6.500 I0.169 J-0.409 F30000.000
G1 X29.669 Y154.591 Z6.000 F24000.000
G2 X29.091 Y154.831 Z6.000 I-0.169 J0.409 F30000.000
G2 X29.331 Y155.409 Z6.000 I0.409 J0.169 F30000.000
G2 X29.669 Y154.591 Z6.000 I0.169 J-0.409 F30000.000
G1 X29.669 Y154.591 Z5.500 F24000.000
G2 X29.091 Y154.831 Z5.500 I-0.169 J0.409 F30000.000
G2 X29.331 Y155.409 Z5.500 I0.409 J0.169 F30000.000
G2 X29.669 Y154.591 Z5.500 I0.169 J-0.409 F30000.000
G1 X29.669 Y154.591 Z5.000 F24000.000
G2 X29.091 Y154.831 Z5.000 I-0.169 J0.409 F30000.000
G2 X29.331 Y155.409 Z5.000 I0.409 J0.169 F30000.000
G2 X29.669 Y154.591 Z5.000 I0.169 J-0.409 F30000.000
G1 X29.669 Y154.591 Z4.500 F24000.000
G2 X29.091 Y154.831 Z4.500 I-0.169 J0.409 F30000.000
G2 X29.331 Y155.409 Z4.500 I0.409 J0.169 F30000.000
G2 X29.669 Y154.591 Z4.500 I0.169 J-0.409 F30000.000
G1 X29.669 Y154.591 Z4.000 F24000.000
G2 X29.091 Y154.831 Z4.000 I-0.169 J0.409 F30000.000
G2 X29.331 Y155.409 Z4.000 I0.409 J0.169 F30000.000
G2 X29.669 Y154.591 Z4.000 I0.169 J-0.409 F30000.000
G1 X29.669 Y154.591 Z3.500 F24000.000
G2 X29.091 Y154.831 Z3.500 I-0.169 J0.409 F30000.000
G2 X29.331 Y155.409 Z3.500 I0.409 J0.169 F30000.000
G2 X29.669 Y154.591 Z3.500 I0.169 J-0.409 F30000.000
G1 X29.669 Y154.591 Z3.000 F24000.000
G2 X29.091 Y154.831 Z3.000 I-0.169 J0.409 F30000.000
G2 X29.331 Y155.409 Z3.000 I0.409 J0.169 F30000.000
G2 X29.669 Y154.591 Z3.000 I0.169 J-0.409 F30000.000
G1 X29.669 Y154.591 Z2.500 F24000.000
G2 X29.091 Y154.831 Z2.500 I-0.169 J0.409 F30000.000
G2 X29.331 Y155.409 Z2.500 I0.409 J0.169 F30000.000
G2 X29.669 Y154.591 Z2.500 I0.169 J-0.409 F30000.000
G1 X29.669 Y154.591 Z2.000 F24000.000
G2 X29.091 Y154.831 Z2.000 I-0.169 J0.409 F30000.000
G2 X29.331 Y155.409 Z2.000 I0.409 J0.169 F30000.000
G2 X29.669 Y154.591 Z2.000 I0.169 J-0.409 F30000.000
G1 X29.669 Y154.591 Z1.500 F24000.000
G2 X29.091 Y154.831 Z1.500 I-0.169 J0.409 F30000.000
G2 X29.331 Y155.409 Z1.500 I0.409 J0.169 F30000.000
G2 X29.669 Y154.591 Z1.500 I0.169 J-0.409 F30000.000
G1 X29.669 Y154.591 Z1.000 F24000.000
G2 X29.091 Y154.831 Z1.000 I-0.169 J0.409 F30000.000
G2 X29.331 Y155.409 Z1.000 I0.409 J0.169 F30000.000
G2 X29.669 Y154.591 Z1.000 I0.169 J-0.409 F30000.000
G1 X29.669 Y154.591 Z0.500 F24000.000
G2 X29.091 Y154.831 Z0.500 I-0.169 J0.409 F30000.000
G2 X29.331 Y155.409 Z0.500 I0.409 J0.169 F30000.000
G2 X29.669 Y154.591 Z0.500 I0.169 J-0.409 F30000.000
G1 X29.669 Y154.591 Z0.000 F24000.000
G2 X29.091 Y154.831 Z0.000 I-0.169 J0.409 F30000.000
G2 X29.331 Y155.409 Z0.000 I0.409 J0.169 F30000.000
G2 X29.669 Y154.591 Z0.000 I0.169 J-0.409 F30000.000
G1 X29.669 Y154.591 Z-0.250 F24000.000
G2 X29.091 Y154.831 Z-0.250 I-0.169 J0.409 F30000.000
G2 X29.331 Y155.409 Z-0.250 I0.409 J0.169 F30000.000
G2 X29.669 Y154.591 Z-0.250 I0.169 J-0.409 F30000.000
G0 Z20.000
G0 Z20.000
G0 X29.669 Y154.591
G0 X187.007 Y57.877
G0 X187.007 Y57.877 Z18.000
G1 X187.007 Y57.877 Z12.500 F24000.000
G2 X191.242 Y60.824 Z12.500 I5.493 J-3.377 F30000.000
G2 X198.824 Y55.758 Z12.500 I1.258 J-6.324 F30000.000
G2 X193.758 Y48.176 Z12.500 I-6.324 J-1.258 F30000.000
G2 X187.007 Y57.877 Z12.500 I-1.258 J6.324 F30000.000
G1 X187.007 Y57.877 Z12.000 F24000.000
G2 X191.242 Y60.824 Z12.000 I5.493 J-3.377 F30000.000
G2 X198.824 Y55.758 Z12.000 I1.258 J-6.324 F30000.000
G2 X193.758 Y48.176 Z12.000 I-6.324 J-1.258 F30000.000
G2 X187.007 Y57.877 Z12.000 I-1.258 J6.324 F30000.000
G1 X187.007 Y57.877 Z11.500 F24000.000
G2 X191.242 Y60.824 Z11.500 I5.493 J-3.377 F30000.000
G2 X198.824 Y55.758 Z11.500 I1.258 J-6.324 F30000.000
G2 X193.758 Y48.176 Z11.500 I-6.324 J-1.258 F30000.000
G2 X187.007 Y57.877 Z11.500 I-1.258 J6.324 F30000.000
G1 X187.007 Y57.877 Z11.000 F24000.000
G2 X191.242 Y60.824 Z11.000 I5.493 J-3.377 F30000.000
G2 X198.824 Y55.758 Z11.000 I1.258 J-6.324 F30000.000
G2 X193.758 Y48.176 Z11.000 I-6.324 J-1.258 F30000.000
G2 X187.007 Y57.877 Z11.000 I-1.258 J6.324 F30000.000
G1 X187.007 Y57.877 Z10.500 F24000.000
G2 X191.242 Y60.824 Z10.500 I5.493 J-3.377 F30000.000
G2 X198.824 Y55.758 Z10.500 I1.258 J-6.324 F30000.000
G2 X193.758 Y48.176 Z10.500 I-6.324 J-1.258 F30000.000
G2 X187.007 Y57.877 Z10.500 I-1.258 J6.324 F30000.000
G1 X187.007 Y57.877 Z10.000 F24000.000
G2 X191.242 Y60.824 Z10.000 I5.493 J-3.377 F30000.000
G2 X198.824 Y55.758 Z10.000 I1.258 J-6.324 F30000.000
G2 X193.758 Y48.176 Z10.000 I-6.324 J-1.258 F30000.000
G2 X187.007 Y57.877 Z10.000 I-1.258 J6.324 F30000.000
G1 X187.007 Y57.877 Z9.500 F24000.000
G2 X191.242 Y60.824 Z9.500 I5.493 J-3.377 F30000.000
G2 X198.824 Y55.758 Z9.500 I1.258 J-6.324 F30000.000
G2 X193.758 Y48.176 Z9.500 I-6.324 J-1.258 F30000.000
G2 X187.007 Y57.877 Z9.500 I-1.258 J6.324 F30000.000
G1 X187.007 Y57.877 Z9.000 F24000.000
G2 X191.242 Y60.824 Z9.000 I5.493 J-3.377 F30000.000
G2 X198.824 Y55.758 Z9.000 I1.258 J-6.324 F30000.000
G2 X193.758 Y48.176 Z9.000 I-6.324 J-1.258 F30000.000
G2 X187.007 Y57.877 Z9.000 I-1.258 J6.324 F30000.000
G1 X187.007 Y57.877 Z8.500 F24000.000
G2 X191.242 Y60.824 Z8.500 I5.493 J-3.377 F30000.000
G2 X198.824 Y55.758 Z8.500 I1.258 J-6.324 F30000.000
G2 X193.758 Y48.176 Z8.500 I-6.324 J-1.258 F30000.000
G2 X187.007 Y57.877 Z8.500 I-1.258 J6.324 F30000.000
G1 X187.007 Y57.877 Z8.000 F24000.000
G2 X191.242 Y60.824 Z8.000 I5.493 J-3.377 F30000.000
G2 X198.824 Y55.758 Z8.000 I1.258 J-6.324 F30000.000
G2 X193.758 Y48.176 Z8.000 I-6.324 J-1.258 F30000.000
G2 X187.007 Y57.877 Z8.000 I-1.258 J6.324 F30000.000
G1 X187.007 Y57.877 Z7.500 F24000.000
G2 X191.242 Y60.824 Z7.500 I5.493 J-3.377 F30000.000
G2 X198.824 Y55.758 Z7.500 I1.258 J-6.324 F30000.000
G2 X193.758 Y48.176 Z7.500 I-6.324 J-1.258 F30000.000
G2 X187.007 Y57.877 Z7.500 I-1.258 J6.324 F30000.000
G1 X187.007 Y57.877 Z7.000 F24000.000
G2 X191.242 Y60.824 Z7.000 I5.493 J-3.377 F30000.000
G2 X198.824 Y55.758 Z7.000 I1.258 J-6.324 F30000.000
G2 X193.758 Y48.176 Z7.000 I-6.324 J-1.258 F30000.000
G2 X187.007 Y57.877 Z7.000 I-1.258 J6.324 F30000.000
G1 X187.007 Y57.877 Z6.500 F24000.000
G2 X191.242 Y60.824 Z6.500 I5.493 J-3.377 F30000.000
G2 X198.824 Y55.758 Z6.500 I1.258 J-6.324 F30000.000
G2 X193.758 Y48.176 Z6.500 I-6.324 J-1.258 F30000.000
G2 X187.007 Y57.877 Z6.500 I-1.258 J6.324 F30000.000
G1 X187.007 Y57.877 Z6.000 F24000.000
G2 X191.242 Y60.824 Z6.000 I5.493 J-3.377 F30000.000
G2 X198.824 Y55.758 Z6.000 I1.258 J-6.324 F30000.000
G2 X193.758 Y48.176 Z6.000 I-6.324 J-1.258 F30000.000
G2 X187.007 Y57.877 Z6.000 I-1.258 J6.324 F30000.000
G1 X187.007 Y57.877 Z5.500 F24000.000
G2 X191.242 Y60.824 Z5.500 I5.493 J-3.377 F30000.000
G2 X198.824 Y55.758 Z5.500 I1.258 J-6.324 F30000.000
G2 X193.758 Y48.176 Z5.500 I-6.324 J-1.258 F30000.000
G2 X187.007 Y57.877 Z5.500 I-1.258 J6.324 F30000.000
G1 X187.007 Y57.877 Z5.000 F24000.000
G2 X191.242 Y60.824 Z5.000 I5.493 J-3.377 F30000.000
G2 X198.824 Y55.758 Z5.000 I1.258 J-6.324 F30000.000
G2 X193.758 Y48.176 Z5.000 I-6.324 J-1.258 F30000.000
G2 X187.007 Y57.877 Z5.000 I-1.258 J6.324 F30000.000
G1 X187.007 Y57.877 Z4.500 F24000.000
G2 X191.242 Y60.824 Z4.500 I5.493 J-3.377 F30000.000
G2 X198.824 Y55.758 Z4.500 I1.258 J-6.324 F30000.000
G2 X193.758 Y48.176 Z4.500 I-6.324 J-1.258 F30000.000
G2 X187.007 Y57.877 Z4.500 I-1.258 J6.324 F30000.000
G1 X187.007 Y57.877 Z4.000 F24000.000
G2 X191.242 Y60.824 Z4.000 I5.493 J-3.377 F30000.000
G2 X198.824 Y55.758 Z4.000 I1.258 J-6.324 F30000.000
G2 X193.758 Y48.176 Z4.000 I-6.324 J-1.258 F30000.000
G2 X187.007 Y57.877 Z4.000 I-1.258 J6.324 F30000.000
G1 X187.007 Y57.877 Z3.500 F24000.000
G2 X191.242 Y60.824 Z3.500 I5.493 J-3.377 F30000.000
G2 X198.824 Y55.758 Z3.500 I1.258 J-6.324 F30000.000
G2 X193.758 Y48.176 Z3.500 I-6.324 J-1.258 F30000.000
G2 X187.007 Y57.877 Z3.500 I-1.258 J6.324 F30000.000
G1 X187.007 Y57.877 Z3.000 F24000.000
G2 X191.242 Y60.824 Z3.000 I5.493 J-3.377 F30000.000
G2 X198.824 Y55.758 Z3.000 I1.258 J-6.324 F30000.000
G2 X193.758 Y48.176 Z3.000 I-6.324 J-1.258 F30000.000
G2 X187.007 Y57.877 Z3.000 I-1.258 J6.324 F30000.000
G1 X187.007 Y57.877 Z2.500 F24000.000
G2 X191.242 Y60.824 Z2.500 I5.493 J-3.377 F30000.000
G2 X198.824 Y55.758 Z2.500 I1.258 J-6.324 F30000.000
G2 X193.758 Y48.176 Z2.500 I-6.324 J-1.258 F30000.000
G2 X187.007 Y57.877 Z2.500 I-1.258 J6.324 F30000.000
G1 X187.007 Y57.877 Z2.000 F24000.000
G2 X191.242 Y60.824 Z2.000 I5.493 J-3.377 F30000.000
G2 X198.824 Y55.758 Z2.000 I1.258 J-6.324 F30000.000
G2 X193.758 Y48.176 Z2.000 I-6.324 J-1.258 F30000.000
G2 X187.007 Y57.877 Z2.000 I-1.258 J6.324 F30000.000
G1 X187.007 Y57.877 Z1.500 F24000.000
G2 X191.242 Y60.824 Z1.500 I5.493 J-3.377 F30000.000
G2 X198.824 Y55.758 Z1.500 I1.258 J-6.324 F30000.000
G2 X193.758 Y48.176 Z1.500 I-6.324 J-1.258 F30000.000
G2 X187.007 Y57.877 Z1.500 I-1.258 J6.324 F30000.000
G1 X187.007 Y57.877 Z1.000 F24000.000
G2 X191.242 Y60.824 Z1.000 I5.493 J-3.377 F30000.000
G2 X198.824 Y55.758 Z1.000 I1.258 J-6.324 F30000.000
G2 X193.758 Y48.176 Z1.000 I-6.324 J-1.258 F30000.000
G2 X187.007 Y57.877 Z1.000 I-1.258 J6.324 F30000.000
G1 X187.007 Y57.877 Z0.500 F24000.000
G2 X191.242 Y60.824 Z0.500 I5.493 J-3.377 F30000.000
G2 X198.824 Y55.758 Z0.500 I1.258 J-6.324 F30000.000
G2 X193.758 Y48.176 Z0.500 I-6.324 J-1.258 F30000.000
G2 X187.007 Y57.877 Z0.500 I-1.258 J6.324 F30000.000
G1 X187.007 Y57.877 Z0.000 F24000.000
G2 X191.242 Y60.824 Z0.000 I5.493 J-3.377 F30000.000
G2 X198.824 Y55.758 Z0.000 I1.258 J-6.324 F30000.000
G2 X193.758 Y48.176 Z0.000 I-6.324 J-1.258 F30000.000
G2 X187.007 Y57.877 Z0.000 I-1.258 J6.324 F30000.000
G1 X187.007 Y57.877 Z-0.250 F24000.000
G2 X191.242 Y60.824 Z-0.250 I5.493 J-3.377 F30000.000
G2 X198.824 Y55.758 Z-0.250 I1.258 J-6.324 F30000.000
G2 X193.758 Y48.176 Z-0.250 I-6.324 J-1.258 F30000.000
G2 X187.007 Y57.877 Z-0.250 I-1.258 J6.324 F30000.000
G0 Z20.000
G0 Z20.000
G0 X187.007 Y57.877
G0 X261.072 Y71.825
G0 X261.072 Y71.825 Z18.000
G1 X261.072 Y71.825 Z12.500 F24000.000
G2 X261.677 Y72.887 Z12.500 I0.928 J0.175 F30000.000
G2 X262.887 Y72.323 Z12.500 I0.323 J-0.887 F30000.000
G2 X262.323 Y71.113 Z12.500 I-0.887 J-0.323 F30000.000
G2 X261.072 Y71.825 Z12.500 I-0.323 J0.887 F30000.000
G1 X261.072 Y71.825 Z12.000 F24000.000
G2 X261.677 Y72.887 Z12.000 I0.928 J0.175 F30000.000
G2 X262.887 Y72.323 Z12.000 I0.323 J-0.887 F30000.000
G2 X262.323 Y71.113 Z12.000 I-0.887 J-0.323 F30000.000
G2 X261.072 Y71.825 Z12.000 I-0.323 J0.887 F30000.000
G1 X261.072 Y71.825 Z11.500 F24000.000
G2 X261.677 Y72.887 Z11.500 I0.928 J0.175 F30000.000
G2 X262.887 Y72.323 Z11.500 I0.323 J-0.887 F30000.000
G2 X262.323 Y71.113 Z11.500 I-0.887 J-0.323 F30000.000
G2 X261.072 Y71.825 Z11.500 I-0.323 J0.887 F30000.000
G1 X261.072 Y71.825 Z11.000 F24000.000
G2 X261.677 Y72.887 Z11.000 I0.928 J0.175 F30000.000
G2 X262.887 Y72.323 Z11.000 I0.323 J-0.887 F30000.000
G2 X262.323 Y71.113 Z11.000 I-0.887 J-0.323 F30000.000
G2 X261.072 Y71.825 Z11.000 I-0.323 J0.887 F30000.000
G1 X261.072 Y71.825 Z10.500 F24000.000
G2 X261.677 Y72.887 Z10.500 I0.928 J0.175 F30000.000
G2 X262.887 Y72.323 Z10.500 I0.323 J-0.887 F30000.000
G2 X262.323 Y71.113 Z10.500 I-0.887 J-0.323 F30000.000
G2 X261.072 Y71.825 Z10.500 I-0.323 J0.887 F30000.000
G1 X261.072 Y71.825 Z10.000 F24000.000
G2 X261.677 Y72.887 Z10.000 I0.928 J0.175 F30000.000
G2 X262.887 Y72.323 Z10.000 I0.323 J-0.887 F30000.000
G2 X262.323 Y71.113 Z10.000 I-0.887 J-0.323 F30000.000
G2 X261.072 Y71.825 Z10.000 I-0.323 J0.887 F30000.000
G1 X261.072 Y71.825 Z9.500 F24000.000
G2 X261.677 Y72.887 Z9.500 I0.928 J0.175 F30000.000
G2 X262.887 Y72.323 Z9.500 I0.323 J-0.887 F30000.000
G2 X262.323 Y71.113 Z9.500 I-0.887 J-0.323 F30000.000
G2 X261.072 Y71.825 Z9.500 I-0.323 J0.887 F30000.000
G1 X261.072 Y71.825 Z9.000 F24000.000
G2 X261.677 Y72.887 Z9.000 I0.928 J0.175 F30000.000
G2 X262.887 Y72.323 Z9.000 I0.323 J-0.887 F30000.000
G2 X262.323 Y71.113 Z9.000 I-0.887 J-0.323 F30000.000
G2 X261.072 Y71.825 Z9.000 I-0.323 J0.887 F30000.000
G1 X261.072 Y71.825 Z8.500 F24000.000
G2 X261.677 Y72.887 Z8.500 I0.928 J0.175 F30000.000
G2 X262.887 Y72.323 Z8.500 I0.323 J-0.887 F30000.000
G2 X262.323 Y71.113 Z8.500 I-0.887 J-0.323 F30000.000
G2 X261.072 Y71.825 Z8.500 I-0.323 J0.887 F30000.000
G1 X261.072 Y71.825 Z8.000 F24000.000
G2 X261.677 Y72.887 Z8.000 I0.928 J0.175 F30000.000
G2 X262.887 Y72.323 Z8.000 I0.323 J-0.887 F30000.000
G2 X262.323 Y71.113 Z8.000 I-0.887 J-0.323 F30000.000
G2 X261.072 Y71.825 Z8.000 I-0.323 J0.887 F30000.000
G1 X261.072 Y71.825 Z7.500 F24000.000
G2 X261.677 Y72.887 Z7.500 I0.928 J0.175 F30000.000
G2 X262.887 Y72.323 Z7.500 I0.323 J-0.887 F30000.000
G2 X262.323 Y71.113 Z7.500 I-0.887 J-0.323 F30000.000
G2 X261.072 Y71.825 Z7.500 I-0.323 J0.887 F30000.000
G1 X261.072 Y71.825 Z7.000 F24000.000
G2 X261.677 Y72.887 Z7.000 I0.928 J0.175 F30000.000
G2 X262.887 Y72.323 Z7.000 I0.323 J-0.887 F30000.000
G2 X262.323 Y71.113 Z7.000 I-0.887 J-0.323 F30000.000
G2 X261.072 Y71.825 Z7.000 I-0.323 J0.887 F30000.000
G1 X261.072 Y71.825 Z6.500 F24000.000
G2 X261.677 Y72.887 Z6.500 I0.928 J0.175 F30000.000
G2 X262.887 Y72.323 Z6.500 I0.323 J-0.887 F30000.000
G2 X262.323 Y71.113 Z6.500 I-0.887 J-0.323 F30000.000
G2 X261.072 Y71.825 Z6.500 I-0.323 J0.887 F30000.000
G1 X261.072 Y71.825 Z6.000 F24000.000
G2 X261.677 Y72.887 Z6.000 I0.928 J0.175 F30000.000
G2 X262.887 Y72.323 Z6.000 I0.323 J-0.887 F30000.000
G2 X262.323 Y71.113 Z6.000 I-0.887 J-0.323 F30000.000
G2 X261.072 Y71.825 Z6.000 I-0.323 J0.887 F30000.000
G1 X261.072 Y71.825 Z5.500 F24000.000
G2 X261.677 Y72.887 Z5.500 I0.928 J0.175 F30000.000
G2 X262.887 Y72.323 Z5.500 I0.323 J-0.887 F30000.000
G2 X262.323 Y71.113 Z5.500 I-0.887 J-0.323 F30000.000
G2 X261.072 Y71.825 Z5.500 I-0.323 J0.887 F30000.000
G1 X261.072 Y71.825 Z5.000 F24000.000
G2 X261.677 Y72.887 Z5.000 I0.928 J0.175 F30000.000
G2 X262.887 Y72.323 Z5.000 I0.323 J-0.887 F30000.000
G2 X262.323 Y71.113 Z5.000 I-0.887 J-0.323 F30000.000
G2 X261.072 Y71.825 Z5.000 I-0.323 J0.887 F30000.000
G1 X261.072 Y71.825 Z4.500 F24000.000
G2 X261.677 Y72.887 Z4.500 I0.928 J0.175 F30000.000
G2 X262.887 Y72.323 Z4.500 I0.323 J-0.887 F30000.000
G2 X262.323 Y71.113 Z4.500 I-0.887 J-0.323 F30000.000
G2 X261.072 Y71.825 Z4.500 I-0.323 J0.887 F30000.000
G1 X261.072 Y71.825 Z4.000 F24000.000
G2 X261.677 Y72.887 Z4.000 I0.928 J0.175 F30000.000
G2 X262.887 Y72.323 Z4.000 I0.323 J-0.887 F30000.000
G2 X262.323 Y71.113 Z4.000 I-0.887 J-0.323 F30000.000
G2 X261.072 Y71.825 Z4.000 I-0.323 J0.887 F30000.000
G1 X261.072 Y71.825 Z3.500 F24000.000
G2 X261.677 Y72.887 Z3.500 I0.928 J0.175 F30000.000
G2 X262.887 Y72.323 Z3.500 I0.323 J-0.887 F30000.000
G2 X262.323 Y71.113 Z3.500 I-0.887 J-0.323 F30000.000
G2 X261.072 Y71.825 Z3.500 I-0.323 J0.887 F30000.000
G1 X261.072 Y71.825 Z3.000 F24000.000
G2 X261.677 Y72.887 Z3.000 I0.928 J0.175 F30000.000
G2 X262.887 Y72.323 Z3.000 I0.323 J-0.887 F30000.000
G2 X262.323 Y71.113 Z3.000 I-0.887 J-0.323 F30000.000
G2 X261.072 Y71.825 Z3.000 I-0.323 J0.887 F30000.000
G1 X261.072 Y71.825 Z2.500 F24000.000
G2 X261.677 Y72.887 Z2.500 I0.928 J0.175 F30000.000
G2 X262.887 Y72.323 Z2.500 I0.323 J-0.887 F30000.000
G2 X262.323 Y71.113 Z2.500 I-0.887 J-0.323 F30000.000
G2 X261.072 Y71.825 Z2.500 I-0.323 J0.887 F30000.000
G1 X261.072 Y71.825 Z2.000 F24000.000
G2 X261.677 Y72.887 Z2.000 I0.928 J0.175 F30000.000
G2 X262.887 Y72.323 Z2.000 I0.323 J-0.887 F30000.000
G2 X262.323 Y71.113 Z2.000 I-0.887 J-0.323 F30000.000
G2 X261.072 Y71.825 Z2.000 I-0.323 J0.887 F30000.000
G1 X261.072 Y71.825 Z1.500 F24000.000
G2 X261.677 Y72.887 Z1.500 I0.928 J0.175 F30000.000
G2 X262.887 Y72.323 Z1.500 I0.323 J-0.887 F30000.000
G2 X262.323 Y71.113 Z1.500 I-0.887 J-0.323 F30000.000
G2 X261.072 Y71.825 Z1.500 I-0.323 J0.887 F30000.000
G1 X261.072 Y71.825 Z1.000 F24000.000
G2 X261.677 Y72.887 Z1.000 I0.928 J0.175 F30000.000
G2 X262.887 Y72.323 Z1.000 I0.323 J-0.887 F30000.000
G2 X262.323 Y71.113 Z1.000 I-0.887 J-0.323 F30000.000
G2 X261.072 Y71.825 Z1.000 I-0.323 J0.887 F30000.000
G1 X261.072 Y71.825 Z0.500 F24000.000
G2 X261.677 Y72.887 Z0.500 I0.928 J0.175 F30000.000
G2 X262.887 Y72.323 Z0.500 I0.323 J-0.887 F30000.000
G2 X262.323 Y71.113 Z0.500 I-0.887 J-0.323 F30000.000
G2 X261.072 Y71.825 Z0.500 I-0.323 J0.887 F30000.000
G1 X261.072 Y71.825 Z0.000 F24000.000
G2 X261.677 Y72.887 Z0.000 I0.928 J0.175 F30000.000
G2 X262.887 Y72.323 Z0.000 I0.323 J-0.887 F30000.000
G2 X262.323 Y71.113 Z0.000 I-0.887 J-0.323 F30000.000
G2 X261.072 Y71.825 Z0.000 I-0.323 J0.887 F30000.000
G1 X261.072 Y71.825 Z-0.250 F24000.000
G2 X261.677 Y72.887 Z-0.250 I0.928 J0.175 F30000.000
G2 X262.887 Y72.323 Z-0.250 I0.323 J-0.887 F30000.000
G2 X262.323 Y71.113 Z-0.250 I-0.887 J-0.323 F30000.000
G2 X261.072 Y71.825 Z-0.250 I-0.323 J0.887 F30000.000
G0 Z20.000
G0 Z20.000
G0 X261.072 Y71.825
G0 X261.982 Y22.944
G0 X261.982 Y22.944 Z18.000
G1 X261.982 Y22.944 Z12.500 F24000.000
G2 X262.323 Y21.113 Z12.500 I0.018 J-0.944 F30000.000
G2 X261.677 Y22.887 Z12.500 I-0.323 J0.887 F30000.000
G2 X261.982 Y22.944 Z12.500 I0.323 J-0.887 F30000.000
G1 X261.982 Y22.944 Z12.000 F24000.000
G2 X262.323 Y21.113 Z12.000 I0.018 J-0.944 F30000.000
G2 X261.677 Y22.887 Z12.000 I-0.323 J0.887 F30000.000
G2 X261.982 Y22.944 Z12.000 I0.323 J-0.887 F30000.000
G1 X261.982 Y22.944 Z11.500 F24000.000
G2 X262.323 Y21.113 Z11.500 I0.018 J-0.944 F30000.000
G2 X261.677 Y22.887 Z11.500 I-0.323 J0.887 F30000.000
G2 X261.982 Y22.944 Z11.500 I0.323 J-0.887 F30000.000
G1 X261.982 Y22.944 Z11.000 F24000.000
G2 X262.323 Y21.113 Z11.000 I0.018 J-0.944 F30000.000
G2 X261.677 Y22.887 Z11.000 I-0.323 J0.887 F30000.000
G2 X261.982 Y22.944 Z11.000 I0.323 J-0.887 F30000.000
G1 X261.982 Y22.944 Z10.500 F24000.000
G2 X262.323 Y21.113 Z10.500 I0.018 J-0.944 F30000.000
G2 X261.677 Y22.887 Z10.500 I-0.323 J0.887 F30000.000
G2 X261.982 Y22.944 Z10.500 I0.323 J-0.887 F30000.000
G1 X261.982 Y22.944 Z10.000 F24000.000
G2 X262.323 Y21.113 Z10.000 I0.018 J-0.944 F30000.000
G2 X261.677 Y22.887 Z10.000 I-0.323 J0.887 F30000.000
G2 X261.982 Y22.944 Z10.000 I0.323 J-0.887 F30000.000
G1 X261.982 Y22.944 Z9.500 F24000.000
G2 X262.323 Y21.113 Z9.500 I0.018 J-0.944 F30000.000
G2 X261.677 Y22.887 Z9.500 I-0.323 J0.887 F30000.000
G2 X261.982 Y22.944 Z9.500 I0.323 J-0.887 F30000.000
G1 X261.982 Y22.944 Z9.000 F24000.000
G2 X262.323 Y21.113 Z9.000 I0.018 J-0.944 F30000.000
G2 X261.677 Y22.887 Z9.000 I-0.323 J0.887 F30000.000
G2 X261.982 Y22.944 Z9.000 I0.323 J-0.887 F30000.000
G1 X261.982 Y22.944 Z8.500 F24000.000
G2 X262.323 Y21.113 Z8.500 I0.018 J-0.944 F30000.000
G2 X261.677 Y22.887 Z8.500 I-0.323 J0.887 F30000.000
G2 X261.982 Y22.944 Z8.500 I0.323 J-0.887 F30000.000
G1 X261.982 Y22.944 Z8.000 F24000.000
G2 X262.323 Y21.113 Z8.000 I0.018 J-0.944 F30000.000
G2 X261.677 Y22.887 Z8.000 I-0.323 J0.887 F30000.000
G2 X261.982 Y22.944 Z8.000 I0.323 J-0.887 F30000.000
G1 X261.982 Y22.944 Z7.500 F24000.000
G2 X262.323 Y21.113 Z7.500 I0.018 J-0.944 F30000.000
G2 X261.677 Y22.887 Z7.500 I-0.323 J0.887 F30000.000
G2 X261.982 Y22.944 Z7.500 I0.323 J-0.887 F30000.000
G1 X261.982 Y22.944 Z7.000 F24000.000
G2 X262.323 Y21.113 Z7.000 I0.018 J-0.944 F30000.000
G2 X261.677 Y22.887 Z7.000 I-0.323 J0.887 F30000.000
G2 X261.982 Y22.944 Z7.000 I0.323 J-0.887 F30000.000
G1 X261.982 Y22.944 Z6.500 F24000.000
G2 X262.323 Y21.113 Z6.500 I0.018 J-0.944 F30000.000
G2 X261.677 Y22.887 Z6.500 I-0.323 J0.887 F30000.000
G2 X261.982 Y22.944 Z6.500 I0.323 J-0.887 F30000.000
G1 X261.982 Y22.944 Z6.000 F24000.000
G2 X262.323 Y21.113 Z6.000 I0.018 J-0.944 F30000.000
G2 X261.677 Y22.887 Z6.000 I-0.323 J0.887 F30000.000
G2 X261.982 Y22.944 Z6.000 I0.323 J-0.887 F30000.000
G1 X261.982 Y22.944 Z5.500 F24000.000
G2 X262.323 Y21.113 Z5.500 I0.018 J-0.944 F30000.000
G2 X261.677 Y22.887 Z5.500 I-0.323 J0.887 F30000.000
G2 X261.982 Y22.944 Z5.500 I0.323 J-0.887 F30000.000
G1 X261.982 Y22.944 Z5.000 F24000.000
G2 X262.323 Y21.113 Z5.000 I0.018 J-0.944 F30000.000
G2 X261.677 Y22.887 Z5.000 I-0.323 J0.887 F30000.000
G2 X261.982 Y22.944 Z5.000 I0.323 J-0.887 F30000.000
G1 X261.982 Y22.944 Z4.500 F24000.000
G2 X262.323 Y21.113 Z4.500 I0.018 J-0.944 F30000.000
G2 X261.677 Y22.887 Z4.500 I-0.323 J0.887 F30000.000
G2 X261.982 Y22.944 Z4.500 I0.323 J-0.887 F30000.000
G1 X261.982 Y22.944 Z4.000 F24000.000
G2 X262.323 Y21.113 Z4.000 I0.018 J-0.944 F30000.000
G2 X261.677 Y22.887 Z4.000 I-0.323 J0.887 F30000.000
G2 X261.982 Y22.944 Z4.000 I0.323 J-0.887 F30000.000
G1 X261.982 Y22.944 Z3.500 F24000.000
G2 X262.323 Y21.113 Z3.500 I0.018 J-0.944 F30000.000
G2 X261.677 Y22.887 Z3.500 I-0.323 J0.887 F30000.000
G2 X261.982 Y22.944 Z3.500 I0.323 J-0.887 F30000.000
G1 X261.982 Y22.944 Z3.000 F24000.000
G2 X262.323 Y21.113 Z3.000 I0.018 J-0.944 F30000.000
G2 X261.677 Y22.887 Z3.000 I-0.323 J0.887 F30000.000
G2 X261.982 Y22.944 Z3.000 I0.323 J-0.887 F30000.000
G1 X261.982 Y22.944 Z2.500 F24000.000
G2 X262.323 Y21.113 Z2.500 I0.018 J-0.944 F30000.000
G2 X261.677 Y22.887 Z2.500 I-0.323 J0.887 F30000.000
G2 X261.982 Y22.944 Z2.500 I0.323 J-0.887 F30000.000
G1 X261.982 Y22.944 Z2.000 F24000.000
G2 X262.323 Y21.113 Z2.000 I0.018 J-0.944 F30000.000
G2 X261.677 Y22.887 Z2.000 I-0.323 J0.887 F30000.000
G2 X261.982 Y22.944 Z2.000 I0.323 J-0.887 F30000.000
G1 X261.982 Y22.944 Z1.500 F24000.000
G2 X262.323 Y21.113 Z1.500 I0.018 J-0.944 F30000.000
G2 X261.677 Y22.887 Z1.500 I-0.323 J0.887 F30000.000
G2 X261.982 Y22.944 Z1.500 I0.323 J-0.887 F30000.000
G1 X261.982 Y22.944 Z1.000 F24000.000
G2 X262.323 Y21.113 Z1.000 I0.018 J-0.944 F30000.000
G2 X261.677 Y22.887 Z1.000 I-0.323 J0.887 F30000.000
G2 X261.982 Y22.944 Z1.000 I0.323 J-0.887 F30000.000
G1 X261.982 Y22.944 Z0.500 F24000.000
G2 X262.323 Y21.113 Z0.500 I0.018 J-0.944 F30000.000
G2 X261.677 Y22.887 Z0.500 I-0.323 J0.887 F30000.000
G2 X261.982 Y22.944 Z0.500 I0.323 J-0.887 F30000.000
G1 X261.982 Y22.944 Z0.000 F24000.000
G2 X262.323 Y21.113 Z0.000 I0.018 J-0.944 F30000.000
G2 X261.677 Y22.887 Z0.000 I-0.323 J0.887 F30000.000
G2 X261.982 Y22.944 Z0.000 I0.323 J-0.887 F30000.000
G1 X261.982 Y22.944 Z-0.250 F24000.000
G2 X262.323 Y21.113 Z-0.250 I0.018 J-0.944 F30000.000
G2 X261.677 Y22.887 Z-0.250 I-0.323 J0.887 F30000.000
G2 X261.982 Y22.944 Z-0.250 I0.323 J-0.887 F30000.000
G0 Z20.000
G0 Z20.000
(finish operation: Holes)
(begin operation: DressupTag)
(machine: not set, mm/min)
G0 Z20.000
G0 X219.096 Y127.096 Z20.000
G0 X219.096 Y127.096 Z18.000
G1 X219.096 Y127.096 Z12.500 F24000.000
G1 X165.096 Y181.096 Z12.500 F30000.000
G3 X164.000 Y181.550 Z12.500 I-1.096 J-1.096 F30000.000
G1 X0.000 Y181.550 Z12.500 F30000.000
G3 X-1.550 Y180.000 Z12.500 I-0.000 J-1.550 F30000.000
G1 X-1.550 Y0.000 Z12.500 F30000.000
G3 X0.000 Y-1.550 Z12.500 I1.550 J-0.000 F30000.000
G1 X112.000 Y-1.550 Z12.500 F30000.000
G3 X113.550 Y0.000 Z12.500 I0.000 J1.550 F30000.000
G1 X113.550 Y10.450 Z12.500 F30000.000
G1 X272.000 Y10.450 Z12.500 F30000.000
G3 X273.550 Y12.000 Z12.500 I0.000 J1.550 F30000.000
G1 X273.550 Y72.000 Z12.500 F30000.000
G3 X273.096 Y73.096 Z12.500 I-1.550 J-0.000 F30000.000
G1 X219.096 Y127.096 Z12.500 F30000.000
G1 X219.096 Y127.096 Z12.000 F24000.000
G1 X165.096 Y181.096 Z12.000 F30000.000
G3 X164.000 Y181.550 Z12.000 I-1.096 J-1.096 F30000.000
G1 X0.000 Y181.550 Z12.000 F30000.000
G3 X-1.550 Y180.000 Z12.000 I-0.000 J-1.550 F30000.000
G1 X-1.550 Y0.000 Z12.000 F30000.000
G3 X0.000 Y-1.550 Z12.000 I1.550 J-0.000 F30000.000
G1 X112.000 Y-1.550 Z12.000 F30000.000
G3 X113.550 Y0.000 Z12.000 I0.000 J1.550 F30000.000
G1 X113.550 Y10.450 Z12.000 F30000.000
G1 X272.000 Y10.450 Z12.000 F30000.000
G3 X273.550 Y12.000 Z12.000 I0.000 J1.550 F30000.000
G1 X273.550 Y72.000 Z12.000 F30000.000
G3 X273.096 Y73.096 Z12.000 I-1.550 J-0.000 F30000.000
G1 X219.096 Y127.096 Z12.000 F30000.000
G1 X219.096 Y127.096 Z11.500 F24000.000
G1 X165.096 Y181.096 Z11.500 F30000.000
G3 X164.000 Y181.550 Z11.500 I-1.096 J-1.096 F30000.000
G1 X0.000 Y181.550 Z11.500 F30000.000
G3 X-1.550 Y180.000 Z11.500 I-0.000 J-1.550 F30000.000
G1 X-1.550 Y0.000 Z11.500 F30000.000
G3 X0.000 Y-1.550 Z11.500 I1.550 J-0.000 F30000.000
G1 X112.000 Y-1.550 Z11.500 F30000.000
G3 X113.550 Y0.000 Z11.500 I0.000 J1.550 F30000.000
G1 X113.550 Y10.450 Z11.500 F30000.000
G1 X272.000 Y10.450 Z11.500 F30000.000
G3 X273.550 Y12.000 Z11.500 I0.000 J1.550 F30000.000
G1 X273.550 Y72.000 Z11.500 F30000.000
G3 X273.096 Y73.096 Z11.500 I-1.550 J-0.000 F30000.000
G1 X219.096 Y127.096 Z11.500 F30000.000
G1 X219.096 Y127.096 Z11.000 F24000.000
G1 X165.096 Y181.096 Z11.000 F30000.000
G3 X164.000 Y181.550 Z11.000 I-1.096 J-1.096 F30000.000
G1 X0.000 Y181.550 Z11.000 F30000.000
G3 X-1.550 Y180.000 Z11.000 I-0.000 J-1.550 F30000.000
G1 X-1.550 Y0.000 Z11.000 F30000.000
G3 X0.000 Y-1.550 Z11.000 I1.550 J-0.000 F30000.000
G1 X112.000 Y-1.550 Z11.000 F30000.000
G3 X113.550 Y0.000 Z11.000 I0.000 J1.550 F30000.000
G1 X113.550 Y10.450 Z11.000 F30000.000
G1 X272.000 Y10.450 Z11.000 F30000.000
G3 X273.550 Y12.000 Z11.000 I0.000 J1.550 F30000.000
G1 X273.550 Y72.000 Z11.000 F30000.000
G3 X273.096 Y73.096 Z11.000 I-1.550 J-0.000 F30000.000
G1 X219.096 Y127.096 Z11.000 F30000.000
G1 X219.096 Y127.096 Z10.500 F24000.000
G1 X165.096 Y181.096 Z10.500 F30000.000
G3 X164.000 Y181.550 Z10.500 I-1.096 J-1.096 F30000.000
G1 X0.000 Y181.550 Z10.500 F30000.000
G3 X-1.550 Y180.000 Z10.500 I-0.000 J-1.550 F30000.000
G1 X-1.550 Y0.000 Z10.500 F30000.000
G3 X0.000 Y-1.550 Z10.500 I1.550 J-0.000 F30000.000
G1 X112.000 Y-1.550 Z10.500 F30000.000
G3 X113.550 Y0.000 Z10.500 I0.000 J1.550 F30000.000
G1 X113.550 Y10.450 Z10.500 F30000.000
G1 X272.000 Y10.450 Z10.500 F30000.000
G3 X273.550 Y12.000 Z10.500 I0.000 J1.550 F30000.000
G1 X273.550 Y72.000 Z10.500 F30000.000
G3 X273.096 Y73.096 Z10.500 I-1.550 J-0.000 F30000.000
G1 X219.096 Y127.096 Z10.500 F30000.000
G1 X219.096 Y127.096 Z10.000 F24000.000
G1 X165.096 Y181.096 Z10.000 F30000.000
G3 X164.000 Y181.550 Z10.000 I-1.096 J-1.096 F30000.000
G1 X0.000 Y181.550 Z10.000 F30000.000
G3 X-1.550 Y180.000 Z10.000 I-0.000 J-1.550 F30000.000
G1 X-1.550 Y0.000 Z10.000 F30000.000
G3 X0.000 Y-1.550 Z10.000 I1.550 J-0.000 F30000.000
G1 X112.000 Y-1.550 Z10.000 F30000.000
G3 X113.550 Y0.000 Z10.000 I0.000 J1.550 F30000.000
G1 X113.550 Y10.450 Z10.000 F30000.000
G1 X272.000 Y10.450 Z10.000 F30000.000
G3 X273.550 Y12.000 Z10.000 I0.000 J1.550 F30000.000
G1 X273.550 Y72.000 Z10.000 F30000.000
G3 X273.096 Y73.096 Z10.000 I-1.550 J-0.000 F30000.000
G1 X219.096 Y127.096 Z10.000 F30000.000
G1 X219.096 Y127.096 Z9.500 F24000.000
G1 X165.096 Y181.096 Z9.500 F30000.000
G3 X164.000 Y181.550 Z9.500 I-1.096 J-1.096 F30000.000
G1 X0.000 Y181.550 Z9.500 F30000.000
G3 X-1.550 Y180.000 Z9.500 I-0.000 J-1.550 F30000.000
G1 X-1.550 Y0.000 Z9.500 F30000.000
G3 X0.000 Y-1.550 Z9.500 I1.550 J-0.000 F30000.000
G1 X112.000 Y-1.550 Z9.500 F30000.000
G3 X113.550 Y0.000 Z9.500 I0.000 J1.550 F30000.000
G1 X113.550 Y10.450 Z9.500 F30000.000
G1 X272.000 Y10.450 Z9.500 F30000.000
G3 X273.550 Y12.000 Z9.500 I0.000 J1.550 F30000.000
G1 X273.550 Y72.000 Z9.500 F30000.000
G3 X273.096 Y73.096 Z9.500 I-1.550 J-0.000 F30000.000
G1 X219.096 Y127.096 Z9.500 F30000.000
G1 X219.096 Y127.096 Z9.000 F24000.000
G1 X165.096 Y181.096 Z9.000 F30000.000
G3 X164.000 Y181.550 Z9.000 I-1.096 J-1.096 F30000.000
G1 X0.000 Y181.550 Z9.000 F30000.000
G3 X-1.550 Y180.000 Z9.000 I-0.000 J-1.550 F30000.000
G1 X-1.550 Y0.000 Z9.000 F30000.000
G3 X0.000 Y-1.550 Z9.000 I1.550 J-0.000 F30000.000
G1 X112.000 Y-1.550 Z9.000 F30000.000
G3 X113.550 Y0.000 Z9.000 I0.000 J1.550 F30000.000
G1 X113.550 Y10.450 Z9.000 F30000.000
G1 X272.000 Y10.450 Z9.000 F30000.000
G3 X273.550 Y12.000 Z9.000 I0.000 J1.550 F30000.000
G1 X273.550 Y72.000 Z9.000 F30000.000
G3 X273.096 Y73.096 Z9.000 I-1.550 J-0.000 F30000.000
G1 X219.096 Y127.096 Z9.000 F30000.000
G1 X219.096 Y127.096 Z8.500 F24000.000
G1 X165.096 Y181.096 Z8.500 F30000.000
G3 X164.000 Y181.550 Z8.500 I-1.096 J-1.096 F30000.000
G1 X0.000 Y181.550 Z8.500 F30000.000
G3 X-1.550 Y180.000 Z8.500 I-0.000 J-1.550 F30000.000
G1 X-1.550 Y0.000 Z8.500 F30000.000
G3 X0.000 Y-1.550 Z8.500 I1.550 J-0.000 F30000.000
G1 X112.000 Y-1.550 Z8.500 F30000.000
G3 X113.550 Y0.000 Z8.500 I0.000 J1.550 F30000.000
G1 X113.550 Y10.450 Z8.500 F30000.000
G1 X272.000 Y10.450 Z8.500 F30000.000
G3 X273.550 Y12.000 Z8.500 I0.000 J1.550 F30000.000
G1 X273.550 Y72.000 Z8.500 F30000.000
G3 X273.096 Y73.096 Z8.500 I-1.550 J-0.000 F30000.000
G1 X219.096 Y127.096 Z8.500 F30000.000
G1 X219.096 Y127.096 Z8.000 F24000.000
G1 X165.096 Y181.096 Z8.000 F30000.000
G3 X164.000 Y181.550 Z8.000 I-1.096 J-1.096 F30000.000
G1 X0.000 Y181.550 Z8.000 F30000.000
G3 X-1.550 Y180.000 Z8.000 I-0.000 J-1.550 F30000.000
G1 X-1.550 Y0.000 Z8.000 F30000.000
G3 X0.000 Y-1.550 Z8.000 I1.550 J-0.000 F30000.000
G1 X112.000 Y-1.550 Z8.000 F30000.000
G3 X113.550 Y0.000 Z8.000 I0.000 J1.550 F30000.000
G1 X113.550 Y10.450 Z8.000 F30000.000
G1 X272.000 Y10.450 Z8.000 F30000.000
G3 X273.550 Y12.000 Z8.000 I0.000 J1.550 F30000.000
G1 X273.550 Y72.000 Z8.000 F30000.000
G3 X273.096 Y73.096 Z8.000 I-1.550 J-0.000 F30000.000
G1 X219.096 Y127.096 Z8.000 F30000.000
G1 X219.096 Y127.096 Z7.500 F24000.000
G1 X165.096 Y181.096 Z7.500 F30000.000
G3 X164.000 Y181.550 Z7.500 I-1.096 J-1.096 F30000.000
G1 X0.000 Y181.550 Z7.500 F30000.000
G3 X-1.550 Y180.000 Z7.500 I-0.000 J-1.550 F30000.000
G1 X-1.550 Y0.000 Z7.500 F30000.000
G3 X0.000 Y-1.550 Z7.500 I1.550 J-0.000 F30000.000
G1 X112.000 Y-1.550 Z7.500 F30000.000
G3 X113.550 Y0.000 Z7.500 I0.000 J1.550 F30000.000
G1 X113.550 Y10.450 Z7.500 F30000.000
G1 X272.000 Y10.450 Z7.500 F30000.000
G3 X273.550 Y12.000 Z7.500 I0.000 J1.550 F30000.000
G1 X273.550 Y72.000 Z7.500 F30000.000
G3 X273.096 Y73.096 Z7.500 I-1.550 J-0.000 F30000.000
G1 X219.096 Y127.096 Z7.500 F30000.000
G1 X219.096 Y127.096 Z7.000 F24000.000
G1 X165.096 Y181.096 Z7.000 F30000.000
G3 X164.000 Y181.550 Z7.000 I-1.096 J-1.096 F30000.000
G1 X0.000 Y181.550 Z7.000 F30000.000
G3 X-1.550 Y180.000 Z7.000 I-0.000 J-1.550 F30000.000
G1 X-1.550 Y0.000 Z7.000 F30000.000
G3 X0.000 Y-1.550 Z7.000 I1.550 J-0.000 F30000.000
G1 X112.000 Y-1.550 Z7.000 F30000.000
G3 X113.550 Y0.000 Z7.000 I0.000 J1.550 F30000.000
G1 X113.550 Y10.450 Z7.000 F30000.000
G1 X272.000 Y10.450 Z7.000 F30000.000
G3 X273.550 Y12.000 Z7.000 I0.000 J1.550 F30000.000
G1 X273.550 Y72.000 Z7.000 F30000.000
G3 X273.096 Y73.096 Z7.000 I-1.550 J-0.000 F30000.000
G1 X219.096 Y127.096 Z7.000 F30000.000
G1 X219.096 Y127.096 Z6.500 F24000.000
G1 X165.096 Y181.096 Z6.500 F30000.000
G3 X164.000 Y181.550 Z6.500 I-1.096 J-1.096 F30000.000
G1 X0.000 Y181.550 Z6.500 F30000.000
G3 X-1.550 Y180.000 Z6.500 I-0.000 J-1.550 F30000.000
G1 X-1.550 Y0.000 Z6.500 F30000.000
G3 X0.000 Y-1.550 Z6.500 I1.550 J-0.000 F30000.000
G1 X112.000 Y-1.550 Z6.500 F30000.000
G3 X113.550 Y0.000 Z6.500 I0.000 J1.550 F30000.000
G1 X113.550 Y10.450 Z6.500 F30000.000
G1 X272.000 Y10.450 Z6.500 F30000.000
G3 X273.550 Y12.000 Z6.500 I0.000 J1.550 F30000.000
G1 X273.550 Y72.000 Z6.500 F30000.000
G3 X273.096 Y73.096 Z6.500 I-1.550 J-0.000 F30000.000
G1 X219.096 Y127.096 Z6.500 F30000.000
G1 X219.096 Y127.096 Z6.000 F24000.000
G1 X165.096 Y181.096 Z6.000 F30000.000
G3 X164.000 Y181.550 Z6.000 I-1.096 J-1.096 F30000.000
G1 X86.234 Y181.550 Z6.000 F30000.000
G1 X85.854 Y181.550 Z6.380 F27000.000
G1 X78.146 Y181.550 Z6.380 F30000.000
G1 X77.766 Y181.550 Z6.000 F27000.000
G1 X0.000 Y181.550 Z6.000 F30000.000
G3 X-1.550 Y180.000 Z6.000 I-0.000 J-1.550 F30000.000
G1 X-1.550 Y94.234 Z6.000 F30000.000
G1 X-1.550 Y93.854 Z6.380 F27000.000
G1 X-1.550 Y86.146 Z6.380 F30000.000
G1 X-1.550 Y85.766 Z6.000 F27000.000
G1 X-1.550 Y0.000 Z6.000 F30000.000
G3 X0.000 Y-1.550 Z6.000 I1.550 J-0.000 F30000.000
G1 X112.000 Y-1.550 Z6.000 F30000.000
G3 X113.550 Y0.000 Z6.000 I0.000 J1.550 F30000.000
G1 X113.550 Y10.450 Z6.000 F30000.000
G1 X188.541 Y10.450 Z6.000 F30000.000
G1 X188.921 Y10.450 Z6.380 F27000.000
G1 X196.629 Y10.450 Z6.380 F30000.000
G1 X197.009 Y10.450 Z6.000 F27000.000
G1 X272.000 Y10.450 Z6.000 F30000.000
G3 X273.550 Y12.000 Z6.000 I0.000 J1.550 F30000.000
G1 X273.550 Y37.766 Z6.000 F30000.000
G1 X273.550 Y38.146 Z6.380 F27000.000
G1 X273.550 Y45.854 Z6.380 F30000.000
G1 X273.550 Y46.234 Z6.000 F27000.000
G1 X273.550 Y72.000 Z6.000 F30000.000
G3 X273.096 Y73.096 Z6.000 I-1.550 J-0.000 F30000.000
G1 X219.096 Y127.096 Z6.000 F30000.000
G1 X219.096 Y127.096 Z5.500 F24000.000
G1 X165.096 Y181.096 Z5.500 F30000.000
G3 X164.000 Y181.550 Z5.500 I-1.096 J-1.096 F30000.000
G1 X86.734 Y181.550 Z5.500 F30000.000
G1 X85.854 Y181.550 Z6.380 F27000.000
G1 X78.146 Y181.550 Z6.380 F30000.000
G1 X77.266 Y181.550 Z5.500 F27000.000
G1 X0.000 Y181.550 Z5.500 F30000.000
G3 X-1.550 Y180.000 Z5.500 I-0.000 J-1.550 F30000.000
G1 X-1.550 Y94.734 Z5.500 F30000.000
G1 X-1.550 Y93.854 Z6.380 F27000.000
G1 X-1.550 Y86.146 Z6.380 F30000.000
G1 X-1.550 Y85.266 Z5.500 F27000.000
G1 X-1.550 Y0.000 Z5.500 F30000.000
G3 X0.000 Y-1.550 Z5.500 I1.550 J-0.000 F30000.000
G1 X112.000 Y-1.550 Z5.500 F30000.000
G3 X113.550 Y0.000 Z5.500 I0.000 J1.550 F30000.000
G1 X113.550 Y10.450 Z5.500 F30000.000
G1 X188.041 Y10.450 Z5.500 F30000.000
G1 X188.921 Y10.450 Z6.380 F27000.000
G1 X196.629 Y10.450 Z6.380 F30000.000
G1 X197.509 Y10.450 Z5.500 F27000.000
G1 X272.000 Y10.450 Z5.500 F30000.000
G3 X273.550 Y12.000 Z5.500 I0.000 J1.550 F30000.000
G1 X273.550 Y37.266 Z5.500 F30000.000
G1 X273.550 Y38.146 Z6.380 F27000.000
G1 X273.550 Y45.854 Z6.380 F30000.000
G1 X273.550 Y46.734 Z5.500 F27000.000
G1 X273.550 Y72.000 Z5.500 F30000.000
G3 X273.096 Y73.096 Z5.500 I-1.550 J-0.000 F30000.000
G1 X219.096 Y127.096 Z5.500 F30000.000
G1 X219.096 Y127.096 Z5.000 F24000.000
G1 X165.096 Y181.096 Z5.000 F30000.000
G3 X164.000 Y181.550 Z5.000 I-1.096 J-1.096 F30000.000
G1 X87.234 Y181.550 Z5.000 F30000.000
G1 X85.854 Y181.550 Z6.380 F27000.000
G1 X78.146 Y181.550 Z6.380 F30000.000
G1 X76.766 Y181.550 Z5.000 F27000.000
G1 X0.000 Y181.550 Z5.000 F30000.000
G3 X-1.550 Y180.000 Z5.000 I-0.000 J-1.550 F30000.000
G1 X-1.550 Y95.234 Z5.000 F30000.000
G1 X-1.550 Y93.854 Z6.380 F27000.000
G1 X-1.550 Y86.146 Z6.380 F30000.000
G1 X-1.550 Y84.766 Z5.000 F27000.000
G1 X-1.550 Y0.000 Z5.000 F30000.000
G3 X0.000 Y-1.550 Z5.000 I1.550 J-0.000 F30000.000
G1 X112.000 Y-1.550 Z5.000 F30000.000
G3 X113.550 Y0.000 Z5.000 I0.000 J1.550 F30000.000
G1 X113.550 Y10.450 Z5.000 F30000.000
G1 X187.541 Y10.450 Z5.000 F30000.000
G1 X188.921 Y10.450 Z6.380 F27000.000
G1 X196.629 Y10.450 Z6.380 F30000.000
G1 X198.009 Y10.450 Z5.000 F27000.000
G1 X272.000 Y10.450 Z5.000 F30000.000
G3 X273.550 Y12.000 Z5.000 I0.000 J1.550 F30000.000
G1 X273.550 Y36.766 Z5.000 F30000.000
G1 X273.550 Y38.146 Z6.380 F27000.000
G1 X273.550 Y45.854 Z6.380 F30000.000
G1 X273.550 Y47.234 Z5.000 F27000.000
G1 X273.550 Y72.000 Z5.000 F30000.000
G3 X273.096 Y73.096 Z5.000 I-1.550 J-0.000 F30000.000
G1 X219.096 Y127.096 Z5.000 F30000.000
G1 X219.096 Y127.096 Z4.500 F24000.000
G1 X165.096 Y181.096 Z4.500 F30000.000
G3 X164.000 Y181.550 Z4.500 I-1.096 J-1.096 F30000.000
G1 X87.734 Y181.550 Z4.500 F30000.000
G1 X85.854 Y181.550 Z6.380 F27000.000
G1 X78.146 Y181.550 Z6.380 F30000.000
G1 X76.266 Y181.550 Z4.500 F27000.000
G1 X0.000 Y181.550 Z4.500 F30000.000
G3 X-1.550 Y180.000 Z4.500 I-0.000 J-1.550 F30000.000
G1 X-1.550 Y95.734 Z4.500 F30000.000
G1 X-1.550 Y93.854 Z6.380 F27000.000
G1 X-1.550 Y86.146 Z6.380 F30000.000
G1 X-1.550 Y84.266 Z4.500 F27000.000
G1 X-1.550 Y0.000 Z4.500 F30000.000
G3 X0.000 Y-1.550 Z4.500 I1.550 J-0.000 F30000.000
G1 X112.000 Y-1.550 Z4.500 F30000.000
G3 X113.550 Y0.000 Z4.500 I0.000 J1.550 F30000.000
G1 X113.550 Y10.450 Z4.500 F30000.000
G1 X187.041 Y10.450 Z4.500 F30000.000
G1 X188.921 Y10.450 Z6.380 F27000.000
G1 X196.629 Y10.450 Z6.380 F30000.000
G1 X198.509 Y10.450 Z4.500 F27000.000
G1 X272.000 Y10.450 Z4.500 F30000.000
G3 X273.550 Y12.000 Z4.500 I0.000 J1.550 F30000.000
G1 X273.550 Y36.266 Z4.500 F30000.000
G1 X273.550 Y38.146 Z6.380 F27000.000
G1 X273.550 Y45.854 Z6.380 F30000.000
G1 X273.550 Y47.734 Z4.500 F27000.000
G1 X273.550 Y72.000 Z4.500 F30000.000
G3 X273.096 Y73.096 Z4.500 I-1.550 J-0.000 F30000.000
G1 X219.096 Y127.096 Z4.500 F30000.000
G1 X219.096 Y127.096 Z4.000 F24000.000
G1 X165.096 Y181.096 Z4.000 F30000.000
G3 X164.000 Y181.550 Z4.000 I-1.096 J-1.096 F30000.000
G1 X88.234 Y181.550 Z4.000 F30000.000
G1 X85.854 Y181.550 Z6.380 F27000.000
G1 X78.146 Y181.550 Z6.380 F30000.000
G1 X75.766 Y181.550 Z4.000 F27000.000
G1 X0.000 Y181.550 Z4.000 F30000.000
G3 X-1.550 Y180.000 Z4.000 I-0.000 J-1.550 F30000.000
G1 X-1.550 Y96.234 Z4.000 F30000.000
G1 X-1.550 Y93.854 Z6.380 F27000.000
G1 X-1.550 Y86.146 Z6.380 F30000.000
G1 X-1.550 Y83.766 Z4.000 F27000.000
G1 X-1.550 Y0.000 Z4.000 F30000.000
G3 X0.000 Y-1.550 Z4.000 I1.550 J-0.000 F30000.000
G1 X112.000 Y-1.550 Z4.000 F30000.000
G3 X113.550 Y0.000 Z4.000 I0.000 J1.550 F30000.000
G1 X113.550 Y10.450 Z4.000 F30000.000
G1 X186.541 Y10.450 Z4.000 F30000.000
G1 X188.921 Y10.450 Z6.380 F27000.000
G1 X196.629 Y10.450 Z6.380 F30000.000
G1 X199.009 Y10.450 Z4.000 F27000.000
G1 X272.000 Y10.450 Z4.000 F30000.000
G3 X273.550 Y12.000 Z4.000 I0.000 J1.550 F30000.000
G1 X273.550 Y35.766 Z4.000 F30000.000
G1 X273.550 Y38.146 Z6.380 F27000.000
G1 X273.550 Y45.854 Z6.380 F30000.000
G1 X273.550 Y48.234 Z4.000 F27000.000
G1 X273.550 Y72.000 Z4.000 F30000.000
G3 X273.096 Y73.096 Z4.000 I-1.550 J-0.000 F30000.000
G1 X219.096 Y127.096 Z4.000 F30000.000
G1 X219.096 Y127.096 Z3.500 F24000.000
G1 X165.096 Y181.096 Z3.500 F30000.000
G3 X164.000 Y181.550 Z3.500 I-1.096 J-1.096 F30000.000
G1 X88.734 Y181.550 Z3.500 F30000.000
G1 X85.854 Y181.550 Z6.380 F27000.000
G1 X78.146 Y181.550 Z6.380 F30000.000
G1 X75.266 Y181.550 Z3.500 F27000.000
G1 X0.000 Y181.550 Z3.500 F30000.000
G3 X-1.550 Y180.000 Z3.500 I-0.000 J-1.550 F30000.000
G1 X-1.550 Y96.734 Z3.500 F30000.000
G1 X-1.550 Y93.854 Z6.380 F27000.000
G1 X-1.550 Y86.146 Z6.380 F30000.000
G1 X-1.550 Y83.266 Z3.500 F27000.000
G1 X-1.550 Y0.000 Z3.500 F30000.000
G3 X0.000 Y-1.550 Z3.500 I1.550 J-0.000 F30000.000
G1 X112.000 Y-1.550 Z3.500 F30000.000
G3 X113.550 Y0.000 Z3.500 I0.000 J1.550 F30000.000
G1 X113.550 Y10.450 Z3.500 F30000.000
G1 X186.041 Y10.450 Z3.500 F30000.000
G1 X188.921 Y10.450 Z6.380 F27000.000
G1 X196.629 Y10.450 Z6.380 F30000.000
G1 X199.509 Y10.450 Z3.500 F27000.000
G1 X272.000 Y10.450 Z3.500 F30000.000
G3 X273.550 Y12.000 Z3.500 I0.000 J1.550 F30000.000
G1 X273.550 Y35.266 Z3.500 F30000.000
G1 X273.550 Y38.146 Z6.380 F27000.000
G1 X273.550 Y45.854 Z6.380 F30000.000
G1 X273.550 Y48.734 Z3.500 F27000.000
G1 X273.550 Y72.000 Z3.500 F30000.000
G3 X273.096 Y73.096 Z3.500 I-1.550 J-0.000 F30000.000
G1 X219.096 Y127.096 Z3.500 F30000.000
G1 X219.096 Y127.096 Z3.000 F24000.000
G1 X165.096 Y181.096 Z3.000 F30000.000
G3 X164.000 Y181.550 Z3.000 I-1.096 J-1.096 F30000.000
G1 X89.234 Y181.550 Z3.000 F30000.000
G1 X85.854 Y181.550 Z6.380 F27000.000
G1 X78.146 Y181.550 Z6.380 F30000.000
G1 X74.766 Y181.550 Z3.000 F27000.000
G1 X0.000 Y181.550 Z3.000 F30000.000
G3 X-1.550 Y180.000 Z3.000 I-0.000 J-1.550 F30000.000
G1 X-1.550 Y97.234 Z3.000 F30000.000
G1 X-1.550 Y93.854 Z6.380 F27000.000
G1 X-1.550 Y86.146 Z6.380 F30000.000
G1 X-1.550 Y82.766 Z3.000 F27000.000
G1 X-1.550 Y0.000 Z3.000 F30000.000
G3 X0.000 Y-1.550 Z3.000 I1.550 J-0.000 F30000.000
G1 X112.000 Y-1.550 Z3.000 F30000.000
G3 X113.550 Y0.000 Z3.000 I0.000 J1.550 F30000.000
G1 X113.550 Y10.450 Z3.000 F30000.000
G1 X185.541 Y10.450 Z3.000 F30000.000
G1 X188.921 Y10.450 Z6.380 F27000.000
G1 X196.629 Y10.450 Z6.380 F30000.000
G1 X200.009 Y10.450 Z3.000 F27000.000
G1 X272.000 Y10.450 Z3.000 F30000.000
G3 X273.550 Y12.000 Z3.000 I0.000 J1.550 F30000.000
G1 X273.550 Y34.766 Z3.000 F30000.000
G1 X273.550 Y38.146 Z6.380 F27000.000
G1 X273.550 Y45.854 Z6.380 F30000.000
G1 X273.550 Y49.234 Z3.000 F27000.000
G1 X273.550 Y72.000 Z3.000 F30000.000
G3 X273.096 Y73.096 Z3.000 I-1.550 J-0.000 F30000.000
G1 X219.096 Y127.096 Z3.000 F30000.000
G1 X219.096 Y127.096 Z2.500 F24000.000
G1 X165.096 Y181.096 Z2.500 F30000.000
G3 X164.000 Y181.550 Z2.500 I-1.096 J-1.096 F30000.000
G1 X89.734 Y181.550 Z2.500 F30000.000
G1 X85.854 Y181.550 Z6.380 F27000.000
G1 X78.146 Y181.550 Z6.380 F30000.000
G1 X74.266 Y181.550 Z2.500 F27000.000
G1 X0.000 Y181.550 Z2.500 F30000.000
G3 X-1.550 Y180.000 Z2.500 I-0.000 J-1.550 F30000.000
G1 X-1.550 Y97.734 Z2.500 F30000.000
G1 X-1.550 Y93.854 Z6.380 F27000.000
G1 X-1.550 Y86.146 Z6.380 F30000.000
G1 X-1.550 Y82.266 Z2.500 F27000.000
G1 X-1.550 Y0.000 Z2.500 F30000.000
G3 X0.000 Y-1.550 Z2.500 I1.550 J-0.000 F30000.000
G1 X112.000 Y-1.550 Z2.500 F30000.000
G3 X113.550 Y0.000 Z2.500 I0.000 J1.550 F30000.000
G1 X113.550 Y10.450 Z2.500 F30000.000
G1 X185.041 Y10.450 Z2.500 F30000.000
G1 X188.921 Y10.450 Z6.380 F27000.000
G1 X196.629 Y10.450 Z6.380 F30000.000
G1 X200.509 Y10.450 Z2.500 F27000.000
G1 X272.000 Y10.450 Z2.500 F30000.000
G3 X273.550 Y12.000 Z2.500 I0.000 J1.550 F30000.000
G1 X273.550 Y34.266 Z2.500 F30000.000
G1 X273.550 Y38.146 Z6.380 F27000.000
G1 X273.550 Y45.854 Z6.380 F30000.000
G1 X273.550 Y49.734 Z2.500 F27000.000
G1 X273.550 Y72.000 Z2.500 F30000.000
G3 X273.096 Y73.096 Z2.500 I-1.550 J-0.000 F30000.000
G1 X219.096 Y127.096 Z2.500 F30000.000
G1 X219.096 Y127.096 Z2.000 F24000.000
G1 X165.096 Y181.096 Z2.000 F30000.000
G3 X164.000 Y181.550 Z2.000 I-1.096 J-1.096 F30000.000
G1 X90.234 Y181.550 Z2.000 F30000.000
G1 X85.854 Y181.550 Z6.380 F27000.000
G1 X78.146 Y181.550 Z6.380 F30000.000
G1 X73.766 Y181.550 Z2.000 F27000.000
G1 X0.000 Y181.550 Z2.000 F30000.000
G3 X-1.550 Y180.000 Z2.000 I-0.000 J-1.550 F30000.000
G1 X-1.550 Y98.234 Z2.000 F30000.000
G1 X-1.550 Y93.854 Z6.380 F27000.000
G1 X-1.550 Y86.146 Z6.380 F30000.000
G1 X-1.550 Y81.766 Z2.000 F27000.000
G1 X-1.550 Y0.000 Z2.000 F30000.000
G3 X0.000 Y-1.550 Z2.000 I1.550 J-0.000 F30000.000
G1 X112.000 Y-1.550 Z2.000 F30000.000
G3 X113.550 Y0.000 Z2.000 I0.000 J1.550 F30000.000
G1 X113.550 Y10.450 Z2.000 F30000.000
G1 X184.541 Y10.450 Z2.000 F30000.000
G1 X188.921 Y10.450 Z6.380 F27000.000
G1 X196.629 Y10.450 Z6.380 F30000.000
G1 X201.009 Y10.450 Z2.000 F27000.000
G1 X272.000 Y10.450 Z2.000 F30000.000
G3 X273.550 Y12.000 Z2.000 I0.000 J1.550 F30000.000
G1 X273.550 Y33.766 Z2.000 F30000.000
G1 X273.550 Y38.146 Z6.380 F27000.000
G1 X273.550 Y45.854 Z6.380 F30000.000
G1 X273.550 Y50.234 Z2.000 F27000.000
G1 X273.550 Y72.000 Z2.000 F30000.000
G3 X273.096 Y73.096 Z2.000 I-1.550 J-0.000 F30000.000
G1 X219.096 Y127.096 Z2.000 F30000.000
G1 X219.096 Y127.096 Z1.500 F24000.000
G1 X165.096 Y181.096 Z1.500 F30000.000
G3 X164.000 Y181.550 Z1.500 I-1.096 J-1.096 F30000.000
G1 X90.734 Y181.550 Z1.500 F30000.000
G1 X85.854 Y181.550 Z6.380 F27000.000
G1 X78.146 Y181.550 Z6.380 F30000.000
G1 X73.266 Y181.550 Z1.500 F27000.000
G1 X0.000 Y181.550 Z1.500 F30000.000
G3 X-1.550 Y180.000 Z1.500 I-0.000 J-1.550 F30000.000
G1 X-1.550 Y98.734 Z1.500 F30000.000
G1 X-1.550 Y93.854 Z6.380 F27000.000
G1 X-1.550 Y86.146 Z6.380 F30000.000
G1 X-1.550 Y81.266 Z1.500 F27000.000
G1 X-1.550 Y0.000 Z1.500 F30000.000
G3 X0.000 Y-1.550 Z1.500 I1.550 J-0.000 F30000.000
G1 X112.000 Y-1.550 Z1.500 F30000.000
G3 X113.550 Y0.000 Z1.500 I0.000 J1.550 F30000.000
G1 X113.550 Y10.450 Z1.500 F30000.000
G1 X184.041 Y10.450 Z1.500 F30000.000
G1 X188.921 Y10.450 Z6.380 F27000.000
G1 X196.629 Y10.450 Z6.380 F30000.000
G1 X201.509 Y10.450 Z1.500 F27000.000
G1 X272.000 Y10.450 Z1.500 F30000.000
G3 X273.550 Y12.000 Z1.500 I0.000 J1.550 F30000.000
G1 X273.550 Y33.266 Z1.500 F30000.000
G1 X273.550 Y38.146 Z6.380 F27000.000
G1 X273.550 Y45.854 Z6.380 F30000.000
G1 X273.550 Y50.734 Z1.500 F27000.000
G1 X273.550 Y72.000 Z1.500 F30000.000
G3 X273.096 Y73.096 Z1.500 I-1.550 J-0.000 F30000.000
G1 X219.096 Y127.096 Z1.500 F30000.000
G1 X219.096 Y127.096 Z1.000 F24000.000
G1 X165.096 Y181.096 Z1.000 F30000.000
G3 X164.000 Y181.550 Z1.000 I-1.096 J-1.096 F30000.000
G1 X91.234 Y181.550 Z1.000 F30000.000
G1 X85.854 Y181.550 Z6.380 F27000.000
G1 X78.146 Y181.550 Z6.380 F30000.000
G1 X72.766 Y181.550 Z1.000 F27000.000
G1 X0.000 Y181.550 Z1.000 F30000.000
G3 X-1.550 Y180.000 Z1.000 I-0.000 J-1.550 F30000.000
G1 X-1.550 Y99.234 Z1.000 F30000.000
G1 X-1.550 Y93.854 Z6.380 F27000.000
G1 X-1.550 Y86.146 Z6.380 F30000.000
G1 X-1.550 Y80.766 Z1.000 F27000.000
G1 X-1.550 Y0.000 Z1.000 F30000.000
G3 X0.000 Y-1.550 Z1.000 I1.550 J-0.000 F30000.000
G1 X112.000 Y-1.550 Z1.000 F30000.000
G3 X113.550 Y0.000 Z1.000 I0.000 J1.550 F30000.000
G1 X113.550 Y10.450 Z1.000 F30000.000
G1 X183.541 Y10.450 Z1.000 F30000.000
G1 X188.921 Y10.450 Z6.380 F27000.000
G1 X196.629 Y10.450 Z6.380 F30000.000
G1 X202.009 Y10.450 Z1.000 F27000.000
G1 X272.000 Y10.450 Z1.000 F30000.000
G3 X273.550 Y12.000 Z1.000 I0.000 J1.550 F30000.000
G1 X273.550 Y32.766 Z1.000 F30000.000
G1 X273.550 Y38.146 Z6.380 F27000.000
G1 X273.550 Y45.854 Z6.380 F30000.000
G1 X273.550 Y51.234 Z1.000 F27000.000
G1 X273.550 Y72.000 Z1.000 F30000.000
G3 X273.096 Y73.096 Z1.000 I-1.550 J-0.000 F30000.000
G1 X219.096 Y127.096 Z1.000 F30000.000
G1 X219.096 Y127.096 Z0.500 F24000.000
G1 X165.096 Y181.096 Z0.500 F30000.000
G3 X164.000 Y181.550 Z0.500 I-1.096 J-1.096 F30000.000
G1 X91.734 Y181.550 Z0.500 F30000.000
G1 X85.854 Y181.550 Z6.380 F27000.000
G1 X78.146 Y181.550 Z6.380 F30000.000
G1 X72.266 Y181.550 Z0.500 F27000.000
G1 X0.000 Y181.550 Z0.500 F30000.000
G3 X-1.550 Y180.000 Z0.500 I-0.000 J-1.550 F30000.000
G1 X-1.550 Y99.734 Z0.500 F30000.000
G1 X-1.550 Y93.854 Z6.380 F27000.000
G1 X-1.550 Y86.146 Z6.380 F30000.000
G1 X-1.550 Y80.266 Z0.500 F27000.000
G1 X-1.550 Y0.000 Z0.500 F30000.000
G3 X0.000 Y-1.550 Z0.500 I1.550 J-0.000 F30000.000
G1 X112.000 Y-1.550 Z0.500 F30000.000
G3 X113.550 Y0.000 Z0.500 I0.000 J1.550 F30000.000
G1 X113.550 Y10.450 Z0.500 F30000.000
G1 X183.041 Y10.450 Z0.500 F30000.000
G1 X188.921 Y10.450 Z6.380 F27000.000
G1 X196.629 Y10.450 Z6.380 F30000.000
G1 X202.509 Y10.450 Z0.500 F27000.000
G1 X272.000 Y10.450 Z0.500 F30000.000
G3 X273.550 Y12.000 Z0.500 I0.000 J1.550 F30000.000
G1 X273.550 Y32.266 Z0.500 F30000.000
G1 X273.550 Y38.146 Z6.380 F27000.000
G1 X273.550 Y45.854 Z6.380 F30000.000
G1 X273.550 Y51.734 Z0.500 F27000.000
G1 X273.550 Y72.000 Z0.500 F30000.000
G3 X273.096 Y73.096 Z0.500 I-1.550 J-0.000 F30000.000
G1 X219.096 Y127.096 Z0.500 F30000.000
G1 X219.096 Y127.096 Z0.000 F24000.000
G1 X165.096 Y181.096 Z0.000 F30000.000
G3 X164.000 Y181.550 Z0.000 I-1.096 J-1.096 F30000.000
G1 X92.234 Y181.550 Z0.000 F30000.000
G1 X85.854 Y181.550 Z6.380 F27000.000
G1 X78.146 Y181.550 Z6.380 F30000.000
G1 X71.766 Y181.550 Z0.000 F27000.000
G1 X0.000 Y181.550 Z0.000 F30000.000
G3 X-1.550 Y180.000 Z0.000 I-0.000 J-1.550 F30000.000
G1 X-1.550 Y100.234 Z0.000 F30000.000
G1 X-1.550 Y93.854 Z6.380 F27000.000
G1 X-1.550 Y86.146 Z6.380 F30000.000
G1 X-1.550 Y79.766 Z0.000 F27000.000
G1 X-1.550 Y0.000 Z0.000 F30000.000
G3 X0.000 Y-1.550 Z0.000 I1.550 J-0.000 F30000.000
G1 X112.000 Y-1.550 Z0.000 F30000.000
G3 X113.550 Y0.000 Z0.000 I0.000 J1.550 F30000.000
G1 X113.550 Y10.450 Z0.000 F30000.000
G1 X182.541 Y10.450 Z0.000 F30000.000
G1 X188.921 Y10.450 Z6.380 F27000.000
G1 X196.629 Y10.450 Z6.380 F30000.000
G1 X203.009 Y10.450 Z0.000 F27000.000
G1 X272.000 Y10.450 Z0.000 F30000.000
G3 X273.550 Y12.000 Z0.000 I0.000 J1.550 F30000.000
G1 X273.550 Y31.766 Z0.000 F30000.000
G1 X273.550 Y38.146 Z6.380 F27000.000
G1 X273.550 Y45.854 Z6.380 F30000.000
G1 X273.550 Y52.234 Z0.000 F27000.000
G1 X273.550 Y72.000 Z0.000 F30000.000
G3 X273.096 Y73.096 Z0.000 I-1.550 J-0.000 F30000.000
G1 X219.096 Y127.096 Z0.000 F30000.000
G1 X219.096 Y127.096 Z-0.250 F24000.000
G1 X165.096 Y181.096 Z-0.250 F30000.000
G3 X164.000 Y181.550 Z-0.250 I-1.096 J-1.096 F30000.000
G1 X92.484 Y181.550 Z-0.250 F30000.000
G1 X85.854 Y181.550 Z6.380 F27000.000
G1 X78.146 Y181.550 Z6.380 F30000.000
G1 X71.516 Y181.550 Z-0.250 F27000.000
G1 X0.000 Y181.550 Z-0.250 F30000.000
G3 X-1.550 Y180.000 Z-0.250 I-0.000 J-1.550 F30000.000
G1 X-1.550 Y100.484 Z-0.250 F30000.000
G1 X-1.550 Y93.854 Z6.380 F27000.000
G1 X-1.550 Y86.146 Z6.380 F30000.000
G1 X-1.550 Y79.516 Z-0.250 F27000.000
G1 X-1.550 Y0.000 Z-0.250 F30000.000
G3 X0.000 Y-1.550 Z-0.250 I1.550 J-0.000 F30000.000
G1 X112.000 Y-1.550 Z-0.250 F30000.000
G3 X113.550 Y0.000 Z-0.250 I0.000 J1.550 F30000.000
G1 X113.550 Y10.450 Z-0.250 F30000.000
G1 X182.291 Y10.450 Z-0.250 F30000.000
G1 X188.921 Y10.450 Z6.380 F27000.000
G1 X196.629 Y10.450 Z6.380 F30000.000
G1 X203.259 Y10.450 Z-0.250 F27000.000
G1 X272.000 Y10.450 Z-0.250 F30000.000
G3 X273.550 Y12.000 Z-0.250 I0.000 J1.550 F30000.000
G1 X273.550 Y31.516 Z-0.250 F30000.000
G1 X273.550 Y38.146 Z6.380 F27000.000
G1 X273.550 Y45.854 Z6.380 F30000.000
G1 X273.550 Y52.484 Z-0.250 F27000.000
G1 X273.550 Y72.000 Z-0.250 F30000.000
G3 X273.096 Y73.096 Z-0.250 I-1.550 J-0.000 F30000.000
G1 X219.096 Y127.096 Z-0.250 F30000.000
G0 X219.096 Y127.096 Z20.000
(finish operation: DressupTag)
(begin postamble)
M05 M09
G17 G90 G80 G40
M30
