(Exported by FreeCAD)
(Post Processor: KineticNCBeamicon2_post)
(Output Time:2024-09-03 16:27:30.394851)
(begin preamble)
%
G17 G21 G40 G49 G80 G90
M08
G21
(begin operation: Fixture)
(machine: not set, mm/min)
G54
(finish operation: Fixture)
(begin operation: 3.1)
(machine: not set, mm/min)
(3.1)
M05
M09M6 T1
M3 S25000
(finish operation: 3.1)
(begin operation: Holes)
(machine: not set, mm/min)
(Profile)
(Compensated Tool Path. Diameter: 3.1)
G0 Z20.000
G0 X40.668 Y-9.332
G0 Z18.000
G1 X40.668 Y-9.332 Z12.500 F24000.000
G2 X40.323 Y-10.887 Z12.500 I-0.668 J-0.668 F30000.000
G2 X39.677 Y-9.113 Z12.500 I-0.323 J0.887 F30000.000
G2 X40.668 Y-9.332 Z12.500 I0.323 J-0.887 F30000.000
G1 X40.668 Y-9.332 Z12.000 F24000.000
G2 X40.323 Y-10.887 Z12.000 I-0.668 J-0.668 F30000.000
G2 X39.677 Y-9.113 Z12.000 I-0.323 J0.887 F30000.000
G2 X40.668 Y-9.332 Z12.000 I0.323 J-0.887 F30000.000
G1 X40.668 Y-9.332 Z11.500 F24000.000
G2 X40.323 Y-10.887 Z11.500 I-0.668 J-0.668 F30000.000
G2 X39.677 Y-9.113 Z11.500 I-0.323 J0.887 F30000.000
G2 X40.668 Y-9.332 Z11.500 I0.323 J-0.887 F30000.000
G1 X40.668 Y-9.332 Z11.000 F24000.000
G2 X40.323 Y-10.887 Z11.000 I-0.668 J-0.668 F30000.000
G2 X39.677 Y-9.113 Z11.000 I-0.323 J0.887 F30000.000
G2 X40.668 Y-9.332 Z11.000 I0.323 J-0.887 F30000.000
G1 X40.668 Y-9.332 Z10.500 F24000.000
G2 X40.323 Y-10.887 Z10.500 I-0.668 J-0.668 F30000.000
G2 X39.677 Y-9.113 Z10.500 I-0.323 J0.887 F30000.000
G2 X40.668 Y-9.332 Z10.500 I0.323 J-0.887 F30000.000
G1 X40.668 Y-9.332 Z10.000 F24000.000
G2 X40.323 Y-10.887 Z10.000 I-0.668 J-0.668 F30000.000
G2 X39.677 Y-9.113 Z10.000 I-0.323 J0.887 F30000.000
G2 X40.668 Y-9.332 Z10.000 I0.323 J-0.887 F30000.000
G1 X40.668 Y-9.332 Z9.500 F24000.000
G2 X40.323 Y-10.887 Z9.500 I-0.668 J-0.668 F30000.000
G2 X39.677 Y-9.113 Z9.500 I-0.323 J0.887 F30000.000
G2 X40.668 Y-9.332 Z9.500 I0.323 J-0.887 F30000.000
G1 X40.668 Y-9.332 Z9.000 F24000.000
G2 X40.323 Y-10.887 Z9.000 I-0.668 J-0.668 F30000.000
G2 X39.677 Y-9.113 Z9.000 I-0.323 J0.887 F30000.000
G2 X40.668 Y-9.332 Z9.000 I0.323 J-0.887 F30000.000
G1 X40.668 Y-9.332 Z8.500 F24000.000
G2 X40.323 Y-10.887 Z8.500 I-0.668 J-0.668 F30000.000
G2 X39.677 Y-9.113 Z8.500 I-0.323 J0.887 F30000.000
G2 X40.668 Y-9.332 Z8.500 I0.323 J-0.887 F30000.000
G1 X40.668 Y-9.332 Z8.000 F24000.000
G2 X40.323 Y-10.887 Z8.000 I-0.668 J-0.668 F30000.000
G2 X39.677 Y-9.113 Z8.000 I-0.323 J0.887 F30000.000
G2 X40.668 Y-9.332 Z8.000 I0.323 J-0.887 F30000.000
G1 X40.668 Y-9.332 Z7.500 F24000.000
G2 X40.323 Y-10.887 Z7.500 I-0.668 J-0.668 F30000.000
G2 X39.677 Y-9.113 Z7.500 I-0.323 J0.887 F30000.000
G2 X40.668 Y-9.332 Z7.500 I0.323 J-0.887 F30000.000
G1 X40.668 Y-9.332 Z7.000 F24000.000
G2 X40.323 Y-10.887 Z7.000 I-0.668 J-0.668 F30000.000
G2 X39.677 Y-9.113 Z7.000 I-0.323 J0.887 F30000.000
G2 X40.668 Y-9.332 Z7.000 I0.323 J-0.887 F30000.000
G1 X40.668 Y-9.332 Z6.500 F24000.000
G2 X40.323 Y-10.887 Z6.500 I-0.668 J-0.668 F30000.000
G2 X39.677 Y-9.113 Z6.500 I-0.323 J0.887 F30000.000
G2 X40.668 Y-9.332 Z6.500 I0.323 J-0.887 F30000.000
G1 X40.668 Y-9.332 Z6.000 F24000.000
G2 X40.323 Y-10.887 Z6.000 I-0.668 J-0.668 F30000.000
G2 X39.677 Y-9.113 Z6.000 I-0.323 J0.887 F30000.000
G2 X40.668 Y-9.332 Z6.000 I0.323 J-0.887 F30000.000
G1 X40.668 Y-9.332 Z5.500 F24000.000
G2 X40.323 Y-10.887 Z5.500 I-0.668 J-0.668 F30000.000
G2 X39.677 Y-9.113 Z5.500 I-0.323 J0.887 F30000.000
G2 X40.668 Y-9.332 Z5.500 I0.323 J-0.887 F30000.000
G1 X40.668 Y-9.332 Z5.000 F24000.000
G2 X40.323 Y-10.887 Z5.000 I-0.668 J-0.668 F30000.000
G2 X39.677 Y-9.113 Z5.000 I-0.323 J0.887 F30000.000
G2 X40.668 Y-9.332 Z5.000 I0.323 J-0.887 F30000.000
G1 X40.668 Y-9.332 Z4.500 F24000.000
G2 X40.323 Y-10.887 Z4.500 I-0.668 J-0.668 F30000.000
G2 X39.677 Y-9.113 Z4.500 I-0.323 J0.887 F30000.000
G2 X40.668 Y-9.332 Z4.500 I0.323 J-0.887 F30000.000
G1 X40.668 Y-9.332 Z4.000 F24000.000
G2 X40.323 Y-10.887 Z4.000 I-0.668 J-0.668 F30000.000
G2 X39.677 Y-9.113 Z4.000 I-0.323 J0.887 F30000.000
G2 X40.668 Y-9.332 Z4.000 I0.323 J-0.887 F30000.000
G1 X40.668 Y-9.332 Z3.500 F24000.000
G2 X40.323 Y-10.887 Z3.500 I-0.668 J-0.668 F30000.000
G2 X39.677 Y-9.113 Z3.500 I-0.323 J0.887 F30000.000
G2 X40.668 Y-9.332 Z3.500 I0.323 J-0.887 F30000.000
G1 X40.668 Y-9.332 Z3.000 F24000.000
G2 X40.323 Y-10.887 Z3.000 I-0.668 J-0.668 F30000.000
G2 X39.677 Y-9.113 Z3.000 I-0.323 J0.887 F30000.000
G2 X40.668 Y-9.332 Z3.000 I0.323 J-0.887 F30000.000
G1 X40.668 Y-9.332 Z2.500 F24000.000
G2 X40.323 Y-10.887 Z2.500 I-0.668 J-0.668 F30000.000
G2 X39.677 Y-9.113 Z2.500 I-0.323 J0.887 F30000.000
G2 X40.668 Y-9.332 Z2.500 I0.323 J-0.887 F30000.000
G1 X40.668 Y-9.332 Z2.000 F24000.000
G2 X40.323 Y-10.887 Z2.000 I-0.668 J-0.668 F30000.000
G2 X39.677 Y-9.113 Z2.000 I-0.323 J0.887 F30000.000
G2 X40.668 Y-9.332 Z2.000 I0.323 J-0.887 F30000.000
G1 X40.668 Y-9.332 Z1.500 F24000.000
G2 X40.323 Y-10.887 Z1.500 I-0.668 J-0.668 F30000.000
G2 X39.677 Y-9.113 Z1.500 I-0.323 J0.887 F30000.000
G2 X40.668 Y-9.332 Z1.500 I0.323 J-0.887 F30000.000
G1 X40.668 Y-9.332 Z1.000 F24000.000
G2 X40.323 Y-10.887 Z1.000 I-0.668 J-0.668 F30000.000
G2 X39.677 Y-9.113 Z1.000 I-0.323 J0.887 F30000.000
G2 X40.668 Y-9.332 Z1.000 I0.323 J-0.887 F30000.000
G1 X40.668 Y-9.332 Z0.500 F24000.000
G2 X40.323 Y-10.887 Z0.500 I-0.668 J-0.668 F30000.000
G2 X39.677 Y-9.113 Z0.500 I-0.323 J0.887 F30000.000
G2 X40.668 Y-9.332 Z0.500 I0.323 J-0.887 F30000.000
G1 X40.668 Y-9.332 Z0.000 F24000.000
G2 X40.323 Y-10.887 Z0.000 I-0.668 J-0.668 F30000.000
G2 X39.677 Y-9.113 Z0.000 I-0.323 J0.887 F30000.000
G2 X40.668 Y-9.332 Z0.000 I0.323 J-0.887 F30000.000
G1 X40.668 Y-9.332 Z-0.250 F24000.000
G2 X40.323 Y-10.887 Z-0.250 I-0.668 J-0.668 F30000.000
G2 X39.677 Y-9.113 Z-0.250 I-0.323 J0.887 F30000.000
G2 X40.668 Y-9.332 Z-0.250 I0.323 J-0.887 F30000.000
G0 Z20.000
G0 Z20.000
G0 X40.668 Y-9.332
G0 X40.033 Y9.056
G0 X40.033 Y9.056 Z18.000
G1 X40.033 Y9.056 Z12.500 F24000.000
G2 X39.677 Y10.887 Z12.500 I-0.033 J0.944 F30000.000
G2 X40.887 Y10.323 Z12.500 I0.323 J-0.887 F30000.000
G2 X40.323 Y9.113 Z12.500 I-0.887 J-0.323 F30000.000
G2 X40.033 Y9.056 Z12.500 I-0.323 J0.887 F30000.000
G1 X40.033 Y9.056 Z12.000 F24000.000
G2 X39.677 Y10.887 Z12.000 I-0.033 J0.944 F30000.000
G2 X40.887 Y10.323 Z12.000 I0.323 J-0.887 F30000.000
G2 X40.323 Y9.113 Z12.000 I-0.887 J-0.323 F30000.000
G2 X40.033 Y9.056 Z12.000 I-0.323 J0.887 F30000.000
G1 X40.033 Y9.056 Z11.500 F24000.000
G2 X39.677 Y10.887 Z11.500 I-0.033 J0.944 F30000.000
G2 X40.887 Y10.323 Z11.500 I0.323 J-0.887 F30000.000
G2 X40.323 Y9.113 Z11.500 I-0.887 J-0.323 F30000.000
G2 X40.033 Y9.056 Z11.500 I-0.323 J0.887 F30000.000
G1 X40.033 Y9.056 Z11.000 F24000.000
G2 X39.677 Y10.887 Z11.000 I-0.033 J0.944 F30000.000
G2 X40.887 Y10.323 Z11.000 I0.323 J-0.887 F30000.000
G2 X40.323 Y9.113 Z11.000 I-0.887 J-0.323 F30000.000
G2 X40.033 Y9.056 Z11.000 I-0.323 J0.887 F30000.000
G1 X40.033 Y9.056 Z10.500 F24000.000
G2 X39.677 Y10.887 Z10.500 I-0.033 J0.944 F30000.000
G2 X40.887 Y10.323 Z10.500 I0.323 J-0.887 F30000.000
G2 X40.323 Y9.113 Z10.500 I-0.887 J-0.323 F30000.000
G2 X40.033 Y9.056 Z10.500 I-0.323 J0.887 F30000.000
G1 X40.033 Y9.056 Z10.000 F24000.000
G2 X39.677 Y10.887 Z10.000 I-0.033 J0.944 F30000.000
G2 X40.887 Y10.323 Z10.000 I0.323 J-0.887 F30000.000
G2 X40.323 Y9.113 Z10.000 I-0.887 J-0.323 F30000.000
G2 X40.033 Y9.056 Z10.000 I-0.323 J0.887 F30000.000
G1 X40.033 Y9.056 Z9.500 F24000.000
G2 X39.677 Y10.887 Z9.500 I-0.033 J0.944 F30000.000
G2 X40.887 Y10.323 Z9.500 I0.323 J-0.887 F30000.000
G2 X40.323 Y9.113 Z9.500 I-0.887 J-0.323 F30000.000
G2 X40.033 Y9.056 Z9.500 I-0.323 J0.887 F30000.000
G1 X40.033 Y9.056 Z9.000 F24000.000
G2 X39.677 Y10.887 Z9.000 I-0.033 J0.944 F30000.000
G2 X40.887 Y10.323 Z9.000 I0.323 J-0.887 F30000.000
G2 X40.323 Y9.113 Z9.000 I-0.887 J-0.323 F30000.000
G2 X40.033 Y9.056 Z9.000 I-0.323 J0.887 F30000.000
G1 X40.033 Y9.056 Z8.500 F24000.000
G2 X39.677 Y10.887 Z8.500 I-0.033 J0.944 F30000.000
G2 X40.887 Y10.323 Z8.500 I0.323 J-0.887 F30000.000
G2 X40.323 Y9.113 Z8.500 I-0.887 J-0.323 F30000.000
G2 X40.033 Y9.056 Z8.500 I-0.323 J0.887 F30000.000
G1 X40.033 Y9.056 Z8.000 F24000.000
G2 X39.677 Y10.887 Z8.000 I-0.033 J0.944 F30000.000
G2 X40.887 Y10.323 Z8.000 I0.323 J-0.887 F30000.000
G2 X40.323 Y9.113 Z8.000 I-0.887 J-0.323 F30000.000
G2 X40.033 Y9.056 Z8.000 I-0.323 J0.887 F30000.000
G1 X40.033 Y9.056 Z7.500 F24000.000
G2 X39.677 Y10.887 Z7.500 I-0.033 J0.944 F30000.000
G2 X40.887 Y10.323 Z7.500 I0.323 J-0.887 F30000.000
G2 X40.323 Y9.113 Z7.500 I-0.887 J-0.323 F30000.000
G2 X40.033 Y9.056 Z7.500 I-0.323 J0.887 F30000.000
G1 X40.033 Y9.056 Z7.000 F24000.000
G2 X39.677 Y10.887 Z7.000 I-0.033 J0.944 F30000.000
G2 X40.887 Y10.323 Z7.000 I0.323 J-0.887 F30000.000
G2 X40.323 Y9.113 Z7.000 I-0.887 J-0.323 F30000.000
G2 X40.033 Y9.056 Z7.000 I-0.323 J0.887 F30000.000
G1 X40.033 Y9.056 Z6.500 F24000.000
G2 X39.677 Y10.887 Z6.500 I-0.033 J0.944 F30000.000
G2 X40.887 Y10.323 Z6.500 I0.323 J-0.887 F30000.000
G2 X40.323 Y9.113 Z6.500 I-0.887 J-0.323 F30000.000
G2 X40.033 Y9.056 Z6.500 I-0.323 J0.887 F30000.000
G1 X40.033 Y9.056 Z6.000 F24000.000
G2 X39.677 Y10.887 Z6.000 I-0.033 J0.944 F30000.000
G2 X40.887 Y10.323 Z6.000 I0.323 J-0.887 F30000.000
G2 X40.323 Y9.113 Z6.000 I-0.887 J-0.323 F30000.000
G2 X40.033 Y9.056 Z6.000 I-0.323 J0.887 F30000.000
G1 X40.033 Y9.056 Z5.500 F24000.000
G2 X39.677 Y10.887 Z5.500 I-0.033 J0.944 F30000.000
G2 X40.887 Y10.323 Z5.500 I0.323 J-0.887 F30000.000
G2 X40.323 Y9.113 Z5.500 I-0.887 J-0.323 F30000.000
G2 X40.033 Y9.056 Z5.500 I-0.323 J0.887 F30000.000
G1 X40.033 Y9.056 Z5.000 F24000.000
G2 X39.677 Y10.887 Z5.000 I-0.033 J0.944 F30000.000
G2 X40.887 Y10.323 Z5.000 I0.323 J-0.887 F30000.000
G2 X40.323 Y9.113 Z5.000 I-0.887 J-0.323 F30000.000
G2 X40.033 Y9.056 Z5.000 I-0.323 J0.887 F30000.000
G1 X40.033 Y9.056 Z4.500 F24000.000
G2 X39.677 Y10.887 Z4.500 I-0.033 J0.944 F30000.000
G2 X40.887 Y10.323 Z4.500 I0.323 J-0.887 F30000.000
G2 X40.323 Y9.113 Z4.500 I-0.887 J-0.323 F30000.000
G2 X40.033 Y9.056 Z4.500 I-0.323 J0.887 F30000.000
G1 X40.033 Y9.056 Z4.000 F24000.000
G2 X39.677 Y10.887 Z4.000 I-0.033 J0.944 F30000.000
G2 X40.887 Y10.323 Z4.000 I0.323 J-0.887 F30000.000
G2 X40.323 Y9.113 Z4.000 I-0.887 J-0.323 F30000.000
G2 X40.033 Y9.056 Z4.000 I-0.323 J0.887 F30000.000
G1 X40.033 Y9.056 Z3.500 F24000.000
G2 X39.677 Y10.887 Z3.500 I-0.033 J0.944 F30000.000
G2 X40.887 Y10.323 Z3.500 I0.323 J-0.887 F30000.000
G2 X40.323 Y9.113 Z3.500 I-0.887 J-0.323 F30000.000
G2 X40.033 Y9.056 Z3.500 I-0.323 J0.887 F30000.000
G1 X40.033 Y9.056 Z3.000 F24000.000
G2 X39.677 Y10.887 Z3.000 I-0.033 J0.944 F30000.000
G2 X40.887 Y10.323 Z3.000 I0.323 J-0.887 F30000.000
G2 X40.323 Y9.113 Z3.000 I-0.887 J-0.323 F30000.000
G2 X40.033 Y9.056 Z3.000 I-0.323 J0.887 F30000.000
G1 X40.033 Y9.056 Z2.500 F24000.000
G2 X39.677 Y10.887 Z2.500 I-0.033 J0.944 F30000.000
G2 X40.887 Y10.323 Z2.500 I0.323 J-0.887 F30000.000
G2 X40.323 Y9.113 Z2.500 I-0.887 J-0.323 F30000.000
G2 X40.033 Y9.056 Z2.500 I-0.323 J0.887 F30000.000
G1 X40.033 Y9.056 Z2.000 F24000.000
G2 X39.677 Y10.887 Z2.000 I-0.033 J0.944 F30000.000
G2 X40.887 Y10.323 Z2.000 I0.323 J-0.887 F30000.000
G2 X40.323 Y9.113 Z2.000 I-0.887 J-0.323 F30000.000
G2 X40.033 Y9.056 Z2.000 I-0.323 J0.887 F30000.000
G1 X40.033 Y9.056 Z1.500 F24000.000
G2 X39.677 Y10.887 Z1.500 I-0.033 J0.944 F30000.000
G2 X40.887 Y10.323 Z1.500 I0.323 J-0.887 F30000.000
G2 X40.323 Y9.113 Z1.500 I-0.887 J-0.323 F30000.000
G2 X40.033 Y9.056 Z1.500 I-0.323 J0.887 F30000.000
G1 X40.033 Y9.056 Z1.000 F24000.000
G2 X39.677 Y10.887 Z1.000 I-0.033 J0.944 F30000.000
G2 X40.887 Y10.323 Z1.000 I0.323 J-0.887 F30000.000
G2 X40.323 Y9.113 Z1.000 I-0.887 J-0.323 F30000.000
G2 X40.033 Y9.056 Z1.000 I-0.323 J0.887 F30000.000
G1 X40.033 Y9.056 Z0.500 F24000.000
G2 X39.677 Y10.887 Z0.500 I-0.033 J0.944 F30000.000
G2 X40.887 Y10.323 Z0.500 I0.323 J-0.887 F30000.000
G2 X40.323 Y9.113 Z0.500 I-0.887 J-0.323 F30000.000
G2 X40.033 Y9.056 Z0.500 I-0.323 J0.887 F30000.000
G1 X40.033 Y9.056 Z0.000 F24000.000
G2 X39.677 Y10.887 Z0.000 I-0.033 J0.944 F30000.000
G2 X40.887 Y10.323 Z0.000 I0.323 J-0.887 F30000.000
G2 X40.323 Y9.113 Z0.000 I-0.887 J-0.323 F30000.000
G2 X40.033 Y9.056 Z0.000 I-0.323 J0.887 F30000.000
G1 X40.033 Y9.056 Z-0.250 F24000.000
G2 X39.677 Y10.887 Z-0.250 I-0.033 J0.944 F30000.000
G2 X40.887 Y10.323 Z-0.250 I0.323 J-0.887 F30000.000
G2 X40.323 Y9.113 Z-0.250 I-0.887 J-0.323 F30000.000
G2 X40.033 Y9.056 Z-0.250 I-0.323 J0.887 F30000.000
G0 Z20.000
G0 Z20.000
G0 X40.033 Y9.056
G0 X49.941 Y39.818
G0 X49.941 Y39.818 Z18.000
G1 X49.941 Y39.818 Z12.500 F24000.000
G2 X49.922 Y40.175 Z12.500 I0.059 J0.182 F30000.000
G2 X50.078 Y39.825 Z12.500 I0.078 J-0.175 F30000.000
G2 X49.941 Y39.818 Z12.500 I-0.078 J0.175 F30000.000
G1 X49.941 Y39.818 Z12.000 F24000.000
G2 X49.922 Y40.175 Z12.000 I0.059 J0.182 F30000.000
G2 X50.078 Y39.825 Z12.000 I0.078 J-0.175 F30000.000
G2 X49.941 Y39.818 Z12.000 I-0.078 J0.175 F30000.000
G1 X49.941 Y39.818 Z11.500 F24000.000
G2 X49.922 Y40.175 Z11.500 I0.059 J0.182 F30000.000
G2 X50.078 Y39.825 Z11.500 I0.078 J-0.175 F30000.000
G2 X49.941 Y39.818 Z11.500 I-0.078 J0.175 F30000.000
G1 X49.941 Y39.818 Z11.000 F24000.000
G2 X49.922 Y40.175 Z11.000 I0.059 J0.182 F30000.000
G2 X50.078 Y39.825 Z11.000 I0.078 J-0.175 F30000.000
G2 X49.941 Y39.818 Z11.000 I-0.078 J0.175 F30000.000
G1 X49.941 Y39.818 Z10.500 F24000.000
G2 X49.922 Y40.175 Z10.500 I0.059 J0.182 F30000.000
G2 X50.078 Y39.825 Z10.500 I0.078 J-0.175 F30000.000
G2 X49.941 Y39.818 Z10.500 I-0.078 J0.175 F30000.000
G1 X49.941 Y39.818 Z10.000 F24000.000
G2 X49.922 Y40.175 Z10.000 I0.059 J0.182 F30000.000
G2 X50.078 Y39.825 Z10.000 I0.078 J-0.175 F30000.000
G2 X49.941 Y39.818 Z10.000 I-0.078 J0.175 F30000.000
G1 X49.941 Y39.818 Z9.500 F24000.000
G2 X49.922 Y40.175 Z9.500 I0.059 J0.182 F30000.000
G2 X50.078 Y39.825 Z9.500 I0.078 J-0.175 F30000.000
G2 X49.941 Y39.818 Z9.500 I-0.078 J0.175 F30000.000
G1 X49.941 Y39.818 Z9.000 F24000.000
G2 X49.922 Y40.175 Z9.000 I0.059 J0.182 F30000.000
G2 X50.078 Y39.825 Z9.000 I0.078 J-0.175 F30000.000
G2 X49.941 Y39.818 Z9.000 I-0.078 J0.175 F30000.000
G1 X49.941 Y39.818 Z8.500 F24000.000
G2 X49.922 Y40.175 Z8.500 I0.059 J0.182 F30000.000
G2 X50.078 Y39.825 Z8.500 I0.078 J-0.175 F30000.000
G2 X49.941 Y39.818 Z8.500 I-0.078 J0.175 F30000.000
G1 X49.941 Y39.818 Z8.000 F24000.000
G2 X49.922 Y40.175 Z8.000 I0.059 J0.182 F30000.000
G2 X50.078 Y39.825 Z8.000 I0.078 J-0.175 F30000.000
G2 X49.941 Y39.818 Z8.000 I-0.078 J0.175 F30000.000
G1 X49.941 Y39.818 Z7.500 F24000.000
G2 X49.922 Y40.175 Z7.500 I0.059 J0.182 F30000.000
G2 X50.078 Y39.825 Z7.500 I0.078 J-0.175 F30000.000
G2 X49.941 Y39.818 Z7.500 I-0.078 J0.175 F30000.000
G1 X49.941 Y39.818 Z7.000 F24000.000
G2 X49.922 Y40.175 Z7.000 I0.059 J0.182 F30000.000
G2 X50.078 Y39.825 Z7.000 I0.078 J-0.175 F30000.000
G2 X49.941 Y39.818 Z7.000 I-0.078 J0.175 F30000.000
G1 X49.941 Y39.818 Z6.500 F24000.000
G2 X49.922 Y40.175 Z6.500 I0.059 J0.182 F30000.000
G2 X50.078 Y39.825 Z6.500 I0.078 J-0.175 F30000.000
G2 X49.941 Y39.818 Z6.500 I-0.078 J0.175 F30000.000
G1 X49.941 Y39.818 Z6.000 F24000.000
G2 X49.922 Y40.175 Z6.000 I0.059 J0.182 F30000.000
G2 X50.078 Y39.825 Z6.000 I0.078 J-0.175 F30000.000
G2 X49.941 Y39.818 Z6.000 I-0.078 J0.175 F30000.000
G1 X49.941 Y39.818 Z5.500 F24000.000
G2 X49.922 Y40.175 Z5.500 I0.059 J0.182 F30000.000
G2 X50.078 Y39.825 Z5.500 I0.078 J-0.175 F30000.000
G2 X49.941 Y39.818 Z5.500 I-0.078 J0.175 F30000.000
G1 X49.941 Y39.818 Z5.000 F24000.000
G2 X49.922 Y40.175 Z5.000 I0.059 J0.182 F30000.000
G2 X50.078 Y39.825 Z5.000 I0.078 J-0.175 F30000.000
G2 X49.941 Y39.818 Z5.000 I-0.078 J0.175 F30000.000
G1 X49.941 Y39.818 Z4.500 F24000.000
G2 X49.922 Y40.175 Z4.500 I0.059 J0.182 F30000.000
G2 X50.078 Y39.825 Z4.500 I0.078 J-0.175 F30000.000
G2 X49.941 Y39.818 Z4.500 I-0.078 J0.175 F30000.000
G1 X49.941 Y39.818 Z4.000 F24000.000
G2 X49.922 Y40.175 Z4.000 I0.059 J0.182 F30000.000
G2 X50.078 Y39.825 Z4.000 I0.078 J-0.175 F30000.000
G2 X49.941 Y39.818 Z4.000 I-0.078 J0.175 F30000.000
G1 X49.941 Y39.818 Z3.500 F24000.000
G2 X49.922 Y40.175 Z3.500 I0.059 J0.182 F30000.000
G2 X50.078 Y39.825 Z3.500 I0.078 J-0.175 F30000.000
G2 X49.941 Y39.818 Z3.500 I-0.078 J0.175 F30000.000
G1 X49.941 Y39.818 Z3.000 F24000.000
G2 X49.922 Y40.175 Z3.000 I0.059 J0.182 F30000.000
G2 X50.078 Y39.825 Z3.000 I0.078 J-0.175 F30000.000
G2 X49.941 Y39.818 Z3.000 I-0.078 J0.175 F30000.000
G1 X49.941 Y39.818 Z2.500 F24000.000
G2 X49.922 Y40.175 Z2.500 I0.059 J0.182 F30000.000
G2 X50.078 Y39.825 Z2.500 I0.078 J-0.175 F30000.000
G2 X49.941 Y39.818 Z2.500 I-0.078 J0.175 F30000.000
G1 X49.941 Y39.818 Z2.000 F24000.000
G2 X49.922 Y40.175 Z2.000 I0.059 J0.182 F30000.000
G2 X50.078 Y39.825 Z2.000 I0.078 J-0.175 F30000.000
G2 X49.941 Y39.818 Z2.000 I-0.078 J0.175 F30000.000
G1 X49.941 Y39.818 Z1.500 F24000.000
G2 X49.922 Y40.175 Z1.500 I0.059 J0.182 F30000.000
G2 X50.078 Y39.825 Z1.500 I0.078 J-0.175 F30000.000
G2 X49.941 Y39.818 Z1.500 I-0.078 J0.175 F30000.000
G1 X49.941 Y39.818 Z1.000 F24000.000
G2 X49.922 Y40.175 Z1.000 I0.059 J0.182 F30000.000
G2 X50.078 Y39.825 Z1.000 I0.078 J-0.175 F30000.000
G2 X49.941 Y39.818 Z1.000 I-0.078 J0.175 F30000.000
G1 X49.941 Y39.818 Z0.500 F24000.000
G2 X49.922 Y40.175 Z0.500 I0.059 J0.182 F30000.000
G2 X50.078 Y39.825 Z0.500 I0.078 J-0.175 F30000.000
G2 X49.941 Y39.818 Z0.500 I-0.078 J0.175 F30000.000
G1 X49.941 Y39.818 Z0.000 F24000.000
G2 X49.922 Y40.175 Z0.000 I0.059 J0.182 F30000.000
G2 X50.078 Y39.825 Z0.000 I0.078 J-0.175 F30000.000
G2 X49.941 Y39.818 Z0.000 I-0.078 J0.175 F30000.000
G1 X49.941 Y39.818 Z-0.250 F24000.000
G2 X49.922 Y40.175 Z-0.250 I0.059 J0.182 F30000.000
G2 X50.078 Y39.825 Z-0.250 I0.078 J-0.175 F30000.000
G2 X49.941 Y39.818 Z-0.250 I-0.078 J0.175 F30000.000
G0 Z20.000
G0 Z20.000
G0 X49.941 Y39.818
G0 X49.999 Y59.809
G0 X49.999 Y59.809 Z18.000
G1 X49.999 Y59.809 Z12.500 F24000.000
G2 X49.922 Y60.175 Z12.500 I0.001 J0.191 F30000.000
G2 X50.078 Y59.825 Z12.500 I0.078 J-0.175 F30000.000
G2 X49.999 Y59.809 Z12.500 I-0.078 J0.175 F30000.000
G1 X49.999 Y59.809 Z12.000 F24000.000
G2 X49.922 Y60.175 Z12.000 I0.001 J0.191 F30000.000
G2 X50.078 Y59.825 Z12.000 I0.078 J-0.175 F30000.000
G2 X49.999 Y59.809 Z12.000 I-0.078 J0.175 F30000.000
G1 X49.999 Y59.809 Z11.500 F24000.000
G2 X49.922 Y60.175 Z11.500 I0.001 J0.191 F30000.000
G2 X50.078 Y59.825 Z11.500 I0.078 J-0.175 F30000.000
G2 X49.999 Y59.809 Z11.500 I-0.078 J0.175 F30000.000
G1 X49.999 Y59.809 Z11.000 F24000.000
G2 X49.922 Y60.175 Z11.000 I0.001 J0.191 F30000.000
G2 X50.078 Y59.825 Z11.000 I0.078 J-0.175 F30000.000
G2 X49.999 Y59.809 Z11.000 I-0.078 J0.175 F30000.000
G1 X49.999 Y59.809 Z10.500 F24000.000
G2 X49.922 Y60.175 Z10.500 I0.001 J0.191 F30000.000
G2 X50.078 Y59.825 Z10.500 I0.078 J-0.175 F30000.000
G2 X49.999 Y59.809 Z10.500 I-0.078 J0.175 F30000.000
G1 X49.999 Y59.809 Z10.000 F24000.000
G2 X49.922 Y60.175 Z10.000 I0.001 J0.191 F30000.000
G2 X50.078 Y59.825 Z10.000 I0.078 J-0.175 F30000.000
G2 X49.999 Y59.809 Z10.000 I-0.078 J0.175 F30000.000
G1 X49.999 Y59.809 Z9.500 F24000.000
G2 X49.922 Y60.175 Z9.500 I0.001 J0.191 F30000.000
G2 X50.078 Y59.825 Z9.500 I0.078 J-0.175 F30000.000
G2 X49.999 Y59.809 Z9.500 I-0.078 J0.175 F30000.000
G1 X49.999 Y59.809 Z9.000 F24000.000
G2 X49.922 Y60.175 Z9.000 I0.001 J0.191 F30000.000
G2 X50.078 Y59.825 Z9.000 I0.078 J-0.175 F30000.000
G2 X49.999 Y59.809 Z9.000 I-0.078 J0.175 F30000.000
G1 X49.999 Y59.809 Z8.500 F24000.000
G2 X49.922 Y60.175 Z8.500 I0.001 J0.191 F30000.000
G2 X50.078 Y59.825 Z8.500 I0.078 J-0.175 F30000.000
G2 X49.999 Y59.809 Z8.500 I-0.078 J0.175 F30000.000
G1 X49.999 Y59.809 Z8.000 F24000.000
G2 X49.922 Y60.175 Z8.000 I0.001 J0.191 F30000.000
G2 X50.078 Y59.825 Z8.000 I0.078 J-0.175 F30000.000
G2 X49.999 Y59.809 Z8.000 I-0.078 J0.175 F30000.000
G1 X49.999 Y59.809 Z7.500 F24000.000
G2 X49.922 Y60.175 Z7.500 I0.001 J0.191 F30000.000
G2 X50.078 Y59.825 Z7.500 I0.078 J-0.175 F30000.000
G2 X49.999 Y59.809 Z7.500 I-0.078 J0.175 F30000.000
G1 X49.999 Y59.809 Z7.000 F24000.000
G2 X49.922 Y60.175 Z7.000 I0.001 J0.191 F30000.000
G2 X50.078 Y59.825 Z7.000 I0.078 J-0.175 F30000.000
G2 X49.999 Y59.809 Z7.000 I-0.078 J0.175 F30000.000
G1 X49.999 Y59.809 Z6.500 F24000.000
G2 X49.922 Y60.175 Z6.500 I0.001 J0.191 F30000.000
G2 X50.078 Y59.825 Z6.500 I0.078 J-0.175 F30000.000
G2 X49.999 Y59.809 Z6.500 I-0.078 J0.175 F30000.000
G1 X49.999 Y59.809 Z6.000 F24000.000
G2 X49.922 Y60.175 Z6.000 I0.001 J0.191 F30000.000
G2 X50.078 Y59.825 Z6.000 I0.078 J-0.175 F30000.000
G2 X49.999 Y59.809 Z6.000 I-0.078 J0.175 F30000.000
G1 X49.999 Y59.809 Z5.500 F24000.000
G2 X49.922 Y60.175 Z5.500 I0.001 J0.191 F30000.000
G2 X50.078 Y59.825 Z5.500 I0.078 J-0.175 F30000.000
G2 X49.999 Y59.809 Z5.500 I-0.078 J0.175 F30000.000
G1 X49.999 Y59.809 Z5.000 F24000.000
G2 X49.922 Y60.175 Z5.000 I0.001 J0.191 F30000.000
G2 X50.078 Y59.825 Z5.000 I0.078 J-0.175 F30000.000
G2 X49.999 Y59.809 Z5.000 I-0.078 J0.175 F30000.000
G1 X49.999 Y59.809 Z4.500 F24000.000
G2 X49.922 Y60.175 Z4.500 I0.001 J0.191 F30000.000
G2 X50.078 Y59.825 Z4.500 I0.078 J-0.175 F30000.000
G2 X49.999 Y59.809 Z4.500 I-0.078 J0.175 F30000.000
G1 X49.999 Y59.809 Z4.000 F24000.000
G2 X49.922 Y60.175 Z4.000 I0.001 J0.191 F30000.000
G2 X50.078 Y59.825 Z4.000 I0.078 J-0.175 F30000.000
G2 X49.999 Y59.809 Z4.000 I-0.078 J0.175 F30000.000
G1 X49.999 Y59.809 Z3.500 F24000.000
G2 X49.922 Y60.175 Z3.500 I0.001 J0.191 F30000.000
G2 X50.078 Y59.825 Z3.500 I0.078 J-0.175 F30000.000
G2 X49.999 Y59.809 Z3.500 I-0.078 J0.175 F30000.000
G1 X49.999 Y59.809 Z3.000 F24000.000
G2 X49.922 Y60.175 Z3.000 I0.001 J0.191 F30000.000
G2 X50.078 Y59.825 Z3.000 I0.078 J-0.175 F30000.000
G2 X49.999 Y59.809 Z3.000 I-0.078 J0.175 F30000.000
G1 X49.999 Y59.809 Z2.500 F24000.000
G2 X49.922 Y60.175 Z2.500 I0.001 J0.191 F30000.000
G2 X50.078 Y59.825 Z2.500 I0.078 J-0.175 F30000.000
G2 X49.999 Y59.809 Z2.500 I-0.078 J0.175 F30000.000
G1 X49.999 Y59.809 Z2.000 F24000.000
G2 X49.922 Y60.175 Z2.000 I0.001 J0.191 F30000.000
G2 X50.078 Y59.825 Z2.000 I0.078 J-0.175 F30000.000
G2 X49.999 Y59.809 Z2.000 I-0.078 J0.175 F30000.000
G1 X49.999 Y59.809 Z1.500 F24000.000
G2 X49.922 Y60.175 Z1.500 I0.001 J0.191 F30000.000
G2 X50.078 Y59.825 Z1.500 I0.078 J-0.175 F30000.000
G2 X49.999 Y59.809 Z1.500 I-0.078 J0.175 F30000.000
G1 X49.999 Y59.809 Z1.000 F24000.000
G2 X49.922 Y60.175 Z1.000 I0.001 J0.191 F30000.000
G2 X50.078 Y59.825 Z1.000 I0.078 J-0.175 F30000.000
G2 X49.999 Y59.809 Z1.000 I-0.078 J0.175 F30000.000
G1 X49.999 Y59.809 Z0.500 F24000.000
G2 X49.922 Y60.175 Z0.500 I0.001 J0.191 F30000.000
G2 X50.078 Y59.825 Z0.500 I0.078 J-0.175 F30000.000
G2 X49.999 Y59.809 Z0.500 I-0.078 J0.175 F30000.000
G1 X49.999 Y59.809 Z0.000 F24000.000
G2 X49.922 Y60.175 Z0.000 I0.001 J0.191 F30000.000
G2 X50.078 Y59.825 Z0.000 I0.078 J-0.175 F30000.000
G2 X49.999 Y59.809 Z0.000 I-0.078 J0.175 F30000.000
G1 X49.999 Y59.809 Z-0.250 F24000.000
G2 X49.922 Y60.175 Z-0.250 I0.001 J0.191 F30000.000
G2 X50.078 Y59.825 Z-0.250 I0.078 J-0.175 F30000.000
G2 X49.999 Y59.809 Z-0.250 I-0.078 J0.175 F30000.000
G0 Z20.000
G0 Z20.000
G0 X49.999 Y59.809
G0 X109.128 Y35.361
G0 X109.128 Y35.361 Z18.000
G1 X109.128 Y35.361 Z12.500 F24000.000
G2 X109.677 Y35.887 Z12.500 I0.872 J-0.361 F30000.000
G2 X110.887 Y35.323 Z12.500 I0.323 J-0.887 F30000.000
G2 X110.323 Y34.113 Z12.500 I-0.887 J-0.323 F30000.000
G2 X109.128 Y35.361 Z12.500 I-0.323 J0.887 F30000.000
G1 X109.128 Y35.361 Z12.000 F24000.000
G2 X109.677 Y35.887 Z12.000 I0.872 J-0.361 F30000.000
G2 X110.887 Y35.323 Z12.000 I0.323 J-0.887 F30000.000
G2 X110.323 Y34.113 Z12.000 I-0.887 J-0.323 F30000.000
G2 X109.128 Y35.361 Z12.000 I-0.323 J0.887 F30000.000
G1 X109.128 Y35.361 Z11.500 F24000.000
G2 X109.677 Y35.887 Z11.500 I0.872 J-0.361 F30000.000
G2 X110.887 Y35.323 Z11.500 I0.323 J-0.887 F30000.000
G2 X110.323 Y34.113 Z11.500 I-0.887 J-0.323 F30000.000
G2 X109.128 Y35.361 Z11.500 I-0.323 J0.887 F30000.000
G1 X109.128 Y35.361 Z11.000 F24000.000
G2 X109.677 Y35.887 Z11.000 I0.872 J-0.361 F30000.000
G2 X110.887 Y35.323 Z11.000 I0.323 J-0.887 F30000.000
G2 X110.323 Y34.113 Z11.000 I-0.887 J-0.323 F30000.000
G2 X109.128 Y35.361 Z11.000 I-0.323 J0.887 F30000.000
G1 X109.128 Y35.361 Z10.500 F24000.000
G2 X109.677 Y35.887 Z10.500 I0.872 J-0.361 F30000.000
G2 X110.887 Y35.323 Z10.500 I0.323 J-0.887 F30000.000
G2 X110.323 Y34.113 Z10.500 I-0.887 J-0.323 F30000.000
G2 X109.128 Y35.361 Z10.500 I-0.323 J0.887 F30000.000
G1 X109.128 Y35.361 Z10.000 F24000.000
G2 X109.677 Y35.887 Z10.000 I0.872 J-0.361 F30000.000
G2 X110.887 Y35.323 Z10.000 I0.323 J-0.887 F30000.000
G2 X110.323 Y34.113 Z10.000 I-0.887 J-0.323 F30000.000
G2 X109.128 Y35.361 Z10.000 I-0.323 J0.887 F30000.000
G1 X109.128 Y35.361 Z9.500 F24000.000
G2 X109.677 Y35.887 Z9.500 I0.872 J-0.361 F30000.000
G2 X110.887 Y35.323 Z9.500 I0.323 J-0.887 F30000.000
G2 X110.323 Y34.113 Z9.500 I-0.887 J-0.323 F30000.000
G2 X109.128 Y35.361 Z9.500 I-0.323 J0.887 F30000.000
G1 X109.128 Y35.361 Z9.000 F24000.000
G2 X109.677 Y35.887 Z9.000 I0.872 J-0.361 F30000.000
G2 X110.887 Y35.323 Z9.000 I0.323 J-0.887 F30000.000
G2 X110.323 Y34.113 Z9.000 I-0.887 J-0.323 F30000.000
G2 X109.128 Y35.361 Z9.000 I-0.323 J0.887 F30000.000
G1 X109.128 Y35.361 Z8.500 F24000.000
G2 X109.677 Y35.887 Z8.500 I0.872 J-0.361 F30000.000
G2 X110.887 Y35.323 Z8.500 I0.323 J-0.887 F30000.000
G2 X110.323 Y34.113 Z8.500 I-0.887 J-0.323 F30000.000
G2 X109.128 Y35.361 Z8.500 I-0.323 J0.887 F30000.000
G1 X109.128 Y35.361 Z8.000 F24000.000
G2 X109.677 Y35.887 Z8.000 I0.872 J-0.361 F30000.000
G2 X110.887 Y35.323 Z8.000 I0.323 J-0.887 F30000.000
G2 X110.323 Y34.113 Z8.000 I-0.887 J-0.323 F30000.000
G2 X109.128 Y35.361 Z8.000 I-0.323 J0.887 F30000.000
G1 X109.128 Y35.361 Z7.500 F24000.000
G2 X109.677 Y35.887 Z7.500 I0.872 J-0.361 F30000.000
G2 X110.887 Y35.323 Z7.500 I0.323 J-0.887 F30000.000
G2 X110.323 Y34.113 Z7.500 I-0.887 J-0.323 F30000.000
G2 X109.128 Y35.361 Z7.500 I-0.323 J0.887 F30000.000
G1 X109.128 Y35.361 Z7.000 F24000.000
G2 X109.677 Y35.887 Z7.000 I0.872 J-0.361 F30000.000
G2 X110.887 Y35.323 Z7.000 I0.323 J-0.887 F30000.000
G2 X110.323 Y34.113 Z7.000 I-0.887 J-0.323 F30000.000
G2 X109.128 Y35.361 Z7.000 I-0.323 J0.887 F30000.000
G1 X109.128 Y35.361 Z6.500 F24000.000
G2 X109.677 Y35.887 Z6.500 I0.872 J-0.361 F30000.000
G2 X110.887 Y35.323 Z6.500 I0.323 J-0.887 F30000.000
G2 X110.323 Y34.113 Z6.500 I-0.887 J-0.323 F30000.000
G2 X109.128 Y35.361 Z6.500 I-0.323 J0.887 F30000.000
G1 X109.128 Y35.361 Z6.000 F24000.000
G2 X109.677 Y35.887 Z6.000 I0.872 J-0.361 F30000.000
G2 X110.887 Y35.323 Z6.000 I0.323 J-0.887 F30000.000
G2 X110.323 Y34.113 Z6.000 I-0.887 J-0.323 F30000.000
G2 X109.128 Y35.361 Z6.000 I-0.323 J0.887 F30000.000
G1 X109.128 Y35.361 Z5.500 F24000.000
G2 X109.677 Y35.887 Z5.500 I0.872 J-0.361 F30000.000
G2 X110.887 Y35.323 Z5.500 I0.323 J-0.887 F30000.000
G2 X110.323 Y34.113 Z5.500 I-0.887 J-0.323 F30000.000
G2 X109.128 Y35.361 Z5.500 I-0.323 J0.887 F30000.000
G1 X109.128 Y35.361 Z5.000 F24000.000
G2 X109.677 Y35.887 Z5.000 I0.872 J-0.361 F30000.000
G2 X110.887 Y35.323 Z5.000 I0.323 J-0.887 F30000.000
G2 X110.323 Y34.113 Z5.000 I-0.887 J-0.323 F30000.000
G2 X109.128 Y35.361 Z5.000 I-0.323 J0.887 F30000.000
G1 X109.128 Y35.361 Z4.500 F24000.000
G2 X109.677 Y35.887 Z4.500 I0.872 J-0.361 F30000.000
G2 X110.887 Y35.323 Z4.500 I0.323 J-0.887 F30000.000
G2 X110.323 Y34.113 Z4.500 I-0.887 J-0.323 F30000.000
G2 X109.128 Y35.361 Z4.500 I-0.323 J0.887 F30000.000
G1 X109.128 Y35.361 Z4.000 F24000.000
G2 X109.677 Y35.887 Z4.000 I0.872 J-0.361 F30000.000
G2 X110.887 Y35.323 Z4.000 I0.323 J-0.887 F30000.000
G2 X110.323 Y34.113 Z4.000 I-0.887 J-0.323 F30000.000
G2 X109.128 Y35.361 Z4.000 I-0.323 J0.887 F30000.000
G1 X109.128 Y35.361 Z3.500 F24000.000
G2 X109.677 Y35.887 Z3.500 I0.872 J-0.361 F30000.000
G2 X110.887 Y35.323 Z3.500 I0.323 J-0.887 F30000.000
G2 X110.323 Y34.113 Z3.500 I-0.887 J-0.323 F30000.000
G2 X109.128 Y35.361 Z3.500 I-0.323 J0.887 F30000.000
G1 X109.128 Y35.361 Z3.000 F24000.000
G2 X109.677 Y35.887 Z3.000 I0.872 J-0.361 F30000.000
G2 X110.887 Y35.323 Z3.000 I0.323 J-0.887 F30000.000
G2 X110.323 Y34.113 Z3.000 I-0.887 J-0.323 F30000.000
G2 X109.128 Y35.361 Z3.000 I-0.323 J0.887 F30000.000
G1 X109.128 Y35.361 Z2.500 F24000.000
G2 X109.677 Y35.887 Z2.500 I0.872 J-0.361 F30000.000
G2 X110.887 Y35.323 Z2.500 I0.323 J-0.887 F30000.000
G2 X110.323 Y34.113 Z2.500 I-0.887 J-0.323 F30000.000
G2 X109.128 Y35.361 Z2.500 I-0.323 J0.887 F30000.000
G1 X109.128 Y35.361 Z2.000 F24000.000
G2 X109.677 Y35.887 Z2.000 I0.872 J-0.361 F30000.000
G2 X110.887 Y35.323 Z2.000 I0.323 J-0.887 F30000.000
G2 X110.323 Y34.113 Z2.000 I-0.887 J-0.323 F30000.000
G2 X109.128 Y35.361 Z2.000 I-0.323 J0.887 F30000.000
G1 X109.128 Y35.361 Z1.500 F24000.000
G2 X109.677 Y35.887 Z1.500 I0.872 J-0.361 F30000.000
G2 X110.887 Y35.323 Z1.500 I0.323 J-0.887 F30000.000
G2 X110.323 Y34.113 Z1.500 I-0.887 J-0.323 F30000.000
G2 X109.128 Y35.361 Z1.500 I-0.323 J0.887 F30000.000
G1 X109.128 Y35.361 Z1.000 F24000.000
G2 X109.677 Y35.887 Z1.000 I0.872 J-0.361 F30000.000
G2 X110.887 Y35.323 Z1.000 I0.323 J-0.887 F30000.000
G2 X110.323 Y34.113 Z1.000 I-0.887 J-0.323 F30000.000
G2 X109.128 Y35.361 Z1.000 I-0.323 J0.887 F30000.000
G1 X109.128 Y35.361 Z0.500 F24000.000
G2 X109.677 Y35.887 Z0.500 I0.872 J-0.361 F30000.000
G2 X110.887 Y35.323 Z0.500 I0.323 J-0.887 F30000.000
G2 X110.323 Y34.113 Z0.500 I-0.887 J-0.323 F30000.000
G2 X109.128 Y35.361 Z0.500 I-0.323 J0.887 F30000.000
G1 X109.128 Y35.361 Z0.000 F24000.000
G2 X109.677 Y35.887 Z0.000 I0.872 J-0.361 F30000.000
G2 X110.887 Y35.323 Z0.000 I0.323 J-0.887 F30000.000
G2 X110.323 Y34.113 Z0.000 I-0.887 J-0.323 F30000.000
G2 X109.128 Y35.361 Z0.000 I-0.323 J0.887 F30000.000
G1 X109.128 Y35.361 Z-0.250 F24000.000
G2 X109.677 Y35.887 Z-0.250 I0.872 J-0.361 F30000.000
G2 X110.887 Y35.323 Z-0.250 I0.323 J-0.887 F30000.000
G2 X110.323 Y34.113 Z-0.250 I-0.887 J-0.323 F30000.000
G2 X109.128 Y35.361 Z-0.250 I-0.323 J0.887 F30000.000
G0 Z20.000
G0 Z20.000
G0 X109.128 Y35.361
G0 X129.056 Y35.016
G0 X129.056 Y35.016 Z18.000
G1 X129.056 Y35.016 Z12.500 F24000.000
G2 X129.677 Y35.887 Z12.500 I0.944 J-0.016 F30000.000
G2 X130.887 Y35.323 Z12.500 I0.323 J-0.887 F30000.000
G2 X130.323 Y34.113 Z12.500 I-0.887 J-0.323 F30000.000
G2 X129.056 Y35.016 Z12.500 I-0.323 J0.887 F30000.000
G1 X129.056 Y35.016 Z12.000 F24000.000
G2 X129.677 Y35.887 Z12.000 I0.944 J-0.016 F30000.000
G2 X130.887 Y35.323 Z12.000 I0.323 J-0.887 F30000.000
G2 X130.323 Y34.113 Z12.000 I-0.887 J-0.323 F30000.000
G2 X129.056 Y35.016 Z12.000 I-0.323 J0.887 F30000.000
G1 X129.056 Y35.016 Z11.500 F24000.000
G2 X129.677 Y35.887 Z11.500 I0.944 J-0.016 F30000.000
G2 X130.887 Y35.323 Z11.500 I0.323 J-0.887 F30000.000
G2 X130.323 Y34.113 Z11.500 I-0.887 J-0.323 F30000.000
G2 X129.056 Y35.016 Z11.500 I-0.323 J0.887 F30000.000
G1 X129.056 Y35.016 Z11.000 F24000.000
G2 X129.677 Y35.887 Z11.000 I0.944 J-0.016 F30000.000
G2 X130.887 Y35.323 Z11.000 I0.323 J-0.887 F30000.000
G2 X130.323 Y34.113 Z11.000 I-0.887 J-0.323 F30000.000
G2 X129.056 Y35.016 Z11.000 I-0.323 J0.887 F30000.000
G1 X129.056 Y35.016 Z10.500 F24000.000
G2 X129.677 Y35.887 Z10.500 I0.944 J-0.016 F30000.000
G2 X130.887 Y35.323 Z10.500 I0.323 J-0.887 F30000.000
G2 X130.323 Y34.113 Z10.500 I-0.887 J-0.323 F30000.000
G2 X129.056 Y35.016 Z10.500 I-0.323 J0.887 F30000.000
G1 X129.056 Y35.016 Z10.000 F24000.000
G2 X129.677 Y35.887 Z10.000 I0.944 J-0.016 F30000.000
G2 X130.887 Y35.323 Z10.000 I0.323 J-0.887 F30000.000
G2 X130.323 Y34.113 Z10.000 I-0.887 J-0.323 F30000.000
G2 X129.056 Y35.016 Z10.000 I-0.323 J0.887 F30000.000
G1 X129.056 Y35.016 Z9.500 F24000.000
G2 X129.677 Y35.887 Z9.500 I0.944 J-0.016 F30000.000
G2 X130.887 Y35.323 Z9.500 I0.323 J-0.887 F30000.000
G2 X130.323 Y34.113 Z9.500 I-0.887 J-0.323 F30000.000
G2 X129.056 Y35.016 Z9.500 I-0.323 J0.887 F30000.000
G1 X129.056 Y35.016 Z9.000 F24000.000
G2 X129.677 Y35.887 Z9.000 I0.944 J-0.016 F30000.000
G2 X130.887 Y35.323 Z9.000 I0.323 J-0.887 F30000.000
G2 X130.323 Y34.113 Z9.000 I-0.887 J-0.323 F30000.000
G2 X129.056 Y35.016 Z9.000 I-0.323 J0.887 F30000.000
G1 X129.056 Y35.016 Z8.500 F24000.000
G2 X129.677 Y35.887 Z8.500 I0.944 J-0.016 F30000.000
G2 X130.887 Y35.323 Z8.500 I0.323 J-0.887 F30000.000
G2 X130.323 Y34.113 Z8.500 I-0.887 J-0.323 F30000.000
G2 X129.056 Y35.016 Z8.500 I-0.323 J0.887 F30000.000
G1 X129.056 Y35.016 Z8.000 F24000.000
G2 X129.677 Y35.887 Z8.000 I0.944 J-0.016 F30000.000
G2 X130.887 Y35.323 Z8.000 I0.323 J-0.887 F30000.000
G2 X130.323 Y34.113 Z8.000 I-0.887 J-0.323 F30000.000
G2 X129.056 Y35.016 Z8.000 I-0.323 J0.887 F30000.000
G1 X129.056 Y35.016 Z7.500 F24000.000
G2 X129.677 Y35.887 Z7.500 I0.944 J-0.016 F30000.000
G2 X130.887 Y35.323 Z7.500 I0.323 J-0.887 F30000.000
G2 X130.323 Y34.113 Z7.500 I-0.887 J-0.323 F30000.000
G2 X129.056 Y35.016 Z7.500 I-0.323 J0.887 F30000.000
G1 X129.056 Y35.016 Z7.000 F24000.000
G2 X129.677 Y35.887 Z7.000 I0.944 J-0.016 F30000.000
G2 X130.887 Y35.323 Z7.000 I0.323 J-0.887 F30000.000
G2 X130.323 Y34.113 Z7.000 I-0.887 J-0.323 F30000.000
G2 X129.056 Y35.016 Z7.000 I-0.323 J0.887 F30000.000
G1 X129.056 Y35.016 Z6.500 F24000.000
G2 X129.677 Y35.887 Z6.500 I0.944 J-0.016 F30000.000
G2 X130.887 Y35.323 Z6.500 I0.323 J-0.887 F30000.000
G2 X130.323 Y34.113 Z6.500 I-0.887 J-0.323 F30000.000
G2 X129.056 Y35.016 Z6.500 I-0.323 J0.887 F30000.000
G1 X129.056 Y35.016 Z6.000 F24000.000
G2 X129.677 Y35.887 Z6.000 I0.944 J-0.016 F30000.000
G2 X130.887 Y35.323 Z6.000 I0.323 J-0.887 F30000.000
G2 X130.323 Y34.113 Z6.000 I-0.887 J-0.323 F30000.000
G2 X129.056 Y35.016 Z6.000 I-0.323 J0.887 F30000.000
G1 X129.056 Y35.016 Z5.500 F24000.000
G2 X129.677 Y35.887 Z5.500 I0.944 J-0.016 F30000.000
G2 X130.887 Y35.323 Z5.500 I0.323 J-0.887 F30000.000
G2 X130.323 Y34.113 Z5.500 I-0.887 J-0.323 F30000.000
G2 X129.056 Y35.016 Z5.500 I-0.323 J0.887 F30000.000
G1 X129.056 Y35.016 Z5.000 F24000.000
G2 X129.677 Y35.887 Z5.000 I0.944 J-0.016 F30000.000
G2 X130.887 Y35.323 Z5.000 I0.323 J-0.887 F30000.000
G2 X130.323 Y34.113 Z5.000 I-0.887 J-0.323 F30000.000
G2 X129.056 Y35.016 Z5.000 I-0.323 J0.887 F30000.000
G1 X129.056 Y35.016 Z4.500 F24000.000
G2 X129.677 Y35.887 Z4.500 I0.944 J-0.016 F30000.000
G2 X130.887 Y35.323 Z4.500 I0.323 J-0.887 F30000.000
G2 X130.323 Y34.113 Z4.500 I-0.887 J-0.323 F30000.000
G2 X129.056 Y35.016 Z4.500 I-0.323 J0.887 F30000.000
G1 X129.056 Y35.016 Z4.000 F24000.000
G2 X129.677 Y35.887 Z4.000 I0.944 J-0.016 F30000.000
G2 X130.887 Y35.323 Z4.000 I0.323 J-0.887 F30000.000
G2 X130.323 Y34.113 Z4.000 I-0.887 J-0.323 F30000.000
G2 X129.056 Y35.016 Z4.000 I-0.323 J0.887 F30000.000
G1 X129.056 Y35.016 Z3.500 F24000.000
G2 X129.677 Y35.887 Z3.500 I0.944 J-0.016 F30000.000
G2 X130.887 Y35.323 Z3.500 I0.323 J-0.887 F30000.000
G2 X130.323 Y34.113 Z3.500 I-0.887 J-0.323 F30000.000
G2 X129.056 Y35.016 Z3.500 I-0.323 J0.887 F30000.000
G1 X129.056 Y35.016 Z3.000 F24000.000
G2 X129.677 Y35.887 Z3.000 I0.944 J-0.016 F30000.000
G2 X130.887 Y35.323 Z3.000 I0.323 J-0.887 F30000.000
G2 X130.323 Y34.113 Z3.000 I-0.887 J-0.323 F30000.000
G2 X129.056 Y35.016 Z3.000 I-0.323 J0.887 F30000.000
G1 X129.056 Y35.016 Z2.500 F24000.000
G2 X129.677 Y35.887 Z2.500 I0.944 J-0.016 F30000.000
G2 X130.887 Y35.323 Z2.500 I0.323 J-0.887 F30000.000
G2 X130.323 Y34.113 Z2.500 I-0.887 J-0.323 F30000.000
G2 X129.056 Y35.016 Z2.500 I-0.323 J0.887 F30000.000
G1 X129.056 Y35.016 Z2.000 F24000.000
G2 X129.677 Y35.887 Z2.000 I0.944 J-0.016 F30000.000
G2 X130.887 Y35.323 Z2.000 I0.323 J-0.887 F30000.000
G2 X130.323 Y34.113 Z2.000 I-0.887 J-0.323 F30000.000
G2 X129.056 Y35.016 Z2.000 I-0.323 J0.887 F30000.000
G1 X129.056 Y35.016 Z1.500 F24000.000
G2 X129.677 Y35.887 Z1.500 I0.944 J-0.016 F30000.000
G2 X130.887 Y35.323 Z1.500 I0.323 J-0.887 F30000.000
G2 X130.323 Y34.113 Z1.500 I-0.887 J-0.323 F30000.000
G2 X129.056 Y35.016 Z1.500 I-0.323 J0.887 F30000.000
G1 X129.056 Y35.016 Z1.000 F24000.000
G2 X129.677 Y35.887 Z1.000 I0.944 J-0.016 F30000.000
G2 X130.887 Y35.323 Z1.000 I0.323 J-0.887 F30000.000
G2 X130.323 Y34.113 Z1.000 I-0.887 J-0.323 F30000.000
G2 X129.056 Y35.016 Z1.000 I-0.323 J0.887 F30000.000
G1 X129.056 Y35.016 Z0.500 F24000.000
G2 X129.677 Y35.887 Z0.500 I0.944 J-0.016 F30000.000
G2 X130.887 Y35.323 Z0.500 I0.323 J-0.887 F30000.000
G2 X130.323 Y34.113 Z0.500 I-0.887 J-0.323 F30000.000
G2 X129.056 Y35.016 Z0.500 I-0.323 J0.887 F30000.000
G1 X129.056 Y35.016 Z0.000 F24000.000
G2 X129.677 Y35.887 Z0.000 I0.944 J-0.016 F30000.000
G2 X130.887 Y35.323 Z0.000 I0.323 J-0.887 F30000.000
G2 X130.323 Y34.113 Z0.000 I-0.887 J-0.323 F30000.000
G2 X129.056 Y35.016 Z0.000 I-0.323 J0.887 F30000.000
G1 X129.056 Y35.016 Z-0.250 F24000.000
G2 X129.677 Y35.887 Z-0.250 I0.944 J-0.016 F30000.000
G2 X130.887 Y35.323 Z-0.250 I0.323 J-0.887 F30000.000
G2 X130.323 Y34.113 Z-0.250 I-0.887 J-0.323 F30000.000
G2 X129.056 Y35.016 Z-0.250 I-0.323 J0.887 F30000.000
G0 Z20.000
G0 Z20.000
G0 X129.056 Y35.016
G0 X148.813 Y39.953
G0 X148.813 Y39.953 Z18.000
G1 X148.813 Y39.953 Z12.500 F24000.000
G2 X148.926 Y40.178 Z12.500 I0.187 J0.047 F30000.000
G2 X149.178 Y40.074 Z12.500 I0.074 J-0.178 F30000.000
G2 X149.074 Y39.822 Z12.500 I-0.178 J-0.074 F30000.000
G2 X148.813 Y39.953 Z12.500 I-0.074 J0.178 F30000.000
G1 X148.813 Y39.953 Z12.000 F24000.000
G2 X148.926 Y40.178 Z12.000 I0.187 J0.047 F30000.000
G2 X149.178 Y40.074 Z12.000 I0.074 J-0.178 F30000.000
G2 X149.074 Y39.822 Z12.000 I-0.178 J-0.074 F30000.000
G2 X148.813 Y39.953 Z12.000 I-0.074 J0.178 F30000.000
G1 X148.813 Y39.953 Z11.500 F24000.000
G2 X148.926 Y40.178 Z11.500 I0.187 J0.047 F30000.000
G2 X149.178 Y40.074 Z11.500 I0.074 J-0.178 F30000.000
G2 X149.074 Y39.822 Z11.500 I-0.178 J-0.074 F30000.000
G2 X148.813 Y39.953 Z11.500 I-0.074 J0.178 F30000.000
G1 X148.813 Y39.953 Z11.000 F24000.000
G2 X148.926 Y40.178 Z11.000 I0.187 J0.047 F30000.000
G2 X149.178 Y40.074 Z11.000 I0.074 J-0.178 F30000.000
G2 X149.074 Y39.822 Z11.000 I-0.178 J-0.074 F30000.000
G2 X148.813 Y39.953 Z11.000 I-0.074 J0.178 F30000.000
G1 X148.813 Y39.953 Z10.500 F24000.000
G2 X148.926 Y40.178 Z10.500 I0.187 J0.047 F30000.000
G2 X149.178 Y40.074 Z10.500 I0.074 J-0.178 F30000.000
G2 X149.074 Y39.822 Z10.500 I-0.178 J-0.074 F30000.000
G2 X148.813 Y39.953 Z10.500 I-0.074 J0.178 F30000.000
G1 X148.813 Y39.953 Z10.000 F24000.000
G2 X148.926 Y40.178 Z10.000 I0.187 J0.047 F30000.000
G2 X149.178 Y40.074 Z10.000 I0.074 J-0.178 F30000.000
G2 X149.074 Y39.822 Z10.000 I-0.178 J-0.074 F30000.000
G2 X148.813 Y39.953 Z10.000 I-0.074 J0.178 F30000.000
G1 X148.813 Y39.953 Z9.500 F24000.000
G2 X148.926 Y40.178 Z9.500 I0.187 J0.047 F30000.000
G2 X149.178 Y40.074 Z9.500 I0.074 J-0.178 F30000.000
G2 X149.074 Y39.822 Z9.500 I-0.178 J-0.074 F30000.000
G2 X148.813 Y39.953 Z9.500 I-0.074 J0.178 F30000.000
G1 X148.813 Y39.953 Z9.000 F24000.000
G2 X148.926 Y40.178 Z9.000 I0.187 J0.047 F30000.000
G2 X149.178 Y40.074 Z9.000 I0.074 J-0.178 F30000.000
G2 X149.074 Y39.822 Z9.000 I-0.178 J-0.074 F30000.000
G2 X148.813 Y39.953 Z9.000 I-0.074 J0.178 F30000.000
G1 X148.813 Y39.953 Z8.500 F24000.000
G2 X148.926 Y40.178 Z8.500 I0.187 J0.047 F30000.000
G2 X149.178 Y40.074 Z8.500 I0.074 J-0.178 F30000.000
G2 X149.074 Y39.822 Z8.500 I-0.178 J-0.074 F30000.000
G2 X148.813 Y39.953 Z8.500 I-0.074 J0.178 F30000.000
G1 X148.813 Y39.953 Z8.000 F24000.000
G2 X148.926 Y40.178 Z8.000 I0.187 J0.047 F30000.000
G2 X149.178 Y40.074 Z8.000 I0.074 J-0.178 F30000.000
G2 X149.074 Y39.822 Z8.000 I-0.178 J-0.074 F30000.000
G2 X148.813 Y39.953 Z8.000 I-0.074 J0.178 F30000.000
G1 X148.813 Y39.953 Z7.500 F24000.000
G2 X148.926 Y40.178 Z7.500 I0.187 J0.047 F30000.000
G2 X149.178 Y40.074 Z7.500 I0.074 J-0.178 F30000.000
G2 X149.074 Y39.822 Z7.500 I-0.178 J-0.074 F30000.000
G2 X148.813 Y39.953 Z7.500 I-0.074 J0.178 F30000.000
G1 X148.813 Y39.953 Z7.000 F24000.000
G2 X148.926 Y40.178 Z7.000 I0.187 J0.047 F30000.000
G2 X149.178 Y40.074 Z7.000 I0.074 J-0.178 F30000.000
G2 X149.074 Y39.822 Z7.000 I-0.178 J-0.074 F30000.000
G2 X148.813 Y39.953 Z7.000 I-0.074 J0.178 F30000.000
G1 X148.813 Y39.953 Z6.500 F24000.000
G2 X148.926 Y40.178 Z6.500 I0.187 J0.047 F30000.000
G2 X149.178 Y40.074 Z6.500 I0.074 J-0.178 F30000.000
G2 X149.074 Y39.822 Z6.500 I-0.178 J-0.074 F30000.000
G2 X148.813 Y39.953 Z6.500 I-0.074 J0.178 F30000.000
G1 X148.813 Y39.953 Z6.000 F24000.000
G2 X148.926 Y40.178 Z6.000 I0.187 J0.047 F30000.000
G2 X149.178 Y40.074 Z6.000 I0.074 J-0.178 F30000.000
G2 X149.074 Y39.822 Z6.000 I-0.178 J-0.074 F30000.000
G2 X148.813 Y39.953 Z6.000 I-0.074 J0.178 F30000.000
G1 X148.813 Y39.953 Z5.500 F24000.000
G2 X148.926 Y40.178 Z5.500 I0.187 J0.047 F30000.000
G2 X149.178 Y40.074 Z5.500 I0.074 J-0.178 F30000.000
G2 X149.074 Y39.822 Z5.500 I-0.178 J-0.074 F30000.000
G2 X148.813 Y39.953 Z5.500 I-0.074 J0.178 F30000.000
G1 X148.813 Y39.953 Z5.000 F24000.000
G2 X148.926 Y40.178 Z5.000 I0.187 J0.047 F30000.000
G2 X149.178 Y40.074 Z5.000 I0.074 J-0.178 F30000.000
G2 X149.074 Y39.822 Z5.000 I-0.178 J-0.074 F30000.000
G2 X148.813 Y39.953 Z5.000 I-0.074 J0.178 F30000.000
G1 X148.813 Y39.953 Z4.500 F24000.000
G2 X148.926 Y40.178 Z4.500 I0.187 J0.047 F30000.000
G2 X149.178 Y40.074 Z4.500 I0.074 J-0.178 F30000.000
G2 X149.074 Y39.822 Z4.500 I-0.178 J-0.074 F30000.000
G2 X148.813 Y39.953 Z4.500 I-0.074 J0.178 F30000.000
G1 X148.813 Y39.953 Z4.000 F24000.000
G2 X148.926 Y40.178 Z4.000 I0.187 J0.047 F30000.000
G2 X149.178 Y40.074 Z4.000 I0.074 J-0.178 F30000.000
G2 X149.074 Y39.822 Z4.000 I-0.178 J-0.074 F30000.000
G2 X148.813 Y39.953 Z4.000 I-0.074 J0.178 F30000.000
G1 X148.813 Y39.953 Z3.500 F24000.000
G2 X148.926 Y40.178 Z3.500 I0.187 J0.047 F30000.000
G2 X149.178 Y40.074 Z3.500 I0.074 J-0.178 F30000.000
G2 X149.074 Y39.822 Z3.500 I-0.178 J-0.074 F30000.000
G2 X148.813 Y39.953 Z3.500 I-0.074 J0.178 F30000.000
G1 X148.813 Y39.953 Z3.000 F24000.000
G2 X148.926 Y40.178 Z3.000 I0.187 J0.047 F30000.000
G2 X149.178 Y40.074 Z3.000 I0.074 J-0.178 F30000.000
G2 X149.074 Y39.822 Z3.000 I-0.178 J-0.074 F30000.000
G2 X148.813 Y39.953 Z3.000 I-0.074 J0.178 F30000.000
G1 X148.813 Y39.953 Z2.500 F24000.000
G2 X148.926 Y40.178 Z2.500 I0.187 J0.047 F30000.000
G2 X149.178 Y40.074 Z2.500 I0.074 J-0.178 F30000.000
G2 X149.074 Y39.822 Z2.500 I-0.178 J-0.074 F30000.000
G2 X148.813 Y39.953 Z2.500 I-0.074 J0.178 F30000.000
G1 X148.813 Y39.953 Z2.000 F24000.000
G2 X148.926 Y40.178 Z2.000 I0.187 J0.047 F30000.000
G2 X149.178 Y40.074 Z2.000 I0.074 J-0.178 F30000.000
G2 X149.074 Y39.822 Z2.000 I-0.178 J-0.074 F30000.000
G2 X148.813 Y39.953 Z2.000 I-0.074 J0.178 F30000.000
G1 X148.813 Y39.953 Z1.500 F24000.000
G2 X148.926 Y40.178 Z1.500 I0.187 J0.047 F30000.000
G2 X149.178 Y40.074 Z1.500 I0.074 J-0.178 F30000.000
G2 X149.074 Y39.822 Z1.500 I-0.178 J-0.074 F30000.000
G2 X148.813 Y39.953 Z1.500 I-0.074 J0.178 F30000.000
G1 X148.813 Y39.953 Z1.000 F24000.000
G2 X148.926 Y40.178 Z1.000 I0.187 J0.047 F30000.000
G2 X149.178 Y40.074 Z1.000 I0.074 J-0.178 F30000.000
G2 X149.074 Y39.822 Z1.000 I-0.178 J-0.074 F30000.000
G2 X148.813 Y39.953 Z1.000 I-0.074 J0.178 F30000.000
G1 X148.813 Y39.953 Z0.500 F24000.000
G2 X148.926 Y40.178 Z0.500 I0.187 J0.047 F30000.000
G2 X149.178 Y40.074 Z0.500 I0.074 J-0.178 F30000.000
G2 X149.074 Y39.822 Z0.500 I-0.178 J-0.074 F30000.000
G2 X148.813 Y39.953 Z0.500 I-0.074 J0.178 F30000.000
G1 X148.813 Y39.953 Z0.000 F24000.000
G2 X148.926 Y40.178 Z0.000 I0.187 J0.047 F30000.000
G2 X149.178 Y40.074 Z0.000 I0.074 J-0.178 F30000.000
G2 X149.074 Y39.822 Z0.000 I-0.178 J-0.074 F30000.000
G2 X148.813 Y39.953 Z0.000 I-0.074 J0.178 F30000.000
G1 X148.813 Y39.953 Z-0.250 F24000.000
G2 X148.926 Y40.178 Z-0.250 I0.187 J0.047 F30000.000
G2 X149.178 Y40.074 Z-0.250 I0.074 J-0.178 F30000.000
G2 X149.074 Y39.822 Z-0.250 I-0.178 J-0.074 F30000.000
G2 X148.813 Y39.953 Z-0.250 I-0.074 J0.178 F30000.000
G0 Z20.000
G0 Z20.000
G0 X148.813 Y39.953
G0 X148.998 Y59.808
G0 X148.998 Y59.808 Z18.000
G1 X148.998 Y59.808 Z12.500 F24000.000
G2 X148.926 Y60.178 Z12.500 I0.002 J0.192 F30000.000
G2 X149.074 Y59.822 Z12.500 I0.074 J-0.178 F30000.000
G2 X148.998 Y59.808 Z12.500 I-0.074 J0.178 F30000.000
G1 X148.998 Y59.808 Z12.000 F24000.000
G2 X148.926 Y60.178 Z12.000 I0.002 J0.192 F30000.000
G2 X149.074 Y59.822 Z12.000 I0.074 J-0.178 F30000.000
G2 X148.998 Y59.808 Z12.000 I-0.074 J0.178 F30000.000
G1 X148.998 Y59.808 Z11.500 F24000.000
G2 X148.926 Y60.178 Z11.500 I0.002 J0.192 F30000.000
G2 X149.074 Y59.822 Z11.500 I0.074 J-0.178 F30000.000
G2 X148.998 Y59.808 Z11.500 I-0.074 J0.178 F30000.000
G1 X148.998 Y59.808 Z11.000 F24000.000
G2 X148.926 Y60.178 Z11.000 I0.002 J0.192 F30000.000
G2 X149.074 Y59.822 Z11.000 I0.074 J-0.178 F30000.000
G2 X148.998 Y59.808 Z11.000 I-0.074 J0.178 F30000.000
G1 X148.998 Y59.808 Z10.500 F24000.000
G2 X148.926 Y60.178 Z10.500 I0.002 J0.192 F30000.000
G2 X149.074 Y59.822 Z10.500 I0.074 J-0.178 F30000.000
G2 X148.998 Y59.808 Z10.500 I-0.074 J0.178 F30000.000
G1 X148.998 Y59.808 Z10.000 F24000.000
G2 X148.926 Y60.178 Z10.000 I0.002 J0.192 F30000.000
G2 X149.074 Y59.822 Z10.000 I0.074 J-0.178 F30000.000
G2 X148.998 Y59.808 Z10.000 I-0.074 J0.178 F30000.000
G1 X148.998 Y59.808 Z9.500 F24000.000
G2 X148.926 Y60.178 Z9.500 I0.002 J0.192 F30000.000
G2 X149.074 Y59.822 Z9.500 I0.074 J-0.178 F30000.000
G2 X148.998 Y59.808 Z9.500 I-0.074 J0.178 F30000.000
G1 X148.998 Y59.808 Z9.000 F24000.000
G2 X148.926 Y60.178 Z9.000 I0.002 J0.192 F30000.000
G2 X149.074 Y59.822 Z9.000 I0.074 J-0.178 F30000.000
G2 X148.998 Y59.808 Z9.000 I-0.074 J0.178 F30000.000
G1 X148.998 Y59.808 Z8.500 F24000.000
G2 X148.926 Y60.178 Z8.500 I0.002 J0.192 F30000.000
G2 X149.074 Y59.822 Z8.500 I0.074 J-0.178 F30000.000
G2 X148.998 Y59.808 Z8.500 I-0.074 J0.178 F30000.000
G1 X148.998 Y59.808 Z8.000 F24000.000
G2 X148.926 Y60.178 Z8.000 I0.002 J0.192 F30000.000
G2 X149.074 Y59.822 Z8.000 I0.074 J-0.178 F30000.000
G2 X148.998 Y59.808 Z8.000 I-0.074 J0.178 F30000.000
G1 X148.998 Y59.808 Z7.500 F24000.000
G2 X148.926 Y60.178 Z7.500 I0.002 J0.192 F30000.000
G2 X149.074 Y59.822 Z7.500 I0.074 J-0.178 F30000.000
G2 X148.998 Y59.808 Z7.500 I-0.074 J0.178 F30000.000
G1 X148.998 Y59.808 Z7.000 F24000.000
G2 X148.926 Y60.178 Z7.000 I0.002 J0.192 F30000.000
G2 X149.074 Y59.822 Z7.000 I0.074 J-0.178 F30000.000
G2 X148.998 Y59.808 Z7.000 I-0.074 J0.178 F30000.000
G1 X148.998 Y59.808 Z6.500 F24000.000
G2 X148.926 Y60.178 Z6.500 I0.002 J0.192 F30000.000
G2 X149.074 Y59.822 Z6.500 I0.074 J-0.178 F30000.000
G2 X148.998 Y59.808 Z6.500 I-0.074 J0.178 F30000.000
G1 X148.998 Y59.808 Z6.000 F24000.000
G2 X148.926 Y60.178 Z6.000 I0.002 J0.192 F30000.000
G2 X149.074 Y59.822 Z6.000 I0.074 J-0.178 F30000.000
G2 X148.998 Y59.808 Z6.000 I-0.074 J0.178 F30000.000
G1 X148.998 Y59.808 Z5.500 F24000.000
G2 X148.926 Y60.178 Z5.500 I0.002 J0.192 F30000.000
G2 X149.074 Y59.822 Z5.500 I0.074 J-0.178 F30000.000
G2 X148.998 Y59.808 Z5.500 I-0.074 J0.178 F30000.000
G1 X148.998 Y59.808 Z5.000 F24000.000
G2 X148.926 Y60.178 Z5.000 I0.002 J0.192 F30000.000
G2 X149.074 Y59.822 Z5.000 I0.074 J-0.178 F30000.000
G2 X148.998 Y59.808 Z5.000 I-0.074 J0.178 F30000.000
G1 X148.998 Y59.808 Z4.500 F24000.000
G2 X148.926 Y60.178 Z4.500 I0.002 J0.192 F30000.000
G2 X149.074 Y59.822 Z4.500 I0.074 J-0.178 F30000.000
G2 X148.998 Y59.808 Z4.500 I-0.074 J0.178 F30000.000
G1 X148.998 Y59.808 Z4.000 F24000.000
G2 X148.926 Y60.178 Z4.000 I0.002 J0.192 F30000.000
G2 X149.074 Y59.822 Z4.000 I0.074 J-0.178 F30000.000
G2 X148.998 Y59.808 Z4.000 I-0.074 J0.178 F30000.000
G1 X148.998 Y59.808 Z3.500 F24000.000
G2 X148.926 Y60.178 Z3.500 I0.002 J0.192 F30000.000
G2 X149.074 Y59.822 Z3.500 I0.074 J-0.178 F30000.000
G2 X148.998 Y59.808 Z3.500 I-0.074 J0.178 F30000.000
G1 X148.998 Y59.808 Z3.000 F24000.000
G2 X148.926 Y60.178 Z3.000 I0.002 J0.192 F30000.000
G2 X149.074 Y59.822 Z3.000 I0.074 J-0.178 F30000.000
G2 X148.998 Y59.808 Z3.000 I-0.074 J0.178 F30000.000
G1 X148.998 Y59.808 Z2.500 F24000.000
G2 X148.926 Y60.178 Z2.500 I0.002 J0.192 F30000.000
G2 X149.074 Y59.822 Z2.500 I0.074 J-0.178 F30000.000
G2 X148.998 Y59.808 Z2.500 I-0.074 J0.178 F30000.000
G1 X148.998 Y59.808 Z2.000 F24000.000
G2 X148.926 Y60.178 Z2.000 I0.002 J0.192 F30000.000
G2 X149.074 Y59.822 Z2.000 I0.074 J-0.178 F30000.000
G2 X148.998 Y59.808 Z2.000 I-0.074 J0.178 F30000.000
G1 X148.998 Y59.808 Z1.500 F24000.000
G2 X148.926 Y60.178 Z1.500 I0.002 J0.192 F30000.000
G2 X149.074 Y59.822 Z1.500 I0.074 J-0.178 F30000.000
G2 X148.998 Y59.808 Z1.500 I-0.074 J0.178 F30000.000
G1 X148.998 Y59.808 Z1.000 F24000.000
G2 X148.926 Y60.178 Z1.000 I0.002 J0.192 F30000.000
G2 X149.074 Y59.822 Z1.000 I0.074 J-0.178 F30000.000
G2 X148.998 Y59.808 Z1.000 I-0.074 J0.178 F30000.000
G1 X148.998 Y59.808 Z0.500 F24000.000
G2 X148.926 Y60.178 Z0.500 I0.002 J0.192 F30000.000
G2 X149.074 Y59.822 Z0.500 I0.074 J-0.178 F30000.000
G2 X148.998 Y59.808 Z0.500 I-0.074 J0.178 F30000.000
G1 X148.998 Y59.808 Z0.000 F24000.000
G2 X148.926 Y60.178 Z0.000 I0.002 J0.192 F30000.000
G2 X149.074 Y59.822 Z0.000 I0.074 J-0.178 F30000.000
G2 X148.998 Y59.808 Z0.000 I-0.074 J0.178 F30000.000
G1 X148.998 Y59.808 Z-0.250 F24000.000
G2 X148.926 Y60.178 Z-0.250 I0.002 J0.192 F30000.000
G2 X149.074 Y59.822 Z-0.250 I0.074 J-0.178 F30000.000
G2 X148.998 Y59.808 Z-0.250 I-0.074 J0.178 F30000.000
G0 Z20.000
G0 Z20.000
G0 X148.998 Y59.808
G0 X130.185 Y-34.074
G0 X130.185 Y-34.074 Z18.000
G1 X130.185 Y-34.074 Z12.500 F24000.000
G2 X130.323 Y-35.887 Z12.500 I-0.185 J-0.926 F30000.000
G2 X129.677 Y-34.113 Z12.500 I-0.323 J0.887 F30000.000
G2 X130.185 Y-34.074 Z12.500 I0.323 J-0.887 F30000.000
G1 X130.185 Y-34.074 Z12.000 F24000.000
G2 X130.323 Y-35.887 Z12.000 I-0.185 J-0.926 F30000.000
G2 X129.677 Y-34.113 Z12.000 I-0.323 J0.887 F30000.000
G2 X130.185 Y-34.074 Z12.000 I0.323 J-0.887 F30000.000
G1 X130.185 Y-34.074 Z11.500 F24000.000
G2 X130.323 Y-35.887 Z11.500 I-0.185 J-0.926 F30000.000
G2 X129.677 Y-34.113 Z11.500 I-0.323 J0.887 F30000.000
G2 X130.185 Y-34.074 Z11.500 I0.323 J-0.887 F30000.000
G1 X130.185 Y-34.074 Z11.000 F24000.000
G2 X130.323 Y-35.887 Z11.000 I-0.185 J-0.926 F30000.000
G2 X129.677 Y-34.113 Z11.000 I-0.323 J0.887 F30000.000
G2 X130.185 Y-34.074 Z11.000 I0.323 J-0.887 F30000.000
G1 X130.185 Y-34.074 Z10.500 F24000.000
G2 X130.323 Y-35.887 Z10.500 I-0.185 J-0.926 F30000.000
G2 X129.677 Y-34.113 Z10.500 I-0.323 J0.887 F30000.000
G2 X130.185 Y-34.074 Z10.500 I0.323 J-0.887 F30000.000
G1 X130.185 Y-34.074 Z10.000 F24000.000
G2 X130.323 Y-35.887 Z10.000 I-0.185 J-0.926 F30000.000
G2 X129.677 Y-34.113 Z10.000 I-0.323 J0.887 F30000.000
G2 X130.185 Y-34.074 Z10.000 I0.323 J-0.887 F30000.000
G1 X130.185 Y-34.074 Z9.500 F24000.000
G2 X130.323 Y-35.887 Z9.500 I-0.185 J-0.926 F30000.000
G2 X129.677 Y-34.113 Z9.500 I-0.323 J0.887 F30000.000
G2 X130.185 Y-34.074 Z9.500 I0.323 J-0.887 F30000.000
G1 X130.185 Y-34.074 Z9.000 F24000.000
G2 X130.323 Y-35.887 Z9.000 I-0.185 J-0.926 F30000.000
G2 X129.677 Y-34.113 Z9.000 I-0.323 J0.887 F30000.000
G2 X130.185 Y-34.074 Z9.000 I0.323 J-0.887 F30000.000
G1 X130.185 Y-34.074 Z8.500 F24000.000
G2 X130.323 Y-35.887 Z8.500 I-0.185 J-0.926 F30000.000
G2 X129.677 Y-34.113 Z8.500 I-0.323 J0.887 F30000.000
G2 X130.185 Y-34.074 Z8.500 I0.323 J-0.887 F30000.000
G1 X130.185 Y-34.074 Z8.000 F24000.000
G2 X130.323 Y-35.887 Z8.000 I-0.185 J-0.926 F30000.000
G2 X129.677 Y-34.113 Z8.000 I-0.323 J0.887 F30000.000
G2 X130.185 Y-34.074 Z8.000 I0.323 J-0.887 F30000.000
G1 X130.185 Y-34.074 Z7.500 F24000.000
G2 X130.323 Y-35.887 Z7.500 I-0.185 J-0.926 F30000.000
G2 X129.677 Y-34.113 Z7.500 I-0.323 J0.887 F30000.000
G2 X130.185 Y-34.074 Z7.500 I0.323 J-0.887 F30000.000
G1 X130.185 Y-34.074 Z7.000 F24000.000
G2 X130.323 Y-35.887 Z7.000 I-0.185 J-0.926 F30000.000
G2 X129.677 Y-34.113 Z7.000 I-0.323 J0.887 F30000.000
G2 X130.185 Y-34.074 Z7.000 I0.323 J-0.887 F30000.000
G1 X130.185 Y-34.074 Z6.500 F24000.000
G2 X130.323 Y-35.887 Z6.500 I-0.185 J-0.926 F30000.000
G2 X129.677 Y-34.113 Z6.500 I-0.323 J0.887 F30000.000
G2 X130.185 Y-34.074 Z6.500 I0.323 J-0.887 F30000.000
G1 X130.185 Y-34.074 Z6.000 F24000.000
G2 X130.323 Y-35.887 Z6.000 I-0.185 J-0.926 F30000.000
G2 X129.677 Y-34.113 Z6.000 I-0.323 J0.887 F30000.000
G2 X130.185 Y-34.074 Z6.000 I0.323 J-0.887 F30000.000
G1 X130.185 Y-34.074 Z5.500 F24000.000
G2 X130.323 Y-35.887 Z5.500 I-0.185 J-0.926 F30000.000
G2 X129.677 Y-34.113 Z5.500 I-0.323 J0.887 F30000.000
G2 X130.185 Y-34.074 Z5.500 I0.323 J-0.887 F30000.000
G1 X130.185 Y-34.074 Z5.000 F24000.000
G2 X130.323 Y-35.887 Z5.000 I-0.185 J-0.926 F30000.000
G2 X129.677 Y-34.113 Z5.000 I-0.323 J0.887 F30000.000
G2 X130.185 Y-34.074 Z5.000 I0.323 J-0.887 F30000.000
G1 X130.185 Y-34.074 Z4.500 F24000.000
G2 X130.323 Y-35.887 Z4.500 I-0.185 J-0.926 F30000.000
G2 X129.677 Y-34.113 Z4.500 I-0.323 J0.887 F30000.000
G2 X130.185 Y-34.074 Z4.500 I0.323 J-0.887 F30000.000
G1 X130.185 Y-34.074 Z4.000 F24000.000
G2 X130.323 Y-35.887 Z4.000 I-0.185 J-0.926 F30000.000
G2 X129.677 Y-34.113 Z4.000 I-0.323 J0.887 F30000.000
G2 X130.185 Y-34.074 Z4.000 I0.323 J-0.887 F30000.000
G1 X130.185 Y-34.074 Z3.500 F24000.000
G2 X130.323 Y-35.887 Z3.500 I-0.185 J-0.926 F30000.000
G2 X129.677 Y-34.113 Z3.500 I-0.323 J0.887 F30000.000
G2 X130.185 Y-34.074 Z3.500 I0.323 J-0.887 F30000.000
G1 X130.185 Y-34.074 Z3.000 F24000.000
G2 X130.323 Y-35.887 Z3.000 I-0.185 J-0.926 F30000.000
G2 X129.677 Y-34.113 Z3.000 I-0.323 J0.887 F30000.000
G2 X130.185 Y-34.074 Z3.000 I0.323 J-0.887 F30000.000
G1 X130.185 Y-34.074 Z2.500 F24000.000
G2 X130.323 Y-35.887 Z2.500 I-0.185 J-0.926 F30000.000
G2 X129.677 Y-34.113 Z2.500 I-0.323 J0.887 F30000.000
G2 X130.185 Y-34.074 Z2.500 I0.323 J-0.887 F30000.000
G1 X130.185 Y-34.074 Z2.000 F24000.000
G2 X130.323 Y-35.887 Z2.000 I-0.185 J-0.926 F30000.000
G2 X129.677 Y-34.113 Z2.000 I-0.323 J0.887 F30000.000
G2 X130.185 Y-34.074 Z2.000 I0.323 J-0.887 F30000.000
G1 X130.185 Y-34.074 Z1.500 F24000.000
G2 X130.323 Y-35.887 Z1.500 I-0.185 J-0.926 F30000.000
G2 X129.677 Y-34.113 Z1.500 I-0.323 J0.887 F30000.000
G2 X130.185 Y-34.074 Z1.500 I0.323 J-0.887 F30000.000
G1 X130.185 Y-34.074 Z1.000 F24000.000
G2 X130.323 Y-35.887 Z1.000 I-0.185 J-0.926 F30000.000
G2 X129.677 Y-34.113 Z1.000 I-0.323 J0.887 F30000.000
G2 X130.185 Y-34.074 Z1.000 I0.323 J-0.887 F30000.000
G1 X130.185 Y-34.074 Z0.500 F24000.000
G2 X130.323 Y-35.887 Z0.500 I-0.185 J-0.926 F30000.000
G2 X129.677 Y-34.113 Z0.500 I-0.323 J0.887 F30000.000
G2 X130.185 Y-34.074 Z0.500 I0.323 J-0.887 F30000.000
G1 X130.185 Y-34.074 Z0.000 F24000.000
G2 X130.323 Y-35.887 Z0.000 I-0.185 J-0.926 F30000.000
G2 X129.677 Y-34.113 Z0.000 I-0.323 J0.887 F30000.000
G2 X130.185 Y-34.074 Z0.000 I0.323 J-0.887 F30000.000
G1 X130.185 Y-34.074 Z-0.250 F24000.000
G2 X130.323 Y-35.887 Z-0.250 I-0.185 J-0.926 F30000.000
G2 X129.677 Y-34.113 Z-0.250 I-0.323 J0.887 F30000.000
G2 X130.185 Y-34.074 Z-0.250 I0.323 J-0.887 F30000.000
G0 Z20.000
G0 Z20.000
G0 X130.185 Y-34.074
G0 X110.943 Y-34.957
G0 X110.943 Y-34.957 Z18.000
G1 X110.943 Y-34.957 Z12.500 F24000.000
G2 X110.323 Y-35.887 Z12.500 I-0.943 J-0.043 F30000.000
G2 X109.677 Y-34.113 Z12.500 I-0.323 J0.887 F30000.000
G2 X110.943 Y-34.957 Z12.500 I0.323 J-0.887 F30000.000
G1 X110.943 Y-34.957 Z12.000 F24000.000
G2 X110.323 Y-35.887 Z12.000 I-0.943 J-0.043 F30000.000
G2 X109.677 Y-34.113 Z12.000 I-0.323 J0.887 F30000.000
G2 X110.943 Y-34.957 Z12.000 I0.323 J-0.887 F30000.000
G1 X110.943 Y-34.957 Z11.500 F24000.000
G2 X110.323 Y-35.887 Z11.500 I-0.943 J-0.043 F30000.000
G2 X109.677 Y-34.113 Z11.500 I-0.323 J0.887 F30000.000
G2 X110.943 Y-34.957 Z11.500 I0.323 J-0.887 F30000.000
G1 X110.943 Y-34.957 Z11.000 F24000.000
G2 X110.323 Y-35.887 Z11.000 I-0.943 J-0.043 F30000.000
G2 X109.677 Y-34.113 Z11.000 I-0.323 J0.887 F30000.000
G2 X110.943 Y-34.957 Z11.000 I0.323 J-0.887 F30000.000
G1 X110.943 Y-34.957 Z10.500 F24000.000
G2 X110.323 Y-35.887 Z10.500 I-0.943 J-0.043 F30000.000
G2 X109.677 Y-34.113 Z10.500 I-0.323 J0.887 F30000.000
G2 X110.943 Y-34.957 Z10.500 I0.323 J-0.887 F30000.000
G1 X110.943 Y-34.957 Z10.000 F24000.000
G2 X110.323 Y-35.887 Z10.000 I-0.943 J-0.043 F30000.000
G2 X109.677 Y-34.113 Z10.000 I-0.323 J0.887 F30000.000
G2 X110.943 Y-34.957 Z10.000 I0.323 J-0.887 F30000.000
G1 X110.943 Y-34.957 Z9.500 F24000.000
G2 X110.323 Y-35.887 Z9.500 I-0.943 J-0.043 F30000.000
G2 X109.677 Y-34.113 Z9.500 I-0.323 J0.887 F30000.000
G2 X110.943 Y-34.957 Z9.500 I0.323 J-0.887 F30000.000
G1 X110.943 Y-34.957 Z9.000 F24000.000
G2 X110.323 Y-35.887 Z9.000 I-0.943 J-0.043 F30000.000
G2 X109.677 Y-34.113 Z9.000 I-0.323 J0.887 F30000.000
G2 X110.943 Y-34.957 Z9.000 I0.323 J-0.887 F30000.000
G1 X110.943 Y-34.957 Z8.500 F24000.000
G2 X110.323 Y-35.887 Z8.500 I-0.943 J-0.043 F30000.000
G2 X109.677 Y-34.113 Z8.500 I-0.323 J0.887 F30000.000
G2 X110.943 Y-34.957 Z8.500 I0.323 J-0.887 F30000.000
G1 X110.943 Y-34.957 Z8.000 F24000.000
G2 X110.323 Y-35.887 Z8.000 I-0.943 J-0.043 F30000.000
G2 X109.677 Y-34.113 Z8.000 I-0.323 J0.887 F30000.000
G2 X110.943 Y-34.957 Z8.000 I0.323 J-0.887 F30000.000
G1 X110.943 Y-34.957 Z7.500 F24000.000
G2 X110.323 Y-35.887 Z7.500 I-0.943 J-0.043 F30000.000
G2 X109.677 Y-34.113 Z7.500 I-0.323 J0.887 F30000.000
G2 X110.943 Y-34.957 Z7.500 I0.323 J-0.887 F30000.000
G1 X110.943 Y-34.957 Z7.000 F24000.000
G2 X110.323 Y-35.887 Z7.000 I-0.943 J-0.043 F30000.000
G2 X109.677 Y-34.113 Z7.000 I-0.323 J0.887 F30000.000
G2 X110.943 Y-34.957 Z7.000 I0.323 J-0.887 F30000.000
G1 X110.943 Y-34.957 Z6.500 F24000.000
G2 X110.323 Y-35.887 Z6.500 I-0.943 J-0.043 F30000.000
G2 X109.677 Y-34.113 Z6.500 I-0.323 J0.887 F30000.000
G2 X110.943 Y-34.957 Z6.500 I0.323 J-0.887 F30000.000
G1 X110.943 Y-34.957 Z6.000 F24000.000
G2 X110.323 Y-35.887 Z6.000 I-0.943 J-0.043 F30000.000
G2 X109.677 Y-34.113 Z6.000 I-0.323 J0.887 F30000.000
G2 X110.943 Y-34.957 Z6.000 I0.323 J-0.887 F30000.000
G1 X110.943 Y-34.957 Z5.500 F24000.000
G2 X110.323 Y-35.887 Z5.500 I-0.943 J-0.043 F30000.000
G2 X109.677 Y-34.113 Z5.500 I-0.323 J0.887 F30000.000
G2 X110.943 Y-34.957 Z5.500 I0.323 J-0.887 F30000.000
G1 X110.943 Y-34.957 Z5.000 F24000.000
G2 X110.323 Y-35.887 Z5.000 I-0.943 J-0.043 F30000.000
G2 X109.677 Y-34.113 Z5.000 I-0.323 J0.887 F30000.000
G2 X110.943 Y-34.957 Z5.000 I0.323 J-0.887 F30000.000
G1 X110.943 Y-34.957 Z4.500 F24000.000
G2 X110.323 Y-35.887 Z4.500 I-0.943 J-0.043 F30000.000
G2 X109.677 Y-34.113 Z4.500 I-0.323 J0.887 F30000.000
G2 X110.943 Y-34.957 Z4.500 I0.323 J-0.887 F30000.000
G1 X110.943 Y-34.957 Z4.000 F24000.000
G2 X110.323 Y-35.887 Z4.000 I-0.943 J-0.043 F30000.000
G2 X109.677 Y-34.113 Z4.000 I-0.323 J0.887 F30000.000
G2 X110.943 Y-34.957 Z4.000 I0.323 J-0.887 F30000.000
G1 X110.943 Y-34.957 Z3.500 F24000.000
G2 X110.323 Y-35.887 Z3.500 I-0.943 J-0.043 F30000.000
G2 X109.677 Y-34.113 Z3.500 I-0.323 J0.887 F30000.000
G2 X110.943 Y-34.957 Z3.500 I0.323 J-0.887 F30000.000
G1 X110.943 Y-34.957 Z3.000 F24000.000
G2 X110.323 Y-35.887 Z3.000 I-0.943 J-0.043 F30000.000
G2 X109.677 Y-34.113 Z3.000 I-0.323 J0.887 F30000.000
G2 X110.943 Y-34.957 Z3.000 I0.323 J-0.887 F30000.000
G1 X110.943 Y-34.957 Z2.500 F24000.000
G2 X110.323 Y-35.887 Z2.500 I-0.943 J-0.043 F30000.000
G2 X109.677 Y-34.113 Z2.500 I-0.323 J0.887 F30000.000
G2 X110.943 Y-34.957 Z2.500 I0.323 J-0.887 F30000.000
G1 X110.943 Y-34.957 Z2.000 F24000.000
G2 X110.323 Y-35.887 Z2.000 I-0.943 J-0.043 F30000.000
G2 X109.677 Y-34.113 Z2.000 I-0.323 J0.887 F30000.000
G2 X110.943 Y-34.957 Z2.000 I0.323 J-0.887 F30000.000
G1 X110.943 Y-34.957 Z1.500 F24000.000
G2 X110.323 Y-35.887 Z1.500 I-0.943 J-0.043 F30000.000
G2 X109.677 Y-34.113 Z1.500 I-0.323 J0.887 F30000.000
G2 X110.943 Y-34.957 Z1.500 I0.323 J-0.887 F30000.000
G1 X110.943 Y-34.957 Z1.000 F24000.000
G2 X110.323 Y-35.887 Z1.000 I-0.943 J-0.043 F30000.000
G2 X109.677 Y-34.113 Z1.000 I-0.323 J0.887 F30000.000
G2 X110.943 Y-34.957 Z1.000 I0.323 J-0.887 F30000.000
G1 X110.943 Y-34.957 Z0.500 F24000.000
G2 X110.323 Y-35.887 Z0.500 I-0.943 J-0.043 F30000.000
G2 X109.677 Y-34.113 Z0.500 I-0.323 J0.887 F30000.000
G2 X110.943 Y-34.957 Z0.500 I0.323 J-0.887 F30000.000
G1 X110.943 Y-34.957 Z0.000 F24000.000
G2 X110.323 Y-35.887 Z0.000 I-0.943 J-0.043 F30000.000
G2 X109.677 Y-34.113 Z0.000 I-0.323 J0.887 F30000.000
G2 X110.943 Y-34.957 Z0.000 I0.323 J-0.887 F30000.000
G1 X110.943 Y-34.957 Z-0.250 F24000.000
G2 X110.323 Y-35.887 Z-0.250 I-0.943 J-0.043 F30000.000
G2 X109.677 Y-34.113 Z-0.250 I-0.323 J0.887 F30000.000
G2 X110.943 Y-34.957 Z-0.250 I0.323 J-0.887 F30000.000
G0 Z20.000
G0 Z20.000
G0 X110.943 Y-34.957
G0 X148.809 Y-39.975
G0 X148.809 Y-39.975 Z18.000
G1 X148.809 Y-39.975 Z12.500 F24000.000
G2 X148.926 Y-39.822 Z12.500 I0.191 J-0.025 F30000.000
G2 X149.178 Y-39.926 Z12.500 I0.074 J-0.178 F30000.000
G2 X149.074 Y-40.178 Z12.500 I-0.178 J-0.074 F30000.000
G2 X148.809 Y-39.975 Z12.500 I-0.074 J0.178 F30000.000
G1 X148.809 Y-39.975 Z12.000 F24000.000
G2 X148.926 Y-39.822 Z12.000 I0.191 J-0.025 F30000.000
G2 X149.178 Y-39.926 Z12.000 I0.074 J-0.178 F30000.000
G2 X149.074 Y-40.178 Z12.000 I-0.178 J-0.074 F30000.000
G2 X148.809 Y-39.975 Z12.000 I-0.074 J0.178 F30000.000
G1 X148.809 Y-39.975 Z11.500 F24000.000
G2 X148.926 Y-39.822 Z11.500 I0.191 J-0.025 F30000.000
G2 X149.178 Y-39.926 Z11.500 I0.074 J-0.178 F30000.000
G2 X149.074 Y-40.178 Z11.500 I-0.178 J-0.074 F30000.000
G2 X148.809 Y-39.975 Z11.500 I-0.074 J0.178 F30000.000
G1 X148.809 Y-39.975 Z11.000 F24000.000
G2 X148.926 Y-39.822 Z11.000 I0.191 J-0.025 F30000.000
G2 X149.178 Y-39.926 Z11.000 I0.074 J-0.178 F30000.000
G2 X149.074 Y-40.178 Z11.000 I-0.178 J-0.074 F30000.000
G2 X148.809 Y-39.975 Z11.000 I-0.074 J0.178 F30000.000
G1 X148.809 Y-39.975 Z10.500 F24000.000
G2 X148.926 Y-39.822 Z10.500 I0.191 J-0.025 F30000.000
G2 X149.178 Y-39.926 Z10.500 I0.074 J-0.178 F30000.000
G2 X149.074 Y-40.178 Z10.500 I-0.178 J-0.074 F30000.000
G2 X148.809 Y-39.975 Z10.500 I-0.074 J0.178 F30000.000
G1 X148.809 Y-39.975 Z10.000 F24000.000
G2 X148.926 Y-39.822 Z10.000 I0.191 J-0.025 F30000.000
G2 X149.178 Y-39.926 Z10.000 I0.074 J-0.178 F30000.000
G2 X149.074 Y-40.178 Z10.000 I-0.178 J-0.074 F30000.000
G2 X148.809 Y-39.975 Z10.000 I-0.074 J0.178 F30000.000
G1 X148.809 Y-39.975 Z9.500 F24000.000
G2 X148.926 Y-39.822 Z9.500 I0.191 J-0.025 F30000.000
G2 X149.178 Y-39.926 Z9.500 I0.074 J-0.178 F30000.000
G2 X149.074 Y-40.178 Z9.500 I-0.178 J-0.074 F30000.000
G2 X148.809 Y-39.975 Z9.500 I-0.074 J0.178 F30000.000
G1 X148.809 Y-39.975 Z9.000 F24000.000
G2 X148.926 Y-39.822 Z9.000 I0.191 J-0.025 F30000.000
G2 X149.178 Y-39.926 Z9.000 I0.074 J-0.178 F30000.000
G2 X149.074 Y-40.178 Z9.000 I-0.178 J-0.074 F30000.000
G2 X148.809 Y-39.975 Z9.000 I-0.074 J0.178 F30000.000
G1 X148.809 Y-39.975 Z8.500 F24000.000
G2 X148.926 Y-39.822 Z8.500 I0.191 J-0.025 F30000.000
G2 X149.178 Y-39.926 Z8.500 I0.074 J-0.178 F30000.000
G2 X149.074 Y-40.178 Z8.500 I-0.178 J-0.074 F30000.000
G2 X148.809 Y-39.975 Z8.500 I-0.074 J0.178 F30000.000
G1 X148.809 Y-39.975 Z8.000 F24000.000
G2 X148.926 Y-39.822 Z8.000 I0.191 J-0.025 F30000.000
G2 X149.178 Y-39.926 Z8.000 I0.074 J-0.178 F30000.000
G2 X149.074 Y-40.178 Z8.000 I-0.178 J-0.074 F30000.000
G2 X148.809 Y-39.975 Z8.000 I-0.074 J0.178 F30000.000
G1 X148.809 Y-39.975 Z7.500 F24000.000
G2 X148.926 Y-39.822 Z7.500 I0.191 J-0.025 F30000.000
G2 X149.178 Y-39.926 Z7.500 I0.074 J-0.178 F30000.000
G2 X149.074 Y-40.178 Z7.500 I-0.178 J-0.074 F30000.000
G2 X148.809 Y-39.975 Z7.500 I-0.074 J0.178 F30000.000
G1 X148.809 Y-39.975 Z7.000 F24000.000
G2 X148.926 Y-39.822 Z7.000 I0.191 J-0.025 F30000.000
G2 X149.178 Y-39.926 Z7.000 I0.074 J-0.178 F30000.000
G2 X149.074 Y-40.178 Z7.000 I-0.178 J-0.074 F30000.000
G2 X148.809 Y-39.975 Z7.000 I-0.074 J0.178 F30000.000
G1 X148.809 Y-39.975 Z6.500 F24000.000
G2 X148.926 Y-39.822 Z6.500 I0.191 J-0.025 F30000.000
G2 X149.178 Y-39.926 Z6.500 I0.074 J-0.178 F30000.000
G2 X149.074 Y-40.178 Z6.500 I-0.178 J-0.074 F30000.000
G2 X148.809 Y-39.975 Z6.500 I-0.074 J0.178 F30000.000
G1 X148.809 Y-39.975 Z6.000 F24000.000
G2 X148.926 Y-39.822 Z6.000 I0.191 J-0.025 F30000.000
G2 X149.178 Y-39.926 Z6.000 I0.074 J-0.178 F30000.000
G2 X149.074 Y-40.178 Z6.000 I-0.178 J-0.074 F30000.000
G2 X148.809 Y-39.975 Z6.000 I-0.074 J0.178 F30000.000
G1 X148.809 Y-39.975 Z5.500 F24000.000
G2 X148.926 Y-39.822 Z5.500 I0.191 J-0.025 F30000.000
G2 X149.178 Y-39.926 Z5.500 I0.074 J-0.178 F30000.000
G2 X149.074 Y-40.178 Z5.500 I-0.178 J-0.074 F30000.000
G2 X148.809 Y-39.975 Z5.500 I-0.074 J0.178 F30000.000
G1 X148.809 Y-39.975 Z5.000 F24000.000
G2 X148.926 Y-39.822 Z5.000 I0.191 J-0.025 F30000.000
G2 X149.178 Y-39.926 Z5.000 I0.074 J-0.178 F30000.000
G2 X149.074 Y-40.178 Z5.000 I-0.178 J-0.074 F30000.000
G2 X148.809 Y-39.975 Z5.000 I-0.074 J0.178 F30000.000
G1 X148.809 Y-39.975 Z4.500 F24000.000
G2 X148.926 Y-39.822 Z4.500 I0.191 J-0.025 F30000.000
G2 X149.178 Y-39.926 Z4.500 I0.074 J-0.178 F30000.000
G2 X149.074 Y-40.178 Z4.500 I-0.178 J-0.074 F30000.000
G2 X148.809 Y-39.975 Z4.500 I-0.074 J0.178 F30000.000
G1 X148.809 Y-39.975 Z4.000 F24000.000
G2 X148.926 Y-39.822 Z4.000 I0.191 J-0.025 F30000.000
G2 X149.178 Y-39.926 Z4.000 I0.074 J-0.178 F30000.000
G2 X149.074 Y-40.178 Z4.000 I-0.178 J-0.074 F30000.000
G2 X148.809 Y-39.975 Z4.000 I-0.074 J0.178 F30000.000
G1 X148.809 Y-39.975 Z3.500 F24000.000
G2 X148.926 Y-39.822 Z3.500 I0.191 J-0.025 F30000.000
G2 X149.178 Y-39.926 Z3.500 I0.074 J-0.178 F30000.000
G2 X149.074 Y-40.178 Z3.500 I-0.178 J-0.074 F30000.000
G2 X148.809 Y-39.975 Z3.500 I-0.074 J0.178 F30000.000
G1 X148.809 Y-39.975 Z3.000 F24000.000
G2 X148.926 Y-39.822 Z3.000 I0.191 J-0.025 F30000.000
G2 X149.178 Y-39.926 Z3.000 I0.074 J-0.178 F30000.000
G2 X149.074 Y-40.178 Z3.000 I-0.178 J-0.074 F30000.000
G2 X148.809 Y-39.975 Z3.000 I-0.074 J0.178 F30000.000
G1 X148.809 Y-39.975 Z2.500 F24000.000
G2 X148.926 Y-39.822 Z2.500 I0.191 J-0.025 F30000.000
G2 X149.178 Y-39.926 Z2.500 I0.074 J-0.178 F30000.000
G2 X149.074 Y-40.178 Z2.500 I-0.178 J-0.074 F30000.000
G2 X148.809 Y-39.975 Z2.500 I-0.074 J0.178 F30000.000
G1 X148.809 Y-39.975 Z2.000 F24000.000
G2 X148.926 Y-39.822 Z2.000 I0.191 J-0.025 F30000.000
G2 X149.178 Y-39.926 Z2.000 I0.074 J-0.178 F30000.000
G2 X149.074 Y-40.178 Z2.000 I-0.178 J-0.074 F30000.000
G2 X148.809 Y-39.975 Z2.000 I-0.074 J0.178 F30000.000
G1 X148.809 Y-39.975 Z1.500 F24000.000
G2 X148.926 Y-39.822 Z1.500 I0.191 J-0.025 F30000.000
G2 X149.178 Y-39.926 Z1.500 I0.074 J-0.178 F30000.000
G2 X149.074 Y-40.178 Z1.500 I-0.178 J-0.074 F30000.000
G2 X148.809 Y-39.975 Z1.500 I-0.074 J0.178 F30000.000
G1 X148.809 Y-39.975 Z1.000 F24000.000
G2 X148.926 Y-39.822 Z1.000 I0.191 J-0.025 F30000.000
G2 X149.178 Y-39.926 Z1.000 I0.074 J-0.178 F30000.000
G2 X149.074 Y-40.178 Z1.000 I-0.178 J-0.074 F30000.000
G2 X148.809 Y-39.975 Z1.000 I-0.074 J0.178 F30000.000
G1 X148.809 Y-39.975 Z0.500 F24000.000
G2 X148.926 Y-39.822 Z0.500 I0.191 J-0.025 F30000.000
G2 X149.178 Y-39.926 Z0.500 I0.074 J-0.178 F30000.000
G2 X149.074 Y-40.178 Z0.500 I-0.178 J-0.074 F30000.000
G2 X148.809 Y-39.975 Z0.500 I-0.074 J0.178 F30000.000
G1 X148.809 Y-39.975 Z0.000 F24000.000
G2 X148.926 Y-39.822 Z0.000 I0.191 J-0.025 F30000.000
G2 X149.178 Y-39.926 Z0.000 I0.074 J-0.178 F30000.000
G2 X149.074 Y-40.178 Z0.000 I-0.178 J-0.074 F30000.000
G2 X148.809 Y-39.975 Z0.000 I-0.074 J0.178 F30000.000
G1 X148.809 Y-39.975 Z-0.250 F24000.000
G2 X148.926 Y-39.822 Z-0.250 I0.191 J-0.025 F30000.000
G2 X149.178 Y-39.926 Z-0.250 I0.074 J-0.178 F30000.000
G2 X149.074 Y-40.178 Z-0.250 I-0.178 J-0.074 F30000.000
G2 X148.809 Y-39.975 Z-0.250 I-0.074 J0.178 F30000.000
G0 Z20.000
G0 Z20.000
G0 X148.809 Y-39.975
G0 X148.998 Y-59.808
G0 X148.998 Y-59.808 Z18.000
G1 X148.998 Y-59.808 Z12.500 F24000.000
G2 X149.074 Y-60.178 Z12.500 I0.002 J-0.192 F30000.000
G2 X148.926 Y-59.822 Z12.500 I-0.074 J0.178 F30000.000
G2 X148.998 Y-59.808 Z12.500 I0.074 J-0.178 F30000.000
G1 X148.998 Y-59.808 Z12.000 F24000.000
G2 X149.074 Y-60.178 Z12.000 I0.002 J-0.192 F30000.000
G2 X148.926 Y-59.822 Z12.000 I-0.074 J0.178 F30000.000
G2 X148.998 Y-59.808 Z12.000 I0.074 J-0.178 F30000.000
G1 X148.998 Y-59.808 Z11.500 F24000.000
G2 X149.074 Y-60.178 Z11.500 I0.002 J-0.192 F30000.000
G2 X148.926 Y-59.822 Z11.500 I-0.074 J0.178 F30000.000
G2 X148.998 Y-59.808 Z11.500 I0.074 J-0.178 F30000.000
G1 X148.998 Y-59.808 Z11.000 F24000.000
G2 X149.074 Y-60.178 Z11.000 I0.002 J-0.192 F30000.000
G2 X148.926 Y-59.822 Z11.000 I-0.074 J0.178 F30000.000
G2 X148.998 Y-59.808 Z11.000 I0.074 J-0.178 F30000.000
G1 X148.998 Y-59.808 Z10.500 F24000.000
G2 X149.074 Y-60.178 Z10.500 I0.002 J-0.192 F30000.000
G2 X148.926 Y-59.822 Z10.500 I-0.074 J0.178 F30000.000
G2 X148.998 Y-59.808 Z10.500 I0.074 J-0.178 F30000.000
G1 X148.998 Y-59.808 Z10.000 F24000.000
G2 X149.074 Y-60.178 Z10.000 I0.002 J-0.192 F30000.000
G2 X148.926 Y-59.822 Z10.000 I-0.074 J0.178 F30000.000
G2 X148.998 Y-59.808 Z10.000 I0.074 J-0.178 F30000.000
G1 X148.998 Y-59.808 Z9.500 F24000.000
G2 X149.074 Y-60.178 Z9.500 I0.002 J-0.192 F30000.000
G2 X148.926 Y-59.822 Z9.500 I-0.074 J0.178 F30000.000
G2 X148.998 Y-59.808 Z9.500 I0.074 J-0.178 F30000.000
G1 X148.998 Y-59.808 Z9.000 F24000.000
G2 X149.074 Y-60.178 Z9.000 I0.002 J-0.192 F30000.000
G2 X148.926 Y-59.822 Z9.000 I-0.074 J0.178 F30000.000
G2 X148.998 Y-59.808 Z9.000 I0.074 J-0.178 F30000.000
G1 X148.998 Y-59.808 Z8.500 F24000.000
G2 X149.074 Y-60.178 Z8.500 I0.002 J-0.192 F30000.000
G2 X148.926 Y-59.822 Z8.500 I-0.074 J0.178 F30000.000
G2 X148.998 Y-59.808 Z8.500 I0.074 J-0.178 F30000.000
G1 X148.998 Y-59.808 Z8.000 F24000.000
G2 X149.074 Y-60.178 Z8.000 I0.002 J-0.192 F30000.000
G2 X148.926 Y-59.822 Z8.000 I-0.074 J0.178 F30000.000
G2 X148.998 Y-59.808 Z8.000 I0.074 J-0.178 F30000.000
G1 X148.998 Y-59.808 Z7.500 F24000.000
G2 X149.074 Y-60.178 Z7.500 I0.002 J-0.192 F30000.000
G2 X148.926 Y-59.822 Z7.500 I-0.074 J0.178 F30000.000
G2 X148.998 Y-59.808 Z7.500 I0.074 J-0.178 F30000.000
G1 X148.998 Y-59.808 Z7.000 F24000.000
G2 X149.074 Y-60.178 Z7.000 I0.002 J-0.192 F30000.000
G2 X148.926 Y-59.822 Z7.000 I-0.074 J0.178 F30000.000
G2 X148.998 Y-59.808 Z7.000 I0.074 J-0.178 F30000.000
G1 X148.998 Y-59.808 Z6.500 F24000.000
G2 X149.074 Y-60.178 Z6.500 I0.002 J-0.192 F30000.000
G2 X148.926 Y-59.822 Z6.500 I-0.074 J0.178 F30000.000
G2 X148.998 Y-59.808 Z6.500 I0.074 J-0.178 F30000.000
G1 X148.998 Y-59.808 Z6.000 F24000.000
G2 X149.074 Y-60.178 Z6.000 I0.002 J-0.192 F30000.000
G2 X148.926 Y-59.822 Z6.000 I-0.074 J0.178 F30000.000
G2 X148.998 Y-59.808 Z6.000 I0.074 J-0.178 F30000.000
G1 X148.998 Y-59.808 Z5.500 F24000.000
G2 X149.074 Y-60.178 Z5.500 I0.002 J-0.192 F30000.000
G2 X148.926 Y-59.822 Z5.500 I-0.074 J0.178 F30000.000
G2 X148.998 Y-59.808 Z5.500 I0.074 J-0.178 F30000.000
G1 X148.998 Y-59.808 Z5.000 F24000.000
G2 X149.074 Y-60.178 Z5.000 I0.002 J-0.192 F30000.000
G2 X148.926 Y-59.822 Z5.000 I-0.074 J0.178 F30000.000
G2 X148.998 Y-59.808 Z5.000 I0.074 J-0.178 F30000.000
G1 X148.998 Y-59.808 Z4.500 F24000.000
G2 X149.074 Y-60.178 Z4.500 I0.002 J-0.192 F30000.000
G2 X148.926 Y-59.822 Z4.500 I-0.074 J0.178 F30000.000
G2 X148.998 Y-59.808 Z4.500 I0.074 J-0.178 F30000.000
G1 X148.998 Y-59.808 Z4.000 F24000.000
G2 X149.074 Y-60.178 Z4.000 I0.002 J-0.192 F30000.000
G2 X148.926 Y-59.822 Z4.000 I-0.074 J0.178 F30000.000
G2 X148.998 Y-59.808 Z4.000 I0.074 J-0.178 F30000.000
G1 X148.998 Y-59.808 Z3.500 F24000.000
G2 X149.074 Y-60.178 Z3.500 I0.002 J-0.192 F30000.000
G2 X148.926 Y-59.822 Z3.500 I-0.074 J0.178 F30000.000
G2 X148.998 Y-59.808 Z3.500 I0.074 J-0.178 F30000.000
G1 X148.998 Y-59.808 Z3.000 F24000.000
G2 X149.074 Y-60.178 Z3.000 I0.002 J-0.192 F30000.000
G2 X148.926 Y-59.822 Z3.000 I-0.074 J0.178 F30000.000
G2 X148.998 Y-59.808 Z3.000 I0.074 J-0.178 F30000.000
G1 X148.998 Y-59.808 Z2.500 F24000.000
G2 X149.074 Y-60.178 Z2.500 I0.002 J-0.192 F30000.000
G2 X148.926 Y-59.822 Z2.500 I-0.074 J0.178 F30000.000
G2 X148.998 Y-59.808 Z2.500 I0.074 J-0.178 F30000.000
G1 X148.998 Y-59.808 Z2.000 F24000.000
G2 X149.074 Y-60.178 Z2.000 I0.002 J-0.192 F30000.000
G2 X148.926 Y-59.822 Z2.000 I-0.074 J0.178 F30000.000
G2 X148.998 Y-59.808 Z2.000 I0.074 J-0.178 F30000.000
G1 X148.998 Y-59.808 Z1.500 F24000.000
G2 X149.074 Y-60.178 Z1.500 I0.002 J-0.192 F30000.000
G2 X148.926 Y-59.822 Z1.500 I-0.074 J0.178 F30000.000
G2 X148.998 Y-59.808 Z1.500 I0.074 J-0.178 F30000.000
G1 X148.998 Y-59.808 Z1.000 F24000.000
G2 X149.074 Y-60.178 Z1.000 I0.002 J-0.192 F30000.000
G2 X148.926 Y-59.822 Z1.000 I-0.074 J0.178 F30000.000
G2 X148.998 Y-59.808 Z1.000 I0.074 J-0.178 F30000.000
G1 X148.998 Y-59.808 Z0.500 F24000.000
G2 X149.074 Y-60.178 Z0.500 I0.002 J-0.192 F30000.000
G2 X148.926 Y-59.822 Z0.500 I-0.074 J0.178 F30000.000
G2 X148.998 Y-59.808 Z0.500 I0.074 J-0.178 F30000.000
G1 X148.998 Y-59.808 Z0.000 F24000.000
G2 X149.074 Y-60.178 Z0.000 I0.002 J-0.192 F30000.000
G2 X148.926 Y-59.822 Z0.000 I-0.074 J0.178 F30000.000
G2 X148.998 Y-59.808 Z0.000 I0.074 J-0.178 F30000.000
G1 X148.998 Y-59.808 Z-0.250 F24000.000
G2 X149.074 Y-60.178 Z-0.250 I0.002 J-0.192 F30000.000
G2 X148.926 Y-59.822 Z-0.250 I-0.074 J0.178 F30000.000
G2 X148.998 Y-59.808 Z-0.250 I0.074 J-0.178 F30000.000
G0 Z20.000
G0 Z20.000
G0 X148.998 Y-59.808
G0 X50.192 Y-60.000
G0 X50.192 Y-60.000 Z18.000
G1 X50.192 Y-60.000 Z12.500 F24000.000
G2 X50.074 Y-60.178 Z12.500 I-0.192 J-0.000 F30000.000
G2 X49.926 Y-59.822 Z12.500 I-0.074 J0.178 F30000.000
G2 X50.192 Y-60.000 Z12.500 I0.074 J-0.178 F30000.000
G1 X50.192 Y-60.000 Z12.000 F24000.000
G2 X50.074 Y-60.178 Z12.000 I-0.192 J-0.000 F30000.000
G2 X49.926 Y-59.822 Z12.000 I-0.074 J0.178 F30000.000
G2 X50.192 Y-60.000 Z12.000 I0.074 J-0.178 F30000.000
G1 X50.192 Y-60.000 Z11.500 F24000.000
G2 X50.074 Y-60.178 Z11.500 I-0.192 J-0.000 F30000.000
G2 X49.926 Y-59.822 Z11.500 I-0.074 J0.178 F30000.000
G2 X50.192 Y-60.000 Z11.500 I0.074 J-0.178 F30000.000
G1 X50.192 Y-60.000 Z11.000 F24000.000
G2 X50.074 Y-60.178 Z11.000 I-0.192 J-0.000 F30000.000
G2 X49.926 Y-59.822 Z11.000 I-0.074 J0.178 F30000.000
G2 X50.192 Y-60.000 Z11.000 I0.074 J-0.178 F30000.000
G1 X50.192 Y-60.000 Z10.500 F24000.000
G2 X50.074 Y-60.178 Z10.500 I-0.192 J-0.000 F30000.000
G2 X49.926 Y-59.822 Z10.500 I-0.074 J0.178 F30000.000
G2 X50.192 Y-60.000 Z10.500 I0.074 J-0.178 F30000.000
G1 X50.192 Y-60.000 Z10.000 F24000.000
G2 X50.074 Y-60.178 Z10.000 I-0.192 J-0.000 F30000.000
G2 X49.926 Y-59.822 Z10.000 I-0.074 J0.178 F30000.000
G2 X50.192 Y-60.000 Z10.000 I0.074 J-0.178 F30000.000
G1 X50.192 Y-60.000 Z9.500 F24000.000
G2 X50.074 Y-60.178 Z9.500 I-0.192 J-0.000 F30000.000
G2 X49.926 Y-59.822 Z9.500 I-0.074 J0.178 F30000.000
G2 X50.192 Y-60.000 Z9.500 I0.074 J-0.178 F30000.000
G1 X50.192 Y-60.000 Z9.000 F24000.000
G2 X50.074 Y-60.178 Z9.000 I-0.192 J-0.000 F30000.000
G2 X49.926 Y-59.822 Z9.000 I-0.074 J0.178 F30000.000
G2 X50.192 Y-60.000 Z9.000 I0.074 J-0.178 F30000.000
G1 X50.192 Y-60.000 Z8.500 F24000.000
G2 X50.074 Y-60.178 Z8.500 I-0.192 J-0.000 F30000.000
G2 X49.926 Y-59.822 Z8.500 I-0.074 J0.178 F30000.000
G2 X50.192 Y-60.000 Z8.500 I0.074 J-0.178 F30000.000
G1 X50.192 Y-60.000 Z8.000 F24000.000
G2 X50.074 Y-60.178 Z8.000 I-0.192 J-0.000 F30000.000
G2 X49.926 Y-59.822 Z8.000 I-0.074 J0.178 F30000.000
G2 X50.192 Y-60.000 Z8.000 I0.074 J-0.178 F30000.000
G1 X50.192 Y-60.000 Z7.500 F24000.000
G2 X50.074 Y-60.178 Z7.500 I-0.192 J-0.000 F30000.000
G2 X49.926 Y-59.822 Z7.500 I-0.074 J0.178 F30000.000
G2 X50.192 Y-60.000 Z7.500 I0.074 J-0.178 F30000.000
G1 X50.192 Y-60.000 Z7.000 F24000.000
G2 X50.074 Y-60.178 Z7.000 I-0.192 J-0.000 F30000.000
G2 X49.926 Y-59.822 Z7.000 I-0.074 J0.178 F30000.000
G2 X50.192 Y-60.000 Z7.000 I0.074 J-0.178 F30000.000
G1 X50.192 Y-60.000 Z6.500 F24000.000
G2 X50.074 Y-60.178 Z6.500 I-0.192 J-0.000 F30000.000
G2 X49.926 Y-59.822 Z6.500 I-0.074 J0.178 F30000.000
G2 X50.192 Y-60.000 Z6.500 I0.074 J-0.178 F30000.000
G1 X50.192 Y-60.000 Z6.000 F24000.000
G2 X50.074 Y-60.178 Z6.000 I-0.192 J-0.000 F30000.000
G2 X49.926 Y-59.822 Z6.000 I-0.074 J0.178 F30000.000
G2 X50.192 Y-60.000 Z6.000 I0.074 J-0.178 F30000.000
G1 X50.192 Y-60.000 Z5.500 F24000.000
G2 X50.074 Y-60.178 Z5.500 I-0.192 J-0.000 F30000.000
G2 X49.926 Y-59.822 Z5.500 I-0.074 J0.178 F30000.000
G2 X50.192 Y-60.000 Z5.500 I0.074 J-0.178 F30000.000
G1 X50.192 Y-60.000 Z5.000 F24000.000
G2 X50.074 Y-60.178 Z5.000 I-0.192 J-0.000 F30000.000
G2 X49.926 Y-59.822 Z5.000 I-0.074 J0.178 F30000.000
G2 X50.192 Y-60.000 Z5.000 I0.074 J-0.178 F30000.000
G1 X50.192 Y-60.000 Z4.500 F24000.000
G2 X50.074 Y-60.178 Z4.500 I-0.192 J-0.000 F30000.000
G2 X49.926 Y-59.822 Z4.500 I-0.074 J0.178 F30000.000
G2 X50.192 Y-60.000 Z4.500 I0.074 J-0.178 F30000.000
G1 X50.192 Y-60.000 Z4.000 F24000.000
G2 X50.074 Y-60.178 Z4.000 I-0.192 J-0.000 F30000.000
G2 X49.926 Y-59.822 Z4.000 I-0.074 J0.178 F30000.000
G2 X50.192 Y-60.000 Z4.000 I0.074 J-0.178 F30000.000
G1 X50.192 Y-60.000 Z3.500 F24000.000
G2 X50.074 Y-60.178 Z3.500 I-0.192 J-0.000 F30000.000
G2 X49.926 Y-59.822 Z3.500 I-0.074 J0.178 F30000.000
G2 X50.192 Y-60.000 Z3.500 I0.074 J-0.178 F30000.000
G1 X50.192 Y-60.000 Z3.000 F24000.000
G2 X50.074 Y-60.178 Z3.000 I-0.192 J-0.000 F30000.000
G2 X49.926 Y-59.822 Z3.000 I-0.074 J0.178 F30000.000
G2 X50.192 Y-60.000 Z3.000 I0.074 J-0.178 F30000.000
G1 X50.192 Y-60.000 Z2.500 F24000.000
G2 X50.074 Y-60.178 Z2.500 I-0.192 J-0.000 F30000.000
G2 X49.926 Y-59.822 Z2.500 I-0.074 J0.178 F30000.000
G2 X50.192 Y-60.000 Z2.500 I0.074 J-0.178 F30000.000
G1 X50.192 Y-60.000 Z2.000 F24000.000
G2 X50.074 Y-60.178 Z2.000 I-0.192 J-0.000 F30000.000
G2 X49.926 Y-59.822 Z2.000 I-0.074 J0.178 F30000.000
G2 X50.192 Y-60.000 Z2.000 I0.074 J-0.178 F30000.000
G1 X50.192 Y-60.000 Z1.500 F24000.000
G2 X50.074 Y-60.178 Z1.500 I-0.192 J-0.000 F30000.000
G2 X49.926 Y-59.822 Z1.500 I-0.074 J0.178 F30000.000
G2 X50.192 Y-60.000 Z1.500 I0.074 J-0.178 F30000.000
G1 X50.192 Y-60.000 Z1.000 F24000.000
G2 X50.074 Y-60.178 Z1.000 I-0.192 J-0.000 F30000.000
G2 X49.926 Y-59.822 Z1.000 I-0.074 J0.178 F30000.000
G2 X50.192 Y-60.000 Z1.000 I0.074 J-0.178 F30000.000
G1 X50.192 Y-60.000 Z0.500 F24000.000
G2 X50.074 Y-60.178 Z0.500 I-0.192 J-0.000 F30000.000
G2 X49.926 Y-59.822 Z0.500 I-0.074 J0.178 F30000.000
G2 X50.192 Y-60.000 Z0.500 I0.074 J-0.178 F30000.000
G1 X50.192 Y-60.000 Z0.000 F24000.000
G2 X50.074 Y-60.178 Z0.000 I-0.192 J-0.000 F30000.000
G2 X49.926 Y-59.822 Z0.000 I-0.074 J0.178 F30000.000
G2 X50.192 Y-60.000 Z0.000 I0.074 J-0.178 F30000.000
G1 X50.192 Y-60.000 Z-0.250 F24000.000
G2 X50.074 Y-60.178 Z-0.250 I-0.192 J-0.000 F30000.000
G2 X49.926 Y-59.822 Z-0.250 I-0.074 J0.178 F30000.000
G2 X50.192 Y-60.000 Z-0.250 I0.074 J-0.178 F30000.000
G0 Z20.000
G0 Z20.000
G0 X50.192 Y-60.000
G0 X50.002 Y-40.192
G0 X50.002 Y-40.192 Z18.000
G1 X50.002 Y-40.192 Z12.500 F24000.000
G2 X49.926 Y-39.822 Z12.500 I-0.002 J0.192 F30000.000
G2 X50.074 Y-40.178 Z12.500 I0.074 J-0.178 F30000.000
G2 X50.002 Y-40.192 Z12.500 I-0.074 J0.178 F30000.000
G1 X50.002 Y-40.192 Z12.000 F24000.000
G2 X49.926 Y-39.822 Z12.000 I-0.002 J0.192 F30000.000
G2 X50.074 Y-40.178 Z12.000 I0.074 J-0.178 F30000.000
G2 X50.002 Y-40.192 Z12.000 I-0.074 J0.178 F30000.000
G1 X50.002 Y-40.192 Z11.500 F24000.000
G2 X49.926 Y-39.822 Z11.500 I-0.002 J0.192 F30000.000
G2 X50.074 Y-40.178 Z11.500 I0.074 J-0.178 F30000.000
G2 X50.002 Y-40.192 Z11.500 I-0.074 J0.178 F30000.000
G1 X50.002 Y-40.192 Z11.000 F24000.000
G2 X49.926 Y-39.822 Z11.000 I-0.002 J0.192 F30000.000
G2 X50.074 Y-40.178 Z11.000 I0.074 J-0.178 F30000.000
G2 X50.002 Y-40.192 Z11.000 I-0.074 J0.178 F30000.000
G1 X50.002 Y-40.192 Z10.500 F24000.000
G2 X49.926 Y-39.822 Z10.500 I-0.002 J0.192 F30000.000
G2 X50.074 Y-40.178 Z10.500 I0.074 J-0.178 F30000.000
G2 X50.002 Y-40.192 Z10.500 I-0.074 J0.178 F30000.000
G1 X50.002 Y-40.192 Z10.000 F24000.000
G2 X49.926 Y-39.822 Z10.000 I-0.002 J0.192 F30000.000
G2 X50.074 Y-40.178 Z10.000 I0.074 J-0.178 F30000.000
G2 X50.002 Y-40.192 Z10.000 I-0.074 J0.178 F30000.000
G1 X50.002 Y-40.192 Z9.500 F24000.000
G2 X49.926 Y-39.822 Z9.500 I-0.002 J0.192 F30000.000
G2 X50.074 Y-40.178 Z9.500 I0.074 J-0.178 F30000.000
G2 X50.002 Y-40.192 Z9.500 I-0.074 J0.178 F30000.000
G1 X50.002 Y-40.192 Z9.000 F24000.000
G2 X49.926 Y-39.822 Z9.000 I-0.002 J0.192 F30000.000
G2 X50.074 Y-40.178 Z9.000 I0.074 J-0.178 F30000.000
G2 X50.002 Y-40.192 Z9.000 I-0.074 J0.178 F30000.000
G1 X50.002 Y-40.192 Z8.500 F24000.000
G2 X49.926 Y-39.822 Z8.500 I-0.002 J0.192 F30000.000
G2 X50.074 Y-40.178 Z8.500 I0.074 J-0.178 F30000.000
G2 X50.002 Y-40.192 Z8.500 I-0.074 J0.178 F30000.000
G1 X50.002 Y-40.192 Z8.000 F24000.000
G2 X49.926 Y-39.822 Z8.000 I-0.002 J0.192 F30000.000
G2 X50.074 Y-40.178 Z8.000 I0.074 J-0.178 F30000.000
G2 X50.002 Y-40.192 Z8.000 I-0.074 J0.178 F30000.000
G1 X50.002 Y-40.192 Z7.500 F24000.000
G2 X49.926 Y-39.822 Z7.500 I-0.002 J0.192 F30000.000
G2 X50.074 Y-40.178 Z7.500 I0.074 J-0.178 F30000.000
G2 X50.002 Y-40.192 Z7.500 I-0.074 J0.178 F30000.000
G1 X50.002 Y-40.192 Z7.000 F24000.000
G2 X49.926 Y-39.822 Z7.000 I-0.002 J0.192 F30000.000
G2 X50.074 Y-40.178 Z7.000 I0.074 J-0.178 F30000.000
G2 X50.002 Y-40.192 Z7.000 I-0.074 J0.178 F30000.000
G1 X50.002 Y-40.192 Z6.500 F24000.000
G2 X49.926 Y-39.822 Z6.500 I-0.002 J0.192 F30000.000
G2 X50.074 Y-40.178 Z6.500 I0.074 J-0.178 F30000.000
G2 X50.002 Y-40.192 Z6.500 I-0.074 J0.178 F30000.000
G1 X50.002 Y-40.192 Z6.000 F24000.000
G2 X49.926 Y-39.822 Z6.000 I-0.002 J0.192 F30000.000
G2 X50.074 Y-40.178 Z6.000 I0.074 J-0.178 F30000.000
G2 X50.002 Y-40.192 Z6.000 I-0.074 J0.178 F30000.000
G1 X50.002 Y-40.192 Z5.500 F24000.000
G2 X49.926 Y-39.822 Z5.500 I-0.002 J0.192 F30000.000
G2 X50.074 Y-40.178 Z5.500 I0.074 J-0.178 F30000.000
G2 X50.002 Y-40.192 Z5.500 I-0.074 J0.178 F30000.000
G1 X50.002 Y-40.192 Z5.000 F24000.000
G2 X49.926 Y-39.822 Z5.000 I-0.002 J0.192 F30000.000
G2 X50.074 Y-40.178 Z5.000 I0.074 J-0.178 F30000.000
G2 X50.002 Y-40.192 Z5.000 I-0.074 J0.178 F30000.000
G1 X50.002 Y-40.192 Z4.500 F24000.000
G2 X49.926 Y-39.822 Z4.500 I-0.002 J0.192 F30000.000
G2 X50.074 Y-40.178 Z4.500 I0.074 J-0.178 F30000.000
G2 X50.002 Y-40.192 Z4.500 I-0.074 J0.178 F30000.000
G1 X50.002 Y-40.192 Z4.000 F24000.000
G2 X49.926 Y-39.822 Z4.000 I-0.002 J0.192 F30000.000
G2 X50.074 Y-40.178 Z4.000 I0.074 J-0.178 F30000.000
G2 X50.002 Y-40.192 Z4.000 I-0.074 J0.178 F30000.000
G1 X50.002 Y-40.192 Z3.500 F24000.000
G2 X49.926 Y-39.822 Z3.500 I-0.002 J0.192 F30000.000
G2 X50.074 Y-40.178 Z3.500 I0.074 J-0.178 F30000.000
G2 X50.002 Y-40.192 Z3.500 I-0.074 J0.178 F30000.000
G1 X50.002 Y-40.192 Z3.000 F24000.000
G2 X49.926 Y-39.822 Z3.000 I-0.002 J0.192 F30000.000
G2 X50.074 Y-40.178 Z3.000 I0.074 J-0.178 F30000.000
G2 X50.002 Y-40.192 Z3.000 I-0.074 J0.178 F30000.000
G1 X50.002 Y-40.192 Z2.500 F24000.000
G2 X49.926 Y-39.822 Z2.500 I-0.002 J0.192 F30000.000
G2 X50.074 Y-40.178 Z2.500 I0.074 J-0.178 F30000.000
G2 X50.002 Y-40.192 Z2.500 I-0.074 J0.178 F30000.000
G1 X50.002 Y-40.192 Z2.000 F24000.000
G2 X49.926 Y-39.822 Z2.000 I-0.002 J0.192 F30000.000
G2 X50.074 Y-40.178 Z2.000 I0.074 J-0.178 F30000.000
G2 X50.002 Y-40.192 Z2.000 I-0.074 J0.178 F30000.000
G1 X50.002 Y-40.192 Z1.500 F24000.000
G2 X49.926 Y-39.822 Z1.500 I-0.002 J0.192 F30000.000
G2 X50.074 Y-40.178 Z1.500 I0.074 J-0.178 F30000.000
G2 X50.002 Y-40.192 Z1.500 I-0.074 J0.178 F30000.000
G1 X50.002 Y-40.192 Z1.000 F24000.000
G2 X49.926 Y-39.822 Z1.000 I-0.002 J0.192 F30000.000
G2 X50.074 Y-40.178 Z1.000 I0.074 J-0.178 F30000.000
G2 X50.002 Y-40.192 Z1.000 I-0.074 J0.178 F30000.000
G1 X50.002 Y-40.192 Z0.500 F24000.000
G2 X49.926 Y-39.822 Z0.500 I-0.002 J0.192 F30000.000
G2 X50.074 Y-40.178 Z0.500 I0.074 J-0.178 F30000.000
G2 X50.002 Y-40.192 Z0.500 I-0.074 J0.178 F30000.000
G1 X50.002 Y-40.192 Z0.000 F24000.000
G2 X49.926 Y-39.822 Z0.000 I-0.002 J0.192 F30000.000
G2 X50.074 Y-40.178 Z0.000 I0.074 J-0.178 F30000.000
G2 X50.002 Y-40.192 Z0.000 I-0.074 J0.178 F30000.000
G1 X50.002 Y-40.192 Z-0.250 F24000.000
G2 X49.926 Y-39.822 Z-0.250 I-0.002 J0.192 F30000.000
G2 X50.074 Y-40.178 Z-0.250 I0.074 J-0.178 F30000.000
G2 X50.002 Y-40.192 Z-0.250 I-0.074 J0.178 F30000.000
G0 Z20.000
G0 Z20.000
G0 X50.002 Y-40.192
G0 X-48.808 Y-40.000
G0 X-48.808 Y-40.000 Z18.000
G1 X-48.808 Y-40.000 Z12.500 F24000.000
G2 X-48.926 Y-40.178 Z12.500 I-0.192 J0.000 F30000.000
G2 X-49.074 Y-39.822 Z12.500 I-0.074 J0.178 F30000.000
G2 X-48.808 Y-40.000 Z12.500 I0.074 J-0.178 F30000.000
G1 X-48.808 Y-40.000 Z12.000 F24000.000
G2 X-48.926 Y-40.178 Z12.000 I-0.192 J0.000 F30000.000
G2 X-49.074 Y-39.822 Z12.000 I-0.074 J0.178 F30000.000
G2 X-48.808 Y-40.000 Z12.000 I0.074 J-0.178 F30000.000
G1 X-48.808 Y-40.000 Z11.500 F24000.000
G2 X-48.926 Y-40.178 Z11.500 I-0.192 J0.000 F30000.000
G2 X-49.074 Y-39.822 Z11.500 I-0.074 J0.178 F30000.000
G2 X-48.808 Y-40.000 Z11.500 I0.074 J-0.178 F30000.000
G1 X-48.808 Y-40.000 Z11.000 F24000.000
G2 X-48.926 Y-40.178 Z11.000 I-0.192 J0.000 F30000.000
G2 X-49.074 Y-39.822 Z11.000 I-0.074 J0.178 F30000.000
G2 X-48.808 Y-40.000 Z11.000 I0.074 J-0.178 F30000.000
G1 X-48.808 Y-40.000 Z10.500 F24000.000
G2 X-48.926 Y-40.178 Z10.500 I-0.192 J0.000 F30000.000
G2 X-49.074 Y-39.822 Z10.500 I-0.074 J0.178 F30000.000
G2 X-48.808 Y-40.000 Z10.500 I0.074 J-0.178 F30000.000
G1 X-48.808 Y-40.000 Z10.000 F24000.000
G2 X-48.926 Y-40.178 Z10.000 I-0.192 J0.000 F30000.000
G2 X-49.074 Y-39.822 Z10.000 I-0.074 J0.178 F30000.000
G2 X-48.808 Y-40.000 Z10.000 I0.074 J-0.178 F30000.000
G1 X-48.808 Y-40.000 Z9.500 F24000.000
G2 X-48.926 Y-40.178 Z9.500 I-0.192 J0.000 F30000.000
G2 X-49.074 Y-39.822 Z9.500 I-0.074 J0.178 F30000.000
G2 X-48.808 Y-40.000 Z9.500 I0.074 J-0.178 F30000.000
G1 X-48.808 Y-40.000 Z9.000 F24000.000
G2 X-48.926 Y-40.178 Z9.000 I-0.192 J0.000 F30000.000
G2 X-49.074 Y-39.822 Z9.000 I-0.074 J0.178 F30000.000
G2 X-48.808 Y-40.000 Z9.000 I0.074 J-0.178 F30000.000
G1 X-48.808 Y-40.000 Z8.500 F24000.000
G2 X-48.926 Y-40.178 Z8.500 I-0.192 J0.000 F30000.000
G2 X-49.074 Y-39.822 Z8.500 I-0.074 J0.178 F30000.000
G2 X-48.808 Y-40.000 Z8.500 I0.074 J-0.178 F30000.000
G1 X-48.808 Y-40.000 Z8.000 F24000.000
G2 X-48.926 Y-40.178 Z8.000 I-0.192 J0.000 F30000.000
G2 X-49.074 Y-39.822 Z8.000 I-0.074 J0.178 F30000.000
G2 X-48.808 Y-40.000 Z8.000 I0.074 J-0.178 F30000.000
G1 X-48.808 Y-40.000 Z7.500 F24000.000
G2 X-48.926 Y-40.178 Z7.500 I-0.192 J0.000 F30000.000
G2 X-49.074 Y-39.822 Z7.500 I-0.074 J0.178 F30000.000
G2 X-48.808 Y-40.000 Z7.500 I0.074 J-0.178 F30000.000
G1 X-48.808 Y-40.000 Z7.000 F24000.000
G2 X-48.926 Y-40.178 Z7.000 I-0.192 J0.000 F30000.000
G2 X-49.074 Y-39.822 Z7.000 I-0.074 J0.178 F30000.000
G2 X-48.808 Y-40.000 Z7.000 I0.074 J-0.178 F30000.000
G1 X-48.808 Y-40.000 Z6.500 F24000.000
G2 X-48.926 Y-40.178 Z6.500 I-0.192 J0.000 F30000.000
G2 X-49.074 Y-39.822 Z6.500 I-0.074 J0.178 F30000.000
G2 X-48.808 Y-40.000 Z6.500 I0.074 J-0.178 F30000.000
G1 X-48.808 Y-40.000 Z6.000 F24000.000
G2 X-48.926 Y-40.178 Z6.000 I-0.192 J0.000 F30000.000
G2 X-49.074 Y-39.822 Z6.000 I-0.074 J0.178 F30000.000
G2 X-48.808 Y-40.000 Z6.000 I0.074 J-0.178 F30000.000
G1 X-48.808 Y-40.000 Z5.500 F24000.000
G2 X-48.926 Y-40.178 Z5.500 I-0.192 J0.000 F30000.000
G2 X-49.074 Y-39.822 Z5.500 I-0.074 J0.178 F30000.000
G2 X-48.808 Y-40.000 Z5.500 I0.074 J-0.178 F30000.000
G1 X-48.808 Y-40.000 Z5.000 F24000.000
G2 X-48.926 Y-40.178 Z5.000 I-0.192 J0.000 F30000.000
G2 X-49.074 Y-39.822 Z5.000 I-0.074 J0.178 F30000.000
G2 X-48.808 Y-40.000 Z5.000 I0.074 J-0.178 F30000.000
G1 X-48.808 Y-40.000 Z4.500 F24000.000
G2 X-48.926 Y-40.178 Z4.500 I-0.192 J0.000 F30000.000
G2 X-49.074 Y-39.822 Z4.500 I-0.074 J0.178 F30000.000
G2 X-48.808 Y-40.000 Z4.500 I0.074 J-0.178 F30000.000
G1 X-48.808 Y-40.000 Z4.000 F24000.000
G2 X-48.926 Y-40.178 Z4.000 I-0.192 J0.000 F30000.000
G2 X-49.074 Y-39.822 Z4.000 I-0.074 J0.178 F30000.000
G2 X-48.808 Y-40.000 Z4.000 I0.074 J-0.178 F30000.000
G1 X-48.808 Y-40.000 Z3.500 F24000.000
G2 X-48.926 Y-40.178 Z3.500 I-0.192 J0.000 F30000.000
G2 X-49.074 Y-39.822 Z3.500 I-0.074 J0.178 F30000.000
G2 X-48.808 Y-40.000 Z3.500 I0.074 J-0.178 F30000.000
G1 X-48.808 Y-40.000 Z3.000 F24000.000
G2 X-48.926 Y-40.178 Z3.000 I-0.192 J0.000 F30000.000
G2 X-49.074 Y-39.822 Z3.000 I-0.074 J0.178 F30000.000
G2 X-48.808 Y-40.000 Z3.000 I0.074 J-0.178 F30000.000
G1 X-48.808 Y-40.000 Z2.500 F24000.000
G2 X-48.926 Y-40.178 Z2.500 I-0.192 J0.000 F30000.000
G2 X-49.074 Y-39.822 Z2.500 I-0.074 J0.178 F30000.000
G2 X-48.808 Y-40.000 Z2.500 I0.074 J-0.178 F30000.000
G1 X-48.808 Y-40.000 Z2.000 F24000.000
G2 X-48.926 Y-40.178 Z2.000 I-0.192 J0.000 F30000.000
G2 X-49.074 Y-39.822 Z2.000 I-0.074 J0.178 F30000.000
G2 X-48.808 Y-40.000 Z2.000 I0.074 J-0.178 F30000.000
G1 X-48.808 Y-40.000 Z1.500 F24000.000
G2 X-48.926 Y-40.178 Z1.500 I-0.192 J0.000 F30000.000
G2 X-49.074 Y-39.822 Z1.500 I-0.074 J0.178 F30000.000
G2 X-48.808 Y-40.000 Z1.500 I0.074 J-0.178 F30000.000
G1 X-48.808 Y-40.000 Z1.000 F24000.000
G2 X-48.926 Y-40.178 Z1.000 I-0.192 J0.000 F30000.000
G2 X-49.074 Y-39.822 Z1.000 I-0.074 J0.178 F30000.000
G2 X-48.808 Y-40.000 Z1.000 I0.074 J-0.178 F30000.000
G1 X-48.808 Y-40.000 Z0.500 F24000.000
G2 X-48.926 Y-40.178 Z0.500 I-0.192 J0.000 F30000.000
G2 X-49.074 Y-39.822 Z0.500 I-0.074 J0.178 F30000.000
G2 X-48.808 Y-40.000 Z0.500 I0.074 J-0.178 F30000.000
G1 X-48.808 Y-40.000 Z0.000 F24000.000
G2 X-48.926 Y-40.178 Z0.000 I-0.192 J0.000 F30000.000
G2 X-49.074 Y-39.822 Z0.000 I-0.074 J0.178 F30000.000
G2 X-48.808 Y-40.000 Z0.000 I0.074 J-0.178 F30000.000
G1 X-48.808 Y-40.000 Z-0.250 F24000.000
G2 X-48.926 Y-40.178 Z-0.250 I-0.192 J0.000 F30000.000
G2 X-49.074 Y-39.822 Z-0.250 I-0.074 J0.178 F30000.000
G2 X-48.808 Y-40.000 Z-0.250 I0.074 J-0.178 F30000.000
G0 Z20.000
G0 Z20.000
G0 X-48.808 Y-40.000
G0 X-48.998 Y-59.808
G0 X-48.998 Y-59.808 Z18.000
G1 X-48.998 Y-59.808 Z12.500 F24000.000
G2 X-48.926 Y-60.178 Z12.500 I-0.002 J-0.192 F30000.000
G2 X-49.074 Y-59.822 Z12.500 I-0.074 J0.178 F30000.000
G2 X-48.998 Y-59.808 Z12.500 I0.074 J-0.178 F30000.000
G1 X-48.998 Y-59.808 Z12.000 F24000.000
G2 X-48.926 Y-60.178 Z12.000 I-0.002 J-0.192 F30000.000
G2 X-49.074 Y-59.822 Z12.000 I-0.074 J0.178 F30000.000
G2 X-48.998 Y-59.808 Z12.000 I0.074 J-0.178 F30000.000
G1 X-48.998 Y-59.808 Z11.500 F24000.000
G2 X-48.926 Y-60.178 Z11.500 I-0.002 J-0.192 F30000.000
G2 X-49.074 Y-59.822 Z11.500 I-0.074 J0.178 F30000.000
G2 X-48.998 Y-59.808 Z11.500 I0.074 J-0.178 F30000.000
G1 X-48.998 Y-59.808 Z11.000 F24000.000
G2 X-48.926 Y-60.178 Z11.000 I-0.002 J-0.192 F30000.000
G2 X-49.074 Y-59.822 Z11.000 I-0.074 J0.178 F30000.000
G2 X-48.998 Y-59.808 Z11.000 I0.074 J-0.178 F30000.000
G1 X-48.998 Y-59.808 Z10.500 F24000.000
G2 X-48.926 Y-60.178 Z10.500 I-0.002 J-0.192 F30000.000
G2 X-49.074 Y-59.822 Z10.500 I-0.074 J0.178 F30000.000
G2 X-48.998 Y-59.808 Z10.500 I0.074 J-0.178 F30000.000
G1 X-48.998 Y-59.808 Z10.000 F24000.000
G2 X-48.926 Y-60.178 Z10.000 I-0.002 J-0.192 F30000.000
G2 X-49.074 Y-59.822 Z10.000 I-0.074 J0.178 F30000.000
G2 X-48.998 Y-59.808 Z10.000 I0.074 J-0.178 F30000.000
G1 X-48.998 Y-59.808 Z9.500 F24000.000
G2 X-48.926 Y-60.178 Z9.500 I-0.002 J-0.192 F30000.000
G2 X-49.074 Y-59.822 Z9.500 I-0.074 J0.178 F30000.000
G2 X-48.998 Y-59.808 Z9.500 I0.074 J-0.178 F30000.000
G1 X-48.998 Y-59.808 Z9.000 F24000.000
G2 X-48.926 Y-60.178 Z9.000 I-0.002 J-0.192 F30000.000
G2 X-49.074 Y-59.822 Z9.000 I-0.074 J0.178 F30000.000
G2 X-48.998 Y-59.808 Z9.000 I0.074 J-0.178 F30000.000
G1 X-48.998 Y-59.808 Z8.500 F24000.000
G2 X-48.926 Y-60.178 Z8.500 I-0.002 J-0.192 F30000.000
G2 X-49.074 Y-59.822 Z8.500 I-0.074 J0.178 F30000.000
G2 X-48.998 Y-59.808 Z8.500 I0.074 J-0.178 F30000.000
G1 X-48.998 Y-59.808 Z8.000 F24000.000
G2 X-48.926 Y-60.178 Z8.000 I-0.002 J-0.192 F30000.000
G2 X-49.074 Y-59.822 Z8.000 I-0.074 J0.178 F30000.000
G2 X-48.998 Y-59.808 Z8.000 I0.074 J-0.178 F30000.000
G1 X-48.998 Y-59.808 Z7.500 F24000.000
G2 X-48.926 Y-60.178 Z7.500 I-0.002 J-0.192 F30000.000
G2 X-49.074 Y-59.822 Z7.500 I-0.074 J0.178 F30000.000
G2 X-48.998 Y-59.808 Z7.500 I0.074 J-0.178 F30000.000
G1 X-48.998 Y-59.808 Z7.000 F24000.000
G2 X-48.926 Y-60.178 Z7.000 I-0.002 J-0.192 F30000.000
G2 X-49.074 Y-59.822 Z7.000 I-0.074 J0.178 F30000.000
G2 X-48.998 Y-59.808 Z7.000 I0.074 J-0.178 F30000.000
G1 X-48.998 Y-59.808 Z6.500 F24000.000
G2 X-48.926 Y-60.178 Z6.500 I-0.002 J-0.192 F30000.000
G2 X-49.074 Y-59.822 Z6.500 I-0.074 J0.178 F30000.000
G2 X-48.998 Y-59.808 Z6.500 I0.074 J-0.178 F30000.000
G1 X-48.998 Y-59.808 Z6.000 F24000.000
G2 X-48.926 Y-60.178 Z6.000 I-0.002 J-0.192 F30000.000
G2 X-49.074 Y-59.822 Z6.000 I-0.074 J0.178 F30000.000
G2 X-48.998 Y-59.808 Z6.000 I0.074 J-0.178 F30000.000
G1 X-48.998 Y-59.808 Z5.500 F24000.000
G2 X-48.926 Y-60.178 Z5.500 I-0.002 J-0.192 F30000.000
G2 X-49.074 Y-59.822 Z5.500 I-0.074 J0.178 F30000.000
G2 X-48.998 Y-59.808 Z5.500 I0.074 J-0.178 F30000.000
G1 X-48.998 Y-59.808 Z5.000 F24000.000
G2 X-48.926 Y-60.178 Z5.000 I-0.002 J-0.192 F30000.000
G2 X-49.074 Y-59.822 Z5.000 I-0.074 J0.178 F30000.000
G2 X-48.998 Y-59.808 Z5.000 I0.074 J-0.178 F30000.000
G1 X-48.998 Y-59.808 Z4.500 F24000.000
G2 X-48.926 Y-60.178 Z4.500 I-0.002 J-0.192 F30000.000
G2 X-49.074 Y-59.822 Z4.500 I-0.074 J0.178 F30000.000
G2 X-48.998 Y-59.808 Z4.500 I0.074 J-0.178 F30000.000
G1 X-48.998 Y-59.808 Z4.000 F24000.000
G2 X-48.926 Y-60.178 Z4.000 I-0.002 J-0.192 F30000.000
G2 X-49.074 Y-59.822 Z4.000 I-0.074 J0.178 F30000.000
G2 X-48.998 Y-59.808 Z4.000 I0.074 J-0.178 F30000.000
G1 X-48.998 Y-59.808 Z3.500 F24000.000
G2 X-48.926 Y-60.178 Z3.500 I-0.002 J-0.192 F30000.000
G2 X-49.074 Y-59.822 Z3.500 I-0.074 J0.178 F30000.000
G2 X-48.998 Y-59.808 Z3.500 I0.074 J-0.178 F30000.000
G1 X-48.998 Y-59.808 Z3.000 F24000.000
G2 X-48.926 Y-60.178 Z3.000 I-0.002 J-0.192 F30000.000
G2 X-49.074 Y-59.822 Z3.000 I-0.074 J0.178 F30000.000
G2 X-48.998 Y-59.808 Z3.000 I0.074 J-0.178 F30000.000
G1 X-48.998 Y-59.808 Z2.500 F24000.000
G2 X-48.926 Y-60.178 Z2.500 I-0.002 J-0.192 F30000.000
G2 X-49.074 Y-59.822 Z2.500 I-0.074 J0.178 F30000.000
G2 X-48.998 Y-59.808 Z2.500 I0.074 J-0.178 F30000.000
G1 X-48.998 Y-59.808 Z2.000 F24000.000
G2 X-48.926 Y-60.178 Z2.000 I-0.002 J-0.192 F30000.000
G2 X-49.074 Y-59.822 Z2.000 I-0.074 J0.178 F30000.000
G2 X-48.998 Y-59.808 Z2.000 I0.074 J-0.178 F30000.000
G1 X-48.998 Y-59.808 Z1.500 F24000.000
G2 X-48.926 Y-60.178 Z1.500 I-0.002 J-0.192 F30000.000
G2 X-49.074 Y-59.822 Z1.500 I-0.074 J0.178 F30000.000
G2 X-48.998 Y-59.808 Z1.500 I0.074 J-0.178 F30000.000
G1 X-48.998 Y-59.808 Z1.000 F24000.000
G2 X-48.926 Y-60.178 Z1.000 I-0.002 J-0.192 F30000.000
G2 X-49.074 Y-59.822 Z1.000 I-0.074 J0.178 F30000.000
G2 X-48.998 Y-59.808 Z1.000 I0.074 J-0.178 F30000.000
G1 X-48.998 Y-59.808 Z0.500 F24000.000
G2 X-48.926 Y-60.178 Z0.500 I-0.002 J-0.192 F30000.000
G2 X-49.074 Y-59.822 Z0.500 I-0.074 J0.178 F30000.000
G2 X-48.998 Y-59.808 Z0.500 I0.074 J-0.178 F30000.000
G1 X-48.998 Y-59.808 Z0.000 F24000.000
G2 X-48.926 Y-60.178 Z0.000 I-0.002 J-0.192 F30000.000
G2 X-49.074 Y-59.822 Z0.000 I-0.074 J0.178 F30000.000
G2 X-48.998 Y-59.808 Z0.000 I0.074 J-0.178 F30000.000
G1 X-48.998 Y-59.808 Z-0.250 F24000.000
G2 X-48.926 Y-60.178 Z-0.250 I-0.002 J-0.192 F30000.000
G2 X-49.074 Y-59.822 Z-0.250 I-0.074 J0.178 F30000.000
G2 X-48.998 Y-59.808 Z-0.250 I0.074 J-0.178 F30000.000
G0 Z20.000
G0 Z20.000
G0 X-48.998 Y-59.808
G0 X-147.808 Y-60.000
G0 X-147.808 Y-60.000 Z18.000
G1 X-147.808 Y-60.000 Z12.500 F24000.000
G2 X-147.926 Y-60.178 Z12.500 I-0.192 J-0.000 F30000.000
G2 X-148.074 Y-59.822 Z12.500 I-0.074 J0.178 F30000.000
G2 X-147.808 Y-60.000 Z12.500 I0.074 J-0.178 F30000.000
G1 X-147.808 Y-60.000 Z12.000 F24000.000
G2 X-147.926 Y-60.178 Z12.000 I-0.192 J-0.000 F30000.000
G2 X-148.074 Y-59.822 Z12.000 I-0.074 J0.178 F30000.000
G2 X-147.808 Y-60.000 Z12.000 I0.074 J-0.178 F30000.000
G1 X-147.808 Y-60.000 Z11.500 F24000.000
G2 X-147.926 Y-60.178 Z11.500 I-0.192 J-0.000 F30000.000
G2 X-148.074 Y-59.822 Z11.500 I-0.074 J0.178 F30000.000
G2 X-147.808 Y-60.000 Z11.500 I0.074 J-0.178 F30000.000
G1 X-147.808 Y-60.000 Z11.000 F24000.000
G2 X-147.926 Y-60.178 Z11.000 I-0.192 J-0.000 F30000.000
G2 X-148.074 Y-59.822 Z11.000 I-0.074 J0.178 F30000.000
G2 X-147.808 Y-60.000 Z11.000 I0.074 J-0.178 F30000.000
G1 X-147.808 Y-60.000 Z10.500 F24000.000
G2 X-147.926 Y-60.178 Z10.500 I-0.192 J-0.000 F30000.000
G2 X-148.074 Y-59.822 Z10.500 I-0.074 J0.178 F30000.000
G2 X-147.808 Y-60.000 Z10.500 I0.074 J-0.178 F30000.000
G1 X-147.808 Y-60.000 Z10.000 F24000.000
G2 X-147.926 Y-60.178 Z10.000 I-0.192 J-0.000 F30000.000
G2 X-148.074 Y-59.822 Z10.000 I-0.074 J0.178 F30000.000
G2 X-147.808 Y-60.000 Z10.000 I0.074 J-0.178 F30000.000
G1 X-147.808 Y-60.000 Z9.500 F24000.000
G2 X-147.926 Y-60.178 Z9.500 I-0.192 J-0.000 F30000.000
G2 X-148.074 Y-59.822 Z9.500 I-0.074 J0.178 F30000.000
G2 X-147.808 Y-60.000 Z9.500 I0.074 J-0.178 F30000.000
G1 X-147.808 Y-60.000 Z9.000 F24000.000
G2 X-147.926 Y-60.178 Z9.000 I-0.192 J-0.000 F30000.000
G2 X-148.074 Y-59.822 Z9.000 I-0.074 J0.178 F30000.000
G2 X-147.808 Y-60.000 Z9.000 I0.074 J-0.178 F30000.000
G1 X-147.808 Y-60.000 Z8.500 F24000.000
G2 X-147.926 Y-60.178 Z8.500 I-0.192 J-0.000 F30000.000
G2 X-148.074 Y-59.822 Z8.500 I-0.074 J0.178 F30000.000
G2 X-147.808 Y-60.000 Z8.500 I0.074 J-0.178 F30000.000
G1 X-147.808 Y-60.000 Z8.000 F24000.000
G2 X-147.926 Y-60.178 Z8.000 I-0.192 J-0.000 F30000.000
G2 X-148.074 Y-59.822 Z8.000 I-0.074 J0.178 F30000.000
G2 X-147.808 Y-60.000 Z8.000 I0.074 J-0.178 F30000.000
G1 X-147.808 Y-60.000 Z7.500 F24000.000
G2 X-147.926 Y-60.178 Z7.500 I-0.192 J-0.000 F30000.000
G2 X-148.074 Y-59.822 Z7.500 I-0.074 J0.178 F30000.000
G2 X-147.808 Y-60.000 Z7.500 I0.074 J-0.178 F30000.000
G1 X-147.808 Y-60.000 Z7.000 F24000.000
G2 X-147.926 Y-60.178 Z7.000 I-0.192 J-0.000 F30000.000
G2 X-148.074 Y-59.822 Z7.000 I-0.074 J0.178 F30000.000
G2 X-147.808 Y-60.000 Z7.000 I0.074 J-0.178 F30000.000
G1 X-147.808 Y-60.000 Z6.500 F24000.000
G2 X-147.926 Y-60.178 Z6.500 I-0.192 J-0.000 F30000.000
G2 X-148.074 Y-59.822 Z6.500 I-0.074 J0.178 F30000.000
G2 X-147.808 Y-60.000 Z6.500 I0.074 J-0.178 F30000.000
G1 X-147.808 Y-60.000 Z6.000 F24000.000
G2 X-147.926 Y-60.178 Z6.000 I-0.192 J-0.000 F30000.000
G2 X-148.074 Y-59.822 Z6.000 I-0.074 J0.178 F30000.000
G2 X-147.808 Y-60.000 Z6.000 I0.074 J-0.178 F30000.000
G1 X-147.808 Y-60.000 Z5.500 F24000.000
