(Exported by FreeCAD)
(Post Processor: KineticNCBeamicon2_post)
(Output Time:2024-09-06 18:16:03.287211)
(begin preamble)
%
G17 G21 G40 G49 G80 G90
M08
G21
(begin operation: Fixture)
(machine: not set, mm/min)
G54
(finish operation: Fixture)
(begin operation: 3.10)
(machine: not set, mm/min)
(3.10)
M05
M09M6 T1
M3 S25000
(finish operation: 3.10)
(begin operation: DressupTag001)
(machine: not set, mm/min)
G0 Z20.000
G0 X200.038 Y145.550 Z20.000
G0 X200.038 Y145.550 Z18.000
G1 X200.038 Y145.550 Z12.500 F24000.000
G3 X200.000 Y145.550 Z12.500 I-0.038 J-1.550 F30000.000
G1 X139.550 Y145.550 Z12.500 F30000.000
G1 X139.550 Y206.000 Z12.500 F30000.000
G3 X138.000 Y207.550 Z12.500 I-1.550 J0.000 F30000.000
G1 X0.000 Y207.550 Z12.500 F30000.000
G3 X-1.550 Y206.000 Z12.500 I0.000 J-1.550 F30000.000
G1 X-1.550 Y17.000 Z12.500 F30000.000
G3 X0.000 Y15.450 Z12.500 I1.550 J0.000 F30000.000
G1 X57.751 Y15.450 Z12.500 F30000.000
G3 X58.989 Y16.040 Z12.500 I-0.058 J1.715 F30000.000
G2 X59.032 Y15.974 Z12.500 I0.011 J-0.040 F30000.000
G3 X58.450 Y14.751 Z12.500 I1.008 J-1.230 F30000.000
G1 X58.450 Y6.000 Z12.500 F30000.000
G3 X60.000 Y4.450 Z12.500 I1.550 J0.000 F30000.000
G1 X140.000 Y4.450 Z12.500 F30000.000
G3 X141.550 Y6.000 Z12.500 I0.000 J1.550 F30000.000
G1 X141.550 Y14.751 Z12.500 F30000.000
G3 X140.960 Y15.989 Z12.500 I-1.716 J-0.058 F30000.000
G2 X141.026 Y16.032 Z12.500 I0.040 J0.011 F30000.000
G3 X142.249 Y15.450 Z12.500 I1.230 J1.008 F30000.000
G1 X200.000 Y15.450 Z12.500 F30000.000
G3 X201.550 Y17.000 Z12.500 I0.000 J1.550 F30000.000
G1 X201.550 Y144.000 Z12.500 F30000.000
G3 X200.038 Y145.550 Z12.500 I-1.550 J0.000 F30000.000
G1 X200.038 Y145.550 Z12.000 F24000.000
G3 X200.000 Y145.550 Z12.000 I-0.038 J-1.550 F30000.000
G1 X139.550 Y145.550 Z12.000 F30000.000
G1 X139.550 Y206.000 Z12.000 F30000.000
G3 X138.000 Y207.550 Z12.000 I-1.550 J0.000 F30000.000
G1 X0.000 Y207.550 Z12.000 F30000.000
G3 X-1.550 Y206.000 Z12.000 I0.000 J-1.550 F30000.000
G1 X-1.550 Y17.000 Z12.000 F30000.000
G3 X0.000 Y15.450 Z12.000 I1.550 J0.000 F30000.000
G1 X57.751 Y15.450 Z12.000 F30000.000
G3 X58.989 Y16.040 Z12.000 I-0.058 J1.715 F30000.000
G2 X59.032 Y15.974 Z12.000 I0.011 J-0.040 F30000.000
G3 X58.450 Y14.751 Z12.000 I1.008 J-1.230 F30000.000
G1 X58.450 Y6.000 Z12.000 F30000.000
G3 X60.000 Y4.450 Z12.000 I1.550 J0.000 F30000.000
G1 X140.000 Y4.450 Z12.000 F30000.000
G3 X141.550 Y6.000 Z12.000 I0.000 J1.550 F30000.000
G1 X141.550 Y14.751 Z12.000 F30000.000
G3 X140.960 Y15.989 Z12.000 I-1.716 J-0.058 F30000.000
G2 X141.026 Y16.032 Z12.000 I0.040 J0.011 F30000.000
G3 X142.249 Y15.450 Z12.000 I1.230 J1.008 F30000.000
G1 X200.000 Y15.450 Z12.000 F30000.000
G3 X201.550 Y17.000 Z12.000 I0.000 J1.550 F30000.000
G1 X201.550 Y144.000 Z12.000 F30000.000
G3 X200.038 Y145.550 Z12.000 I-1.550 J0.000 F30000.000
G1 X200.038 Y145.550 Z11.500 F24000.000
G3 X200.000 Y145.550 Z11.500 I-0.038 J-1.550 F30000.000
G1 X139.550 Y145.550 Z11.500 F30000.000
G1 X139.550 Y206.000 Z11.500 F30000.000
G3 X138.000 Y207.550 Z11.500 I-1.550 J0.000 F30000.000
G1 X0.000 Y207.550 Z11.500 F30000.000
G3 X-1.550 Y206.000 Z11.500 I0.000 J-1.550 F30000.000
G1 X-1.550 Y17.000 Z11.500 F30000.000
G3 X0.000 Y15.450 Z11.500 I1.550 J0.000 F30000.000
G1 X57.751 Y15.450 Z11.500 F30000.000
G3 X58.989 Y16.040 Z11.500 I-0.058 J1.715 F30000.000
G2 X59.032 Y15.974 Z11.500 I0.011 J-0.040 F30000.000
G3 X58.450 Y14.751 Z11.500 I1.008 J-1.230 F30000.000
G1 X58.450 Y6.000 Z11.500 F30000.000
G3 X60.000 Y4.450 Z11.500 I1.550 J0.000 F30000.000
G1 X140.000 Y4.450 Z11.500 F30000.000
G3 X141.550 Y6.000 Z11.500 I0.000 J1.550 F30000.000
G1 X141.550 Y14.751 Z11.500 F30000.000
G3 X140.960 Y15.989 Z11.500 I-1.716 J-0.058 F30000.000
G2 X141.026 Y16.032 Z11.500 I0.040 J0.011 F30000.000
G3 X142.249 Y15.450 Z11.500 I1.230 J1.008 F30000.000
G1 X200.000 Y15.450 Z11.500 F30000.000
G3 X201.550 Y17.000 Z11.500 I0.000 J1.550 F30000.000
G1 X201.550 Y144.000 Z11.500 F30000.000
G3 X200.038 Y145.550 Z11.500 I-1.550 J0.000 F30000.000
G1 X200.038 Y145.550 Z11.000 F24000.000
G3 X200.000 Y145.550 Z11.000 I-0.038 J-1.550 F30000.000
G1 X139.550 Y145.550 Z11.000 F30000.000
G1 X139.550 Y206.000 Z11.000 F30000.000
G3 X138.000 Y207.550 Z11.000 I-1.550 J0.000 F30000.000
G1 X0.000 Y207.550 Z11.000 F30000.000
G3 X-1.550 Y206.000 Z11.000 I0.000 J-1.550 F30000.000
G1 X-1.550 Y17.000 Z11.000 F30000.000
G3 X0.000 Y15.450 Z11.000 I1.550 J0.000 F30000.000
G1 X57.751 Y15.450 Z11.000 F30000.000
G3 X58.989 Y16.040 Z11.000 I-0.058 J1.715 F30000.000
G2 X59.032 Y15.974 Z11.000 I0.011 J-0.040 F30000.000
G3 X58.450 Y14.751 Z11.000 I1.008 J-1.230 F30000.000
G1 X58.450 Y6.000 Z11.000 F30000.000
G3 X60.000 Y4.450 Z11.000 I1.550 J0.000 F30000.000
G1 X140.000 Y4.450 Z11.000 F30000.000
G3 X141.550 Y6.000 Z11.000 I0.000 J1.550 F30000.000
G1 X141.550 Y14.751 Z11.000 F30000.000
G3 X140.960 Y15.989 Z11.000 I-1.716 J-0.058 F30000.000
G2 X141.026 Y16.032 Z11.000 I0.040 J0.011 F30000.000
G3 X142.249 Y15.450 Z11.000 I1.230 J1.008 F30000.000
G1 X200.000 Y15.450 Z11.000 F30000.000
G3 X201.550 Y17.000 Z11.000 I0.000 J1.550 F30000.000
G1 X201.550 Y144.000 Z11.000 F30000.000
G3 X200.038 Y145.550 Z11.000 I-1.550 J0.000 F30000.000
G1 X200.038 Y145.550 Z10.500 F24000.000
G3 X200.000 Y145.550 Z10.500 I-0.038 J-1.550 F30000.000
G1 X139.550 Y145.550 Z10.500 F30000.000
G1 X139.550 Y206.000 Z10.500 F30000.000
G3 X138.000 Y207.550 Z10.500 I-1.550 J0.000 F30000.000
G1 X0.000 Y207.550 Z10.500 F30000.000
G3 X-1.550 Y206.000 Z10.500 I0.000 J-1.550 F30000.000
G1 X-1.550 Y17.000 Z10.500 F30000.000
G3 X0.000 Y15.450 Z10.500 I1.550 J0.000 F30000.000
G1 X57.751 Y15.450 Z10.500 F30000.000
G3 X58.989 Y16.040 Z10.500 I-0.058 J1.715 F30000.000
G2 X59.032 Y15.974 Z10.500 I0.011 J-0.040 F30000.000
G3 X58.450 Y14.751 Z10.500 I1.008 J-1.230 F30000.000
G1 X58.450 Y6.000 Z10.500 F30000.000
G3 X60.000 Y4.450 Z10.500 I1.550 J0.000 F30000.000
G1 X140.000 Y4.450 Z10.500 F30000.000
G3 X141.550 Y6.000 Z10.500 I0.000 J1.550 F30000.000
G1 X141.550 Y14.751 Z10.500 F30000.000
G3 X140.960 Y15.989 Z10.500 I-1.716 J-0.058 F30000.000
G2 X141.026 Y16.032 Z10.500 I0.040 J0.011 F30000.000
G3 X142.249 Y15.450 Z10.500 I1.230 J1.008 F30000.000
G1 X200.000 Y15.450 Z10.500 F30000.000
G3 X201.550 Y17.000 Z10.500 I0.000 J1.550 F30000.000
G1 X201.550 Y144.000 Z10.500 F30000.000
G3 X200.038 Y145.550 Z10.500 I-1.550 J0.000 F30000.000
G1 X200.038 Y145.550 Z10.000 F24000.000
G3 X200.000 Y145.550 Z10.000 I-0.038 J-1.550 F30000.000
G1 X139.550 Y145.550 Z10.000 F30000.000
G1 X139.550 Y206.000 Z10.000 F30000.000
G3 X138.000 Y207.550 Z10.000 I-1.550 J0.000 F30000.000
G1 X0.000 Y207.550 Z10.000 F30000.000
G3 X-1.550 Y206.000 Z10.000 I0.000 J-1.550 F30000.000
G1 X-1.550 Y17.000 Z10.000 F30000.000
G3 X0.000 Y15.450 Z10.000 I1.550 J0.000 F30000.000
G1 X57.751 Y15.450 Z10.000 F30000.000
G3 X58.989 Y16.040 Z10.000 I-0.058 J1.715 F30000.000
G2 X59.032 Y15.974 Z10.000 I0.011 J-0.040 F30000.000
G3 X58.450 Y14.751 Z10.000 I1.008 J-1.230 F30000.000
G1 X58.450 Y6.000 Z10.000 F30000.000
G3 X60.000 Y4.450 Z10.000 I1.550 J0.000 F30000.000
G1 X140.000 Y4.450 Z10.000 F30000.000
G3 X141.550 Y6.000 Z10.000 I0.000 J1.550 F30000.000
G1 X141.550 Y14.751 Z10.000 F30000.000
G3 X140.960 Y15.989 Z10.000 I-1.716 J-0.058 F30000.000
G2 X141.026 Y16.032 Z10.000 I0.040 J0.011 F30000.000
G3 X142.249 Y15.450 Z10.000 I1.230 J1.008 F30000.000
G1 X200.000 Y15.450 Z10.000 F30000.000
G3 X201.550 Y17.000 Z10.000 I0.000 J1.550 F30000.000
G1 X201.550 Y144.000 Z10.000 F30000.000
G3 X200.038 Y145.550 Z10.000 I-1.550 J0.000 F30000.000
G1 X200.038 Y145.550 Z9.500 F24000.000
G3 X200.000 Y145.550 Z9.500 I-0.038 J-1.550 F30000.000
G1 X139.550 Y145.550 Z9.500 F30000.000
G1 X139.550 Y206.000 Z9.500 F30000.000
G3 X138.000 Y207.550 Z9.500 I-1.550 J0.000 F30000.000
G1 X0.000 Y207.550 Z9.500 F30000.000
G3 X-1.550 Y206.000 Z9.500 I0.000 J-1.550 F30000.000
G1 X-1.550 Y17.000 Z9.500 F30000.000
G3 X0.000 Y15.450 Z9.500 I1.550 J0.000 F30000.000
G1 X57.751 Y15.450 Z9.500 F30000.000
G3 X58.989 Y16.040 Z9.500 I-0.058 J1.715 F30000.000
G2 X59.032 Y15.974 Z9.500 I0.011 J-0.040 F30000.000
G3 X58.450 Y14.751 Z9.500 I1.008 J-1.230 F30000.000
G1 X58.450 Y6.000 Z9.500 F30000.000
G3 X60.000 Y4.450 Z9.500 I1.550 J0.000 F30000.000
G1 X140.000 Y4.450 Z9.500 F30000.000
G3 X141.550 Y6.000 Z9.500 I0.000 J1.550 F30000.000
G1 X141.550 Y14.751 Z9.500 F30000.000
G3 X140.960 Y15.989 Z9.500 I-1.716 J-0.058 F30000.000
G2 X141.026 Y16.032 Z9.500 I0.040 J0.011 F30000.000
G3 X142.249 Y15.450 Z9.500 I1.230 J1.008 F30000.000
G1 X200.000 Y15.450 Z9.500 F30000.000
G3 X201.550 Y17.000 Z9.500 I0.000 J1.550 F30000.000
G1 X201.550 Y144.000 Z9.500 F30000.000
G3 X200.038 Y145.550 Z9.500 I-1.550 J0.000 F30000.000
G1 X200.038 Y145.550 Z9.000 F24000.000
G3 X200.000 Y145.550 Z9.000 I-0.038 J-1.550 F30000.000
G1 X139.550 Y145.550 Z9.000 F30000.000
G1 X139.550 Y206.000 Z9.000 F30000.000
G3 X138.000 Y207.550 Z9.000 I-1.550 J0.000 F30000.000
G1 X0.000 Y207.550 Z9.000 F30000.000
G3 X-1.550 Y206.000 Z9.000 I0.000 J-1.550 F30000.000
G1 X-1.550 Y17.000 Z9.000 F30000.000
G3 X0.000 Y15.450 Z9.000 I1.550 J0.000 F30000.000
G1 X57.751 Y15.450 Z9.000 F30000.000
G3 X58.989 Y16.040 Z9.000 I-0.058 J1.715 F30000.000
G2 X59.032 Y15.974 Z9.000 I0.011 J-0.040 F30000.000
G3 X58.450 Y14.751 Z9.000 I1.008 J-1.230 F30000.000
G1 X58.450 Y6.000 Z9.000 F30000.000
G3 X60.000 Y4.450 Z9.000 I1.550 J0.000 F30000.000
G1 X140.000 Y4.450 Z9.000 F30000.000
G3 X141.550 Y6.000 Z9.000 I0.000 J1.550 F30000.000
G1 X141.550 Y14.751 Z9.000 F30000.000
G3 X140.960 Y15.989 Z9.000 I-1.716 J-0.058 F30000.000
G2 X141.026 Y16.032 Z9.000 I0.040 J0.011 F30000.000
G3 X142.249 Y15.450 Z9.000 I1.230 J1.008 F30000.000
G1 X200.000 Y15.450 Z9.000 F30000.000
G3 X201.550 Y17.000 Z9.000 I0.000 J1.550 F30000.000
G1 X201.550 Y144.000 Z9.000 F30000.000
G3 X200.038 Y145.550 Z9.000 I-1.550 J0.000 F30000.000
G1 X200.038 Y145.550 Z8.500 F24000.000
G3 X200.000 Y145.550 Z8.500 I-0.038 J-1.550 F30000.000
G1 X139.550 Y145.550 Z8.500 F30000.000
G1 X139.550 Y206.000 Z8.500 F30000.000
G3 X138.000 Y207.550 Z8.500 I-1.550 J0.000 F30000.000
G1 X0.000 Y207.550 Z8.500 F30000.000
G3 X-1.550 Y206.000 Z8.500 I0.000 J-1.550 F30000.000
G1 X-1.550 Y17.000 Z8.500 F30000.000
G3 X0.000 Y15.450 Z8.500 I1.550 J0.000 F30000.000
G1 X57.751 Y15.450 Z8.500 F30000.000
G3 X58.989 Y16.040 Z8.500 I-0.058 J1.715 F30000.000
G2 X59.032 Y15.974 Z8.500 I0.011 J-0.040 F30000.000
G3 X58.450 Y14.751 Z8.500 I1.008 J-1.230 F30000.000
G1 X58.450 Y6.000 Z8.500 F30000.000
G3 X60.000 Y4.450 Z8.500 I1.550 J0.000 F30000.000
G1 X140.000 Y4.450 Z8.500 F30000.000
G3 X141.550 Y6.000 Z8.500 I0.000 J1.550 F30000.000
G1 X141.550 Y14.751 Z8.500 F30000.000
G3 X140.960 Y15.989 Z8.500 I-1.716 J-0.058 F30000.000
G2 X141.026 Y16.032 Z8.500 I0.040 J0.011 F30000.000
G3 X142.249 Y15.450 Z8.500 I1.230 J1.008 F30000.000
G1 X200.000 Y15.450 Z8.500 F30000.000
G3 X201.550 Y17.000 Z8.500 I0.000 J1.550 F30000.000
G1 X201.550 Y144.000 Z8.500 F30000.000
G3 X200.038 Y145.550 Z8.500 I-1.550 J0.000 F30000.000
G1 X200.038 Y145.550 Z8.000 F24000.000
G3 X200.000 Y145.550 Z8.000 I-0.038 J-1.550 F30000.000
G1 X139.550 Y145.550 Z8.000 F30000.000
G1 X139.550 Y206.000 Z8.000 F30000.000
G3 X138.000 Y207.550 Z8.000 I-1.550 J0.000 F30000.000
G1 X0.000 Y207.550 Z8.000 F30000.000
G3 X-1.550 Y206.000 Z8.000 I0.000 J-1.550 F30000.000
G1 X-1.550 Y17.000 Z8.000 F30000.000
G3 X0.000 Y15.450 Z8.000 I1.550 J0.000 F30000.000
G1 X57.751 Y15.450 Z8.000 F30000.000
G3 X58.989 Y16.040 Z8.000 I-0.058 J1.715 F30000.000
G2 X59.032 Y15.974 Z8.000 I0.011 J-0.040 F30000.000
G3 X58.450 Y14.751 Z8.000 I1.008 J-1.230 F30000.000
G1 X58.450 Y6.000 Z8.000 F30000.000
G3 X60.000 Y4.450 Z8.000 I1.550 J0.000 F30000.000
G1 X140.000 Y4.450 Z8.000 F30000.000
G3 X141.550 Y6.000 Z8.000 I0.000 J1.550 F30000.000
G1 X141.550 Y14.751 Z8.000 F30000.000
G3 X140.960 Y15.989 Z8.000 I-1.716 J-0.058 F30000.000
G2 X141.026 Y16.032 Z8.000 I0.040 J0.011 F30000.000
G3 X142.249 Y15.450 Z8.000 I1.230 J1.008 F30000.000
G1 X200.000 Y15.450 Z8.000 F30000.000
G3 X201.550 Y17.000 Z8.000 I0.000 J1.550 F30000.000
G1 X201.550 Y144.000 Z8.000 F30000.000
G3 X200.038 Y145.550 Z8.000 I-1.550 J0.000 F30000.000
G1 X200.038 Y145.550 Z7.500 F24000.000
G3 X200.000 Y145.550 Z7.500 I-0.038 J-1.550 F30000.000
G1 X139.550 Y145.550 Z7.500 F30000.000
G1 X139.550 Y206.000 Z7.500 F30000.000
G3 X138.000 Y207.550 Z7.500 I-1.550 J0.000 F30000.000
G1 X0.000 Y207.550 Z7.500 F30000.000
G3 X-1.550 Y206.000 Z7.500 I0.000 J-1.550 F30000.000
G1 X-1.550 Y17.000 Z7.500 F30000.000
G3 X0.000 Y15.450 Z7.500 I1.550 J0.000 F30000.000
G1 X57.751 Y15.450 Z7.500 F30000.000
G3 X58.989 Y16.040 Z7.500 I-0.058 J1.715 F30000.000
G2 X59.032 Y15.974 Z7.500 I0.011 J-0.040 F30000.000
G3 X58.450 Y14.751 Z7.500 I1.008 J-1.230 F30000.000
G1 X58.450 Y6.000 Z7.500 F30000.000
G3 X60.000 Y4.450 Z7.500 I1.550 J0.000 F30000.000
G1 X140.000 Y4.450 Z7.500 F30000.000
G3 X141.550 Y6.000 Z7.500 I0.000 J1.550 F30000.000
G1 X141.550 Y14.751 Z7.500 F30000.000
G3 X140.960 Y15.989 Z7.500 I-1.716 J-0.058 F30000.000
G2 X141.026 Y16.032 Z7.500 I0.040 J0.011 F30000.000
G3 X142.249 Y15.450 Z7.500 I1.230 J1.008 F30000.000
G1 X200.000 Y15.450 Z7.500 F30000.000
G3 X201.550 Y17.000 Z7.500 I0.000 J1.550 F30000.000
G1 X201.550 Y144.000 Z7.500 F30000.000
G3 X200.038 Y145.550 Z7.500 I-1.550 J0.000 F30000.000
G1 X200.038 Y145.550 Z7.000 F24000.000
G3 X200.000 Y145.550 Z7.000 I-0.038 J-1.550 F30000.000
G1 X139.550 Y145.550 Z7.000 F30000.000
G1 X139.550 Y206.000 Z7.000 F30000.000
G3 X138.000 Y207.550 Z7.000 I-1.550 J0.000 F30000.000
G1 X0.000 Y207.550 Z7.000 F30000.000
G3 X-1.550 Y206.000 Z7.000 I0.000 J-1.550 F30000.000
G1 X-1.550 Y17.000 Z7.000 F30000.000
G3 X0.000 Y15.450 Z7.000 I1.550 J0.000 F30000.000
G1 X57.751 Y15.450 Z7.000 F30000.000
G3 X58.989 Y16.040 Z7.000 I-0.058 J1.715 F30000.000
G2 X59.032 Y15.974 Z7.000 I0.011 J-0.040 F30000.000
G3 X58.450 Y14.751 Z7.000 I1.008 J-1.230 F30000.000
G1 X58.450 Y6.000 Z7.000 F30000.000
G3 X60.000 Y4.450 Z7.000 I1.550 J0.000 F30000.000
G1 X140.000 Y4.450 Z7.000 F30000.000
G3 X141.550 Y6.000 Z7.000 I0.000 J1.550 F30000.000
G1 X141.550 Y14.751 Z7.000 F30000.000
G3 X140.960 Y15.989 Z7.000 I-1.716 J-0.058 F30000.000
G2 X141.026 Y16.032 Z7.000 I0.040 J0.011 F30000.000
G3 X142.249 Y15.450 Z7.000 I1.230 J1.008 F30000.000
G1 X200.000 Y15.450 Z7.000 F30000.000
G3 X201.550 Y17.000 Z7.000 I0.000 J1.550 F30000.000
G1 X201.550 Y144.000 Z7.000 F30000.000
G3 X200.038 Y145.550 Z7.000 I-1.550 J0.000 F30000.000
G1 X200.038 Y145.550 Z6.500 F24000.000
G3 X200.000 Y145.550 Z6.500 I-0.038 J-1.550 F30000.000
G1 X139.550 Y145.550 Z6.500 F30000.000
G1 X139.550 Y206.000 Z6.500 F30000.000
G3 X138.000 Y207.550 Z6.500 I-1.550 J0.000 F30000.000
G1 X0.000 Y207.550 Z6.500 F30000.000
G3 X-1.550 Y206.000 Z6.500 I0.000 J-1.550 F30000.000
G1 X-1.550 Y17.000 Z6.500 F30000.000
G3 X0.000 Y15.450 Z6.500 I1.550 J0.000 F30000.000
G1 X57.751 Y15.450 Z6.500 F30000.000
G3 X58.989 Y16.040 Z6.500 I-0.058 J1.715 F30000.000
G2 X59.032 Y15.974 Z6.500 I0.011 J-0.040 F30000.000
G3 X58.450 Y14.751 Z6.500 I1.008 J-1.230 F30000.000
G1 X58.450 Y6.000 Z6.500 F30000.000
G3 X60.000 Y4.450 Z6.500 I1.550 J0.000 F30000.000
G1 X140.000 Y4.450 Z6.500 F30000.000
G3 X141.550 Y6.000 Z6.500 I0.000 J1.550 F30000.000
G1 X141.550 Y14.751 Z6.500 F30000.000
G3 X140.960 Y15.989 Z6.500 I-1.716 J-0.058 F30000.000
G2 X141.026 Y16.032 Z6.500 I0.040 J0.011 F30000.000
G3 X142.249 Y15.450 Z6.500 I1.230 J1.008 F30000.000
G1 X200.000 Y15.450 Z6.500 F30000.000
G3 X201.550 Y17.000 Z6.500 I0.000 J1.550 F30000.000
G1 X201.550 Y144.000 Z6.500 F30000.000
G3 X200.038 Y145.550 Z6.500 I-1.550 J0.000 F30000.000
G1 X200.038 Y145.550 Z6.000 F24000.000
G3 X200.000 Y145.550 Z6.000 I-0.038 J-1.550 F30000.000
G1 X139.550 Y145.550 Z6.000 F30000.000
G1 X139.550 Y206.000 Z6.000 F30000.000
G3 X138.000 Y207.550 Z6.000 I-1.550 J0.000 F30000.000
G1 X73.684 Y207.550 Z6.000 F30000.000
G1 X73.304 Y207.550 Z6.380 F27000.000
G1 X64.696 Y207.550 Z6.380 F30000.000
G1 X64.316 Y207.550 Z6.000 F27000.000
G1 X0.000 Y207.550 Z6.000 F30000.000
G3 X-1.550 Y206.000 Z6.000 I0.000 J-1.550 F30000.000
G1 X-1.550 Y116.184 Z6.000 F30000.000
G1 X-1.550 Y115.804 Z6.380 F27000.000
G1 X-1.550 Y107.196 Z6.380 F30000.000
G1 X-1.550 Y106.816 Z6.000 F27000.000
G1 X-1.550 Y17.000 Z6.000 F30000.000
G3 X0.000 Y15.450 Z6.000 I1.550 J0.000 F30000.000
G1 X57.751 Y15.450 Z6.000 F30000.000
G3 X58.989 Y16.040 Z6.000 I-0.058 J1.715 F30000.000
G2 X59.032 Y15.974 Z6.000 I0.011 J-0.040 F30000.000
G3 X58.450 Y14.751 Z6.000 I1.008 J-1.230 F30000.000
G1 X58.450 Y6.000 Z6.000 F30000.000
G3 X60.000 Y4.450 Z6.000 I1.550 J0.000 F30000.000
G1 X95.316 Y4.450 Z6.000 F30000.000
G1 X95.696 Y4.450 Z6.380 F27000.000
G1 X104.304 Y4.450 Z6.380 F30000.000
G1 X104.684 Y4.450 Z6.000 F27000.000
G1 X140.000 Y4.450 Z6.000 F30000.000
G3 X141.550 Y6.000 Z6.000 I0.000 J1.550 F30000.000
G1 X141.550 Y14.751 Z6.000 F30000.000
G3 X140.960 Y15.989 Z6.000 I-1.716 J-0.058 F30000.000
G2 X141.026 Y16.032 Z6.000 I0.040 J0.011 F30000.000
G3 X142.249 Y15.450 Z6.000 I1.230 J1.008 F30000.000
G1 X200.000 Y15.450 Z6.000 F30000.000
G3 X201.550 Y17.000 Z6.000 I0.000 J1.550 F30000.000
G1 X201.550 Y75.816 Z6.000 F30000.000
G1 X201.550 Y76.196 Z6.380 F27000.000
G1 X201.550 Y84.804 Z6.380 F30000.000
G1 X201.550 Y85.184 Z6.000 F27000.000
G1 X201.550 Y144.000 Z6.000 F30000.000
G3 X200.038 Y145.550 Z6.000 I-1.550 J0.000 F30000.000
G1 X200.038 Y145.550 Z5.500 F24000.000
G3 X200.000 Y145.550 Z5.500 I-0.038 J-1.550 F30000.000
G1 X139.550 Y145.550 Z5.500 F30000.000
G1 X139.550 Y206.000 Z5.500 F30000.000
G3 X138.000 Y207.550 Z5.500 I-1.550 J0.000 F30000.000
G1 X74.184 Y207.550 Z5.500 F30000.000
G1 X73.304 Y207.550 Z6.380 F27000.000
G1 X64.696 Y207.550 Z6.380 F30000.000
G1 X63.816 Y207.550 Z5.500 F27000.000
G1 X0.000 Y207.550 Z5.500 F30000.000
G3 X-1.550 Y206.000 Z5.500 I0.000 J-1.550 F30000.000
G1 X-1.550 Y116.684 Z5.500 F30000.000
G1 X-1.550 Y115.804 Z6.380 F27000.000
G1 X-1.550 Y107.196 Z6.380 F30000.000
G1 X-1.550 Y106.316 Z5.500 F27000.000
G1 X-1.550 Y17.000 Z5.500 F30000.000
G3 X0.000 Y15.450 Z5.500 I1.550 J0.000 F30000.000
G1 X57.751 Y15.450 Z5.500 F30000.000
G3 X58.989 Y16.040 Z5.500 I-0.058 J1.715 F30000.000
G2 X59.032 Y15.974 Z5.500 I0.011 J-0.040 F30000.000
G3 X58.450 Y14.751 Z5.500 I1.008 J-1.230 F30000.000
G1 X58.450 Y6.000 Z5.500 F30000.000
G3 X60.000 Y4.450 Z5.500 I1.550 J0.000 F30000.000
G1 X94.816 Y4.450 Z5.500 F30000.000
G1 X95.696 Y4.450 Z6.380 F27000.000
G1 X104.304 Y4.450 Z6.380 F30000.000
G1 X105.184 Y4.450 Z5.500 F27000.000
G1 X140.000 Y4.450 Z5.500 F30000.000
G3 X141.550 Y6.000 Z5.500 I0.000 J1.550 F30000.000
G1 X141.550 Y14.751 Z5.500 F30000.000
G3 X140.960 Y15.989 Z5.500 I-1.716 J-0.058 F30000.000
G2 X141.026 Y16.032 Z5.500 I0.040 J0.011 F30000.000
G3 X142.249 Y15.450 Z5.500 I1.230 J1.008 F30000.000
G1 X200.000 Y15.450 Z5.500 F30000.000
G3 X201.550 Y17.000 Z5.500 I0.000 J1.550 F30000.000
G1 X201.550 Y75.316 Z5.500 F30000.000
G1 X201.550 Y76.196 Z6.380 F27000.000
G1 X201.550 Y84.804 Z6.380 F30000.000
G1 X201.550 Y85.684 Z5.500 F27000.000
G1 X201.550 Y144.000 Z5.500 F30000.000
G3 X200.038 Y145.550 Z5.500 I-1.550 J0.000 F30000.000
G1 X200.038 Y145.550 Z5.000 F24000.000
G3 X200.000 Y145.550 Z5.000 I-0.038 J-1.550 F30000.000
G1 X139.550 Y145.550 Z5.000 F30000.000
G1 X139.550 Y206.000 Z5.000 F30000.000
G3 X138.000 Y207.550 Z5.000 I-1.550 J0.000 F30000.000
G1 X74.684 Y207.550 Z5.000 F30000.000
G1 X73.304 Y207.550 Z6.380 F27000.000
G1 X64.696 Y207.550 Z6.380 F30000.000
G1 X63.316 Y207.550 Z5.000 F27000.000
G1 X0.000 Y207.550 Z5.000 F30000.000
G3 X-1.550 Y206.000 Z5.000 I0.000 J-1.550 F30000.000
G1 X-1.550 Y117.184 Z5.000 F30000.000
G1 X-1.550 Y115.804 Z6.380 F27000.000
G1 X-1.550 Y107.196 Z6.380 F30000.000
G1 X-1.550 Y105.816 Z5.000 F27000.000
G1 X-1.550 Y17.000 Z5.000 F30000.000
G3 X0.000 Y15.450 Z5.000 I1.550 J0.000 F30000.000
G1 X57.751 Y15.450 Z5.000 F30000.000
G3 X58.989 Y16.040 Z5.000 I-0.058 J1.715 F30000.000
G2 X59.032 Y15.974 Z5.000 I0.011 J-0.040 F30000.000
G3 X58.450 Y14.751 Z5.000 I1.008 J-1.230 F30000.000
G1 X58.450 Y6.000 Z5.000 F30000.000
G3 X60.000 Y4.450 Z5.000 I1.550 J0.000 F30000.000
G1 X94.316 Y4.450 Z5.000 F30000.000
G1 X95.696 Y4.450 Z6.380 F27000.000
G1 X104.304 Y4.450 Z6.380 F30000.000
G1 X105.684 Y4.450 Z5.000 F27000.000
G1 X140.000 Y4.450 Z5.000 F30000.000
G3 X141.550 Y6.000 Z5.000 I0.000 J1.550 F30000.000
G1 X141.550 Y14.751 Z5.000 F30000.000
G3 X140.960 Y15.989 Z5.000 I-1.716 J-0.058 F30000.000
G2 X141.026 Y16.032 Z5.000 I0.040 J0.011 F30000.000
G3 X142.249 Y15.450 Z5.000 I1.230 J1.008 F30000.000
G1 X200.000 Y15.450 Z5.000 F30000.000
G3 X201.550 Y17.000 Z5.000 I0.000 J1.550 F30000.000
G1 X201.550 Y74.816 Z5.000 F30000.000
G1 X201.550 Y76.196 Z6.380 F27000.000
G1 X201.550 Y84.804 Z6.380 F30000.000
G1 X201.550 Y86.184 Z5.000 F27000.000
G1 X201.550 Y144.000 Z5.000 F30000.000
G3 X200.038 Y145.550 Z5.000 I-1.550 J0.000 F30000.000
G1 X200.038 Y145.550 Z4.500 F24000.000
G3 X200.000 Y145.550 Z4.500 I-0.038 J-1.550 F30000.000
G1 X139.550 Y145.550 Z4.500 F30000.000
G1 X139.550 Y206.000 Z4.500 F30000.000
G3 X138.000 Y207.550 Z4.500 I-1.550 J0.000 F30000.000
G1 X75.184 Y207.550 Z4.500 F30000.000
G1 X73.304 Y207.550 Z6.380 F27000.000
G1 X64.696 Y207.550 Z6.380 F30000.000
G1 X62.816 Y207.550 Z4.500 F27000.000
G1 X0.000 Y207.550 Z4.500 F30000.000
G3 X-1.550 Y206.000 Z4.500 I0.000 J-1.550 F30000.000
G1 X-1.550 Y117.684 Z4.500 F30000.000
G1 X-1.550 Y115.804 Z6.380 F27000.000
G1 X-1.550 Y107.196 Z6.380 F30000.000
G1 X-1.550 Y105.316 Z4.500 F27000.000
G1 X-1.550 Y17.000 Z4.500 F30000.000
G3 X0.000 Y15.450 Z4.500 I1.550 J0.000 F30000.000
G1 X57.751 Y15.450 Z4.500 F30000.000
G3 X58.989 Y16.040 Z4.500 I-0.058 J1.715 F30000.000
G2 X59.032 Y15.974 Z4.500 I0.011 J-0.040 F30000.000
G3 X58.450 Y14.751 Z4.500 I1.008 J-1.230 F30000.000
G1 X58.450 Y6.000 Z4.500 F30000.000
G3 X60.000 Y4.450 Z4.500 I1.550 J0.000 F30000.000
G1 X93.816 Y4.450 Z4.500 F30000.000
G1 X95.696 Y4.450 Z6.380 F27000.000
G1 X104.304 Y4.450 Z6.380 F30000.000
G1 X106.184 Y4.450 Z4.500 F27000.000
G1 X140.000 Y4.450 Z4.500 F30000.000
G3 X141.550 Y6.000 Z4.500 I0.000 J1.550 F30000.000
G1 X141.550 Y14.751 Z4.500 F30000.000
G3 X140.960 Y15.989 Z4.500 I-1.716 J-0.058 F30000.000
G2 X141.026 Y16.032 Z4.500 I0.040 J0.011 F30000.000
G3 X142.249 Y15.450 Z4.500 I1.230 J1.008 F30000.000
G1 X200.000 Y15.450 Z4.500 F30000.000
G3 X201.550 Y17.000 Z4.500 I0.000 J1.550 F30000.000
G1 X201.550 Y74.316 Z4.500 F30000.000
G1 X201.550 Y76.196 Z6.380 F27000.000
G1 X201.550 Y84.804 Z6.380 F30000.000
G1 X201.550 Y86.684 Z4.500 F27000.000
G1 X201.550 Y144.000 Z4.500 F30000.000
G3 X200.038 Y145.550 Z4.500 I-1.550 J0.000 F30000.000
G1 X200.038 Y145.550 Z4.000 F24000.000
G3 X200.000 Y145.550 Z4.000 I-0.038 J-1.550 F30000.000
G1 X139.550 Y145.550 Z4.000 F30000.000
G1 X139.550 Y206.000 Z4.000 F30000.000
G3 X138.000 Y207.550 Z4.000 I-1.550 J0.000 F30000.000
G1 X75.684 Y207.550 Z4.000 F30000.000
G1 X73.304 Y207.550 Z6.380 F27000.000
G1 X64.696 Y207.550 Z6.380 F30000.000
G1 X62.316 Y207.550 Z4.000 F27000.000
G1 X0.000 Y207.550 Z4.000 F30000.000
G3 X-1.550 Y206.000 Z4.000 I0.000 J-1.550 F30000.000
G1 X-1.550 Y118.184 Z4.000 F30000.000
G1 X-1.550 Y115.804 Z6.380 F27000.000
G1 X-1.550 Y107.196 Z6.380 F30000.000
G1 X-1.550 Y104.816 Z4.000 F27000.000
G1 X-1.550 Y17.000 Z4.000 F30000.000
G3 X0.000 Y15.450 Z4.000 I1.550 J0.000 F30000.000
G1 X57.751 Y15.450 Z4.000 F30000.000
G3 X58.989 Y16.040 Z4.000 I-0.058 J1.715 F30000.000
G2 X59.032 Y15.974 Z4.000 I0.011 J-0.040 F30000.000
G3 X58.450 Y14.751 Z4.000 I1.008 J-1.230 F30000.000
G1 X58.450 Y6.000 Z4.000 F30000.000
G3 X60.000 Y4.450 Z4.000 I1.550 J0.000 F30000.000
G1 X93.316 Y4.450 Z4.000 F30000.000
G1 X95.696 Y4.450 Z6.380 F27000.000
G1 X104.304 Y4.450 Z6.380 F30000.000
G1 X106.684 Y4.450 Z4.000 F27000.000
G1 X140.000 Y4.450 Z4.000 F30000.000
G3 X141.550 Y6.000 Z4.000 I0.000 J1.550 F30000.000
G1 X141.550 Y14.751 Z4.000 F30000.000
G3 X140.960 Y15.989 Z4.000 I-1.716 J-0.058 F30000.000
G2 X141.026 Y16.032 Z4.000 I0.040 J0.011 F30000.000
G3 X142.249 Y15.450 Z4.000 I1.230 J1.008 F30000.000
G1 X200.000 Y15.450 Z4.000 F30000.000
G3 X201.550 Y17.000 Z4.000 I0.000 J1.550 F30000.000
G1 X201.550 Y73.816 Z4.000 F30000.000
G1 X201.550 Y76.196 Z6.380 F27000.000
G1 X201.550 Y84.804 Z6.380 F30000.000
G1 X201.550 Y87.184 Z4.000 F27000.000
G1 X201.550 Y144.000 Z4.000 F30000.000
G3 X200.038 Y145.550 Z4.000 I-1.550 J0.000 F30000.000
G1 X200.038 Y145.550 Z3.500 F24000.000
G3 X200.000 Y145.550 Z3.500 I-0.038 J-1.550 F30000.000
G1 X139.550 Y145.550 Z3.500 F30000.000
G1 X139.550 Y206.000 Z3.500 F30000.000
G3 X138.000 Y207.550 Z3.500 I-1.550 J0.000 F30000.000
G1 X76.184 Y207.550 Z3.500 F30000.000
G1 X73.304 Y207.550 Z6.380 F27000.000
G1 X64.696 Y207.550 Z6.380 F30000.000
G1 X61.816 Y207.550 Z3.500 F27000.000
G1 X0.000 Y207.550 Z3.500 F30000.000
G3 X-1.550 Y206.000 Z3.500 I0.000 J-1.550 F30000.000
G1 X-1.550 Y118.684 Z3.500 F30000.000
G1 X-1.550 Y115.804 Z6.380 F27000.000
G1 X-1.550 Y107.196 Z6.380 F30000.000
G1 X-1.550 Y104.316 Z3.500 F27000.000
G1 X-1.550 Y17.000 Z3.500 F30000.000
G3 X0.000 Y15.450 Z3.500 I1.550 J0.000 F30000.000
G1 X57.751 Y15.450 Z3.500 F30000.000
G3 X58.989 Y16.040 Z3.500 I-0.058 J1.715 F30000.000
G2 X59.032 Y15.974 Z3.500 I0.011 J-0.040 F30000.000
G3 X58.450 Y14.751 Z3.500 I1.008 J-1.230 F30000.000
G1 X58.450 Y6.000 Z3.500 F30000.000
G3 X60.000 Y4.450 Z3.500 I1.550 J0.000 F30000.000
G1 X92.816 Y4.450 Z3.500 F30000.000
G1 X95.696 Y4.450 Z6.380 F27000.000
G1 X104.304 Y4.450 Z6.380 F30000.000
G1 X107.184 Y4.450 Z3.500 F27000.000
G1 X140.000 Y4.450 Z3.500 F30000.000
G3 X141.550 Y6.000 Z3.500 I0.000 J1.550 F30000.000
G1 X141.550 Y14.751 Z3.500 F30000.000
G3 X140.960 Y15.989 Z3.500 I-1.716 J-0.058 F30000.000
G2 X141.026 Y16.032 Z3.500 I0.040 J0.011 F30000.000
G3 X142.249 Y15.450 Z3.500 I1.230 J1.008 F30000.000
G1 X200.000 Y15.450 Z3.500 F30000.000
G3 X201.550 Y17.000 Z3.500 I0.000 J1.550 F30000.000
G1 X201.550 Y73.316 Z3.500 F30000.000
G1 X201.550 Y76.196 Z6.380 F27000.000
G1 X201.550 Y84.804 Z6.380 F30000.000
G1 X201.550 Y87.684 Z3.500 F27000.000
G1 X201.550 Y144.000 Z3.500 F30000.000
G3 X200.038 Y145.550 Z3.500 I-1.550 J0.000 F30000.000
G1 X200.038 Y145.550 Z3.000 F24000.000
G3 X200.000 Y145.550 Z3.000 I-0.038 J-1.550 F30000.000
G1 X139.550 Y145.550 Z3.000 F30000.000
G1 X139.550 Y206.000 Z3.000 F30000.000
G3 X138.000 Y207.550 Z3.000 I-1.550 J0.000 F30000.000
G1 X76.684 Y207.550 Z3.000 F30000.000
G1 X73.304 Y207.550 Z6.380 F27000.000
G1 X64.696 Y207.550 Z6.380 F30000.000
G1 X61.316 Y207.550 Z3.000 F27000.000
G1 X0.000 Y207.550 Z3.000 F30000.000
G3 X-1.550 Y206.000 Z3.000 I0.000 J-1.550 F30000.000
G1 X-1.550 Y119.184 Z3.000 F30000.000
G1 X-1.550 Y115.804 Z6.380 F27000.000
G1 X-1.550 Y107.196 Z6.380 F30000.000
G1 X-1.550 Y103.816 Z3.000 F27000.000
G1 X-1.550 Y17.000 Z3.000 F30000.000
G3 X0.000 Y15.450 Z3.000 I1.550 J0.000 F30000.000
G1 X57.751 Y15.450 Z3.000 F30000.000
G3 X58.989 Y16.040 Z3.000 I-0.058 J1.715 F30000.000
G2 X59.032 Y15.974 Z3.000 I0.011 J-0.040 F30000.000
G3 X58.450 Y14.751 Z3.000 I1.008 J-1.230 F30000.000
G1 X58.450 Y6.000 Z3.000 F30000.000
G3 X60.000 Y4.450 Z3.000 I1.550 J0.000 F30000.000
G1 X92.316 Y4.450 Z3.000 F30000.000
G1 X95.696 Y4.450 Z6.380 F27000.000
G1 X104.304 Y4.450 Z6.380 F30000.000
G1 X107.684 Y4.450 Z3.000 F27000.000
G1 X140.000 Y4.450 Z3.000 F30000.000
G3 X141.550 Y6.000 Z3.000 I0.000 J1.550 F30000.000
G1 X141.550 Y14.751 Z3.000 F30000.000
G3 X140.960 Y15.989 Z3.000 I-1.716 J-0.058 F30000.000
G2 X141.026 Y16.032 Z3.000 I0.040 J0.011 F30000.000
G3 X142.249 Y15.450 Z3.000 I1.230 J1.008 F30000.000
G1 X200.000 Y15.450 Z3.000 F30000.000
G3 X201.550 Y17.000 Z3.000 I0.000 J1.550 F30000.000
G1 X201.550 Y72.816 Z3.000 F30000.000
G1 X201.550 Y76.196 Z6.380 F27000.000
G1 X201.550 Y84.804 Z6.380 F30000.000
G1 X201.550 Y88.184 Z3.000 F27000.000
G1 X201.550 Y144.000 Z3.000 F30000.000
G3 X200.038 Y145.550 Z3.000 I-1.550 J0.000 F30000.000
G1 X200.038 Y145.550 Z2.500 F24000.000
G3 X200.000 Y145.550 Z2.500 I-0.038 J-1.550 F30000.000
G1 X139.550 Y145.550 Z2.500 F30000.000
G1 X139.550 Y206.000 Z2.500 F30000.000
G3 X138.000 Y207.550 Z2.500 I-1.550 J0.000 F30000.000
G1 X77.184 Y207.550 Z2.500 F30000.000
G1 X73.304 Y207.550 Z6.380 F27000.000
G1 X64.696 Y207.550 Z6.380 F30000.000
G1 X60.816 Y207.550 Z2.500 F27000.000
G1 X0.000 Y207.550 Z2.500 F30000.000
G3 X-1.550 Y206.000 Z2.500 I0.000 J-1.550 F30000.000
G1 X-1.550 Y119.684 Z2.500 F30000.000
G1 X-1.550 Y115.804 Z6.380 F27000.000
G1 X-1.550 Y107.196 Z6.380 F30000.000
G1 X-1.550 Y103.316 Z2.500 F27000.000
G1 X-1.550 Y17.000 Z2.500 F30000.000
G3 X0.000 Y15.450 Z2.500 I1.550 J0.000 F30000.000
G1 X57.751 Y15.450 Z2.500 F30000.000
G3 X58.989 Y16.040 Z2.500 I-0.058 J1.715 F30000.000
G2 X59.032 Y15.974 Z2.500 I0.011 J-0.040 F30000.000
G3 X58.450 Y14.751 Z2.500 I1.008 J-1.230 F30000.000
G1 X58.450 Y6.000 Z2.500 F30000.000
G3 X60.000 Y4.450 Z2.500 I1.550 J0.000 F30000.000
G1 X91.816 Y4.450 Z2.500 F30000.000
G1 X95.696 Y4.450 Z6.380 F27000.000
G1 X104.304 Y4.450 Z6.380 F30000.000
G1 X108.184 Y4.450 Z2.500 F27000.000
G1 X140.000 Y4.450 Z2.500 F30000.000
G3 X141.550 Y6.000 Z2.500 I0.000 J1.550 F30000.000
G1 X141.550 Y14.751 Z2.500 F30000.000
G3 X140.960 Y15.989 Z2.500 I-1.716 J-0.058 F30000.000
G2 X141.026 Y16.032 Z2.500 I0.040 J0.011 F30000.000
G3 X142.249 Y15.450 Z2.500 I1.230 J1.008 F30000.000
G1 X200.000 Y15.450 Z2.500 F30000.000
G3 X201.550 Y17.000 Z2.500 I0.000 J1.550 F30000.000
G1 X201.550 Y72.316 Z2.500 F30000.000
G1 X201.550 Y76.196 Z6.380 F27000.000
G1 X201.550 Y84.804 Z6.380 F30000.000
G1 X201.550 Y88.684 Z2.500 F27000.000
G1 X201.550 Y144.000 Z2.500 F30000.000
G3 X200.038 Y145.550 Z2.500 I-1.550 J0.000 F30000.000
G1 X200.038 Y145.550 Z2.000 F24000.000
G3 X200.000 Y145.550 Z2.000 I-0.038 J-1.550 F30000.000
G1 X139.550 Y145.550 Z2.000 F30000.000
G1 X139.550 Y206.000 Z2.000 F30000.000
G3 X138.000 Y207.550 Z2.000 I-1.550 J0.000 F30000.000
G1 X77.684 Y207.550 Z2.000 F30000.000
G1 X73.304 Y207.550 Z6.380 F27000.000
G1 X64.696 Y207.550 Z6.380 F30000.000
G1 X60.316 Y207.550 Z2.000 F27000.000
G1 X0.000 Y207.550 Z2.000 F30000.000
G3 X-1.550 Y206.000 Z2.000 I0.000 J-1.550 F30000.000
G1 X-1.550 Y120.184 Z2.000 F30000.000
G1 X-1.550 Y115.804 Z6.380 F27000.000
G1 X-1.550 Y107.196 Z6.380 F30000.000
G1 X-1.550 Y102.816 Z2.000 F27000.000
G1 X-1.550 Y17.000 Z2.000 F30000.000
G3 X0.000 Y15.450 Z2.000 I1.550 J0.000 F30000.000
G1 X57.751 Y15.450 Z2.000 F30000.000
G3 X58.989 Y16.040 Z2.000 I-0.058 J1.715 F30000.000
G2 X59.032 Y15.974 Z2.000 I0.011 J-0.040 F30000.000
G3 X58.450 Y14.751 Z2.000 I1.008 J-1.230 F30000.000
G1 X58.450 Y6.000 Z2.000 F30000.000
G3 X60.000 Y4.450 Z2.000 I1.550 J0.000 F30000.000
G1 X91.316 Y4.450 Z2.000 F30000.000
G1 X95.696 Y4.450 Z6.380 F27000.000
G1 X104.304 Y4.450 Z6.380 F30000.000
G1 X108.684 Y4.450 Z2.000 F27000.000
G1 X140.000 Y4.450 Z2.000 F30000.000
G3 X141.550 Y6.000 Z2.000 I0.000 J1.550 F30000.000
G1 X141.550 Y14.751 Z2.000 F30000.000
G3 X140.960 Y15.989 Z2.000 I-1.716 J-0.058 F30000.000
G2 X141.026 Y16.032 Z2.000 I0.040 J0.011 F30000.000
G3 X142.249 Y15.450 Z2.000 I1.230 J1.008 F30000.000
G1 X200.000 Y15.450 Z2.000 F30000.000
G3 X201.550 Y17.000 Z2.000 I0.000 J1.550 F30000.000
G1 X201.550 Y71.816 Z2.000 F30000.000
G1 X201.550 Y76.196 Z6.380 F27000.000
G1 X201.550 Y84.804 Z6.380 F30000.000
G1 X201.550 Y89.184 Z2.000 F27000.000
G1 X201.550 Y144.000 Z2.000 F30000.000
G3 X200.038 Y145.550 Z2.000 I-1.550 J0.000 F30000.000
G1 X200.038 Y145.550 Z1.500 F24000.000
G3 X200.000 Y145.550 Z1.500 I-0.038 J-1.550 F30000.000
G1 X139.550 Y145.550 Z1.500 F30000.000
G1 X139.550 Y206.000 Z1.500 F30000.000
G3 X138.000 Y207.550 Z1.500 I-1.550 J0.000 F30000.000
G1 X78.184 Y207.550 Z1.500 F30000.000
G1 X73.304 Y207.550 Z6.380 F27000.000
G1 X64.696 Y207.550 Z6.380 F30000.000
G1 X59.816 Y207.550 Z1.500 F27000.000
G1 X0.000 Y207.550 Z1.500 F30000.000
G3 X-1.550 Y206.000 Z1.500 I0.000 J-1.550 F30000.000
G1 X-1.550 Y120.684 Z1.500 F30000.000
G1 X-1.550 Y115.804 Z6.380 F27000.000
G1 X-1.550 Y107.196 Z6.380 F30000.000
G1 X-1.550 Y102.316 Z1.500 F27000.000
G1 X-1.550 Y17.000 Z1.500 F30000.000
G3 X0.000 Y15.450 Z1.500 I1.550 J0.000 F30000.000
G1 X57.751 Y15.450 Z1.500 F30000.000
G3 X58.989 Y16.040 Z1.500 I-0.058 J1.715 F30000.000
G2 X59.032 Y15.974 Z1.500 I0.011 J-0.040 F30000.000
G3 X58.450 Y14.751 Z1.500 I1.008 J-1.230 F30000.000
G1 X58.450 Y6.000 Z1.500 F30000.000
G3 X60.000 Y4.450 Z1.500 I1.550 J0.000 F30000.000
G1 X90.816 Y4.450 Z1.500 F30000.000
G1 X95.696 Y4.450 Z6.380 F27000.000
G1 X104.304 Y4.450 Z6.380 F30000.000
G1 X109.184 Y4.450 Z1.500 F27000.000
G1 X140.000 Y4.450 Z1.500 F30000.000
G3 X141.550 Y6.000 Z1.500 I0.000 J1.550 F30000.000
G1 X141.550 Y14.751 Z1.500 F30000.000
G3 X140.960 Y15.989 Z1.500 I-1.716 J-0.058 F30000.000
G2 X141.026 Y16.032 Z1.500 I0.040 J0.011 F30000.000
G3 X142.249 Y15.450 Z1.500 I1.230 J1.008 F30000.000
G1 X200.000 Y15.450 Z1.500 F30000.000
G3 X201.550 Y17.000 Z1.500 I0.000 J1.550 F30000.000
G1 X201.550 Y71.316 Z1.500 F30000.000
G1 X201.550 Y76.196 Z6.380 F27000.000
G1 X201.550 Y84.804 Z6.380 F30000.000
G1 X201.550 Y89.684 Z1.500 F27000.000
G1 X201.550 Y144.000 Z1.500 F30000.000
G3 X200.038 Y145.550 Z1.500 I-1.550 J0.000 F30000.000
G1 X200.038 Y145.550 Z1.000 F24000.000
G3 X200.000 Y145.550 Z1.000 I-0.038 J-1.550 F30000.000
G1 X139.550 Y145.550 Z1.000 F30000.000
G1 X139.550 Y206.000 Z1.000 F30000.000
G3 X138.000 Y207.550 Z1.000 I-1.550 J0.000 F30000.000
G1 X78.684 Y207.550 Z1.000 F30000.000
G1 X73.304 Y207.550 Z6.380 F27000.000
G1 X64.696 Y207.550 Z6.380 F30000.000
G1 X59.316 Y207.550 Z1.000 F27000.000
G1 X0.000 Y207.550 Z1.000 F30000.000
G3 X-1.550 Y206.000 Z1.000 I0.000 J-1.550 F30000.000
G1 X-1.550 Y121.184 Z1.000 F30000.000
G1 X-1.550 Y115.804 Z6.380 F27000.000
G1 X-1.550 Y107.196 Z6.380 F30000.000
G1 X-1.550 Y101.816 Z1.000 F27000.000
G1 X-1.550 Y17.000 Z1.000 F30000.000
G3 X0.000 Y15.450 Z1.000 I1.550 J0.000 F30000.000
G1 X57.751 Y15.450 Z1.000 F30000.000
G3 X58.989 Y16.040 Z1.000 I-0.058 J1.715 F30000.000
G2 X59.032 Y15.974 Z1.000 I0.011 J-0.040 F30000.000
G3 X58.450 Y14.751 Z1.000 I1.008 J-1.230 F30000.000
G1 X58.450 Y6.000 Z1.000 F30000.000
G3 X60.000 Y4.450 Z1.000 I1.550 J0.000 F30000.000
G1 X90.316 Y4.450 Z1.000 F30000.000
G1 X95.696 Y4.450 Z6.380 F27000.000
G1 X104.304 Y4.450 Z6.380 F30000.000
G1 X109.684 Y4.450 Z1.000 F27000.000
G1 X140.000 Y4.450 Z1.000 F30000.000
G3 X141.550 Y6.000 Z1.000 I0.000 J1.550 F30000.000
G1 X141.550 Y14.751 Z1.000 F30000.000
G3 X140.960 Y15.989 Z1.000 I-1.716 J-0.058 F30000.000
G2 X141.026 Y16.032 Z1.000 I0.040 J0.011 F30000.000
G3 X142.249 Y15.450 Z1.000 I1.230 J1.008 F30000.000
G1 X200.000 Y15.450 Z1.000 F30000.000
G3 X201.550 Y17.000 Z1.000 I0.000 J1.550 F30000.000
G1 X201.550 Y70.816 Z1.000 F30000.000
G1 X201.550 Y76.196 Z6.380 F27000.000
G1 X201.550 Y84.804 Z6.380 F30000.000
G1 X201.550 Y90.184 Z1.000 F27000.000
G1 X201.550 Y144.000 Z1.000 F30000.000
G3 X200.038 Y145.550 Z1.000 I-1.550 J0.000 F30000.000
G1 X200.038 Y145.550 Z0.500 F24000.000
G3 X200.000 Y145.550 Z0.500 I-0.038 J-1.550 F30000.000
G1 X139.550 Y145.550 Z0.500 F30000.000
G1 X139.550 Y206.000 Z0.500 F30000.000
G3 X138.000 Y207.550 Z0.500 I-1.550 J0.000 F30000.000
G1 X79.184 Y207.550 Z0.500 F30000.000
G1 X73.304 Y207.550 Z6.380 F27000.000
G1 X64.696 Y207.550 Z6.380 F30000.000
G1 X58.816 Y207.550 Z0.500 F27000.000
G1 X0.000 Y207.550 Z0.500 F30000.000
G3 X-1.550 Y206.000 Z0.500 I0.000 J-1.550 F30000.000
G1 X-1.550 Y121.684 Z0.500 F30000.000
G1 X-1.550 Y115.804 Z6.380 F27000.000
G1 X-1.550 Y107.196 Z6.380 F30000.000
G1 X-1.550 Y101.316 Z0.500 F27000.000
G1 X-1.550 Y17.000 Z0.500 F30000.000
G3 X0.000 Y15.450 Z0.500 I1.550 J0.000 F30000.000
G1 X57.751 Y15.450 Z0.500 F30000.000
G3 X58.989 Y16.040 Z0.500 I-0.058 J1.715 F30000.000
G2 X59.032 Y15.974 Z0.500 I0.011 J-0.040 F30000.000
G3 X58.450 Y14.751 Z0.500 I1.008 J-1.230 F30000.000
G1 X58.450 Y6.000 Z0.500 F30000.000
G3 X60.000 Y4.450 Z0.500 I1.550 J0.000 F30000.000
G1 X89.816 Y4.450 Z0.500 F30000.000
G1 X95.696 Y4.450 Z6.380 F27000.000
G1 X104.304 Y4.450 Z6.380 F30000.000
G1 X110.184 Y4.450 Z0.500 F27000.000
G1 X140.000 Y4.450 Z0.500 F30000.000
G3 X141.550 Y6.000 Z0.500 I0.000 J1.550 F30000.000
G1 X141.550 Y14.751 Z0.500 F30000.000
G3 X140.960 Y15.989 Z0.500 I-1.716 J-0.058 F30000.000
G2 X141.026 Y16.032 Z0.500 I0.040 J0.011 F30000.000
G3 X142.249 Y15.450 Z0.500 I1.230 J1.008 F30000.000
G1 X200.000 Y15.450 Z0.500 F30000.000
G3 X201.550 Y17.000 Z0.500 I0.000 J1.550 F30000.000
G1 X201.550 Y70.316 Z0.500 F30000.000
G1 X201.550 Y76.196 Z6.380 F27000.000
G1 X201.550 Y84.804 Z6.380 F30000.000
G1 X201.550 Y90.684 Z0.500 F27000.000
G1 X201.550 Y144.000 Z0.500 F30000.000
G3 X200.038 Y145.550 Z0.500 I-1.550 J0.000 F30000.000
G1 X200.038 Y145.550 Z0.000 F24000.000
G3 X200.000 Y145.550 Z0.000 I-0.038 J-1.550 F30000.000
G1 X139.550 Y145.550 Z0.000 F30000.000
G1 X139.550 Y206.000 Z0.000 F30000.000
G3 X138.000 Y207.550 Z0.000 I-1.550 J0.000 F30000.000
G1 X79.684 Y207.550 Z0.000 F30000.000
G1 X73.304 Y207.550 Z6.380 F27000.000
G1 X64.696 Y207.550 Z6.380 F30000.000
G1 X58.316 Y207.550 Z0.000 F27000.000
G1 X0.000 Y207.550 Z0.000 F30000.000
G3 X-1.550 Y206.000 Z0.000 I0.000 J-1.550 F30000.000
G1 X-1.550 Y122.184 Z0.000 F30000.000
G1 X-1.550 Y115.804 Z6.380 F27000.000
G1 X-1.550 Y107.196 Z6.380 F30000.000
G1 X-1.550 Y100.816 Z0.000 F27000.000
G1 X-1.550 Y17.000 Z0.000 F30000.000
G3 X0.000 Y15.450 Z0.000 I1.550 J0.000 F30000.000
G1 X57.751 Y15.450 Z0.000 F30000.000
G3 X58.989 Y16.040 Z0.000 I-0.058 J1.715 F30000.000
G2 X59.032 Y15.974 Z0.000 I0.011 J-0.040 F30000.000
G3 X58.450 Y14.751 Z0.000 I1.008 J-1.230 F30000.000
G1 X58.450 Y6.000 Z0.000 F30000.000
G3 X60.000 Y4.450 Z0.000 I1.550 J0.000 F30000.000
G1 X89.316 Y4.450 Z0.000 F30000.000
G1 X95.696 Y4.450 Z6.380 F27000.000
G1 X104.304 Y4.450 Z6.380 F30000.000
G1 X110.684 Y4.450 Z0.000 F27000.000
G1 X140.000 Y4.450 Z0.000 F30000.000
G3 X141.550 Y6.000 Z0.000 I0.000 J1.550 F30000.000
G1 X141.550 Y14.751 Z0.000 F30000.000
G3 X140.960 Y15.989 Z0.000 I-1.716 J-0.058 F30000.000
G2 X141.026 Y16.032 Z0.000 I0.040 J0.011 F30000.000
G3 X142.249 Y15.450 Z0.000 I1.230 J1.008 F30000.000
G1 X200.000 Y15.450 Z0.000 F30000.000
G3 X201.550 Y17.000 Z0.000 I0.000 J1.550 F30000.000
G1 X201.550 Y69.816 Z0.000 F30000.000
G1 X201.550 Y76.196 Z6.380 F27000.000
G1 X201.550 Y84.804 Z6.380 F30000.000
G1 X201.550 Y91.184 Z0.000 F27000.000
G1 X201.550 Y144.000 Z0.000 F30000.000
G3 X200.038 Y145.550 Z0.000 I-1.550 J0.000 F30000.000
G1 X200.038 Y145.550 Z-0.250 F24000.000
G3 X200.000 Y145.550 Z-0.250 I-0.038 J-1.550 F30000.000
G1 X139.550 Y145.550 Z-0.250 F30000.000
G1 X139.550 Y206.000 Z-0.250 F30000.000
G3 X138.000 Y207.550 Z-0.250 I-1.550 J0.000 F30000.000
G1 X79.934 Y207.550 Z-0.250 F30000.000
G1 X73.304 Y207.550 Z6.380 F27000.000
G1 X64.696 Y207.550 Z6.380 F30000.000
G1 X58.066 Y207.550 Z-0.250 F27000.000
G1 X0.000 Y207.550 Z-0.250 F30000.000
G3 X-1.550 Y206.000 Z-0.250 I0.000 J-1.550 F30000.000
G1 X-1.550 Y122.434 Z-0.250 F30000.000
G1 X-1.550 Y115.804 Z6.380 F27000.000
G1 X-1.550 Y107.196 Z6.380 F30000.000
G1 X-1.550 Y100.566 Z-0.250 F27000.000
G1 X-1.550 Y17.000 Z-0.250 F30000.000
G3 X0.000 Y15.450 Z-0.250 I1.550 J0.000 F30000.000
G1 X57.751 Y15.450 Z-0.250 F30000.000
G3 X58.989 Y16.040 Z-0.250 I-0.058 J1.715 F30000.000
G2 X59.032 Y15.974 Z-0.250 I0.011 J-0.040 F30000.000
G3 X58.450 Y14.751 Z-0.250 I1.008 J-1.230 F30000.000
G1 X58.450 Y6.000 Z-0.250 F30000.000
G3 X60.000 Y4.450 Z-0.250 I1.550 J0.000 F30000.000
G1 X89.066 Y4.450 Z-0.250 F30000.000
G1 X95.696 Y4.450 Z6.380 F27000.000
G1 X104.304 Y4.450 Z6.380 F30000.000
G1 X110.934 Y4.450 Z-0.250 F27000.000
G1 X140.000 Y4.450 Z-0.250 F30000.000
G3 X141.550 Y6.000 Z-0.250 I0.000 J1.550 F30000.000
G1 X141.550 Y14.751 Z-0.250 F30000.000
G3 X140.960 Y15.989 Z-0.250 I-1.716 J-0.058 F30000.000
G2 X141.026 Y16.032 Z-0.250 I0.040 J0.011 F30000.000
G3 X142.249 Y15.450 Z-0.250 I1.230 J1.008 F30000.000
G1 X200.000 Y15.450 Z-0.250 F30000.000
G3 X201.550 Y17.000 Z-0.250 I0.000 J1.550 F30000.000
G1 X201.550 Y69.566 Z-0.250 F30000.000
G1 X201.550 Y76.196 Z6.380 F27000.000
G1 X201.550 Y84.804 Z6.380 F30000.000
G1 X201.550 Y91.434 Z-0.250 F27000.000
G1 X201.550 Y144.000 Z-0.250 F30000.000
G3 X200.038 Y145.550 Z-0.250 I-1.550 J0.000 F30000.000
G0 X200.038 Y145.550 Z20.000
(finish operation: DressupTag001)
(begin postamble)
M05 M09
G17 G90 G80 G40
M30
