(Exported by FreeCAD)
(Post Processor: KineticNCBeamicon2_post)
(Output Time:2024-09-06 18:10:02.659510)
(begin preamble)
%
G17 G21 G40 G49 G80 G90
M08
G21
(begin operation: Fixture)
(machine: not set, mm/min)
G54
(finish operation: Fixture)
(begin operation: 3.1)
(machine: not set, mm/min)
(3.1)
M05
M09M6 T1
M3 S25000
(finish operation: 3.1)
(begin operation: Profile)
(machine: not set, mm/min)
(Profile)
(Compensated Tool Path. Diameter: 3.1)
G0 Z20.000
G0 X139.029 Y5.029
G0 Z18.000
G1 X139.029 Y5.029 Z12.500 F24000.000
G2 X139.039 Y4.987 Z12.500 I-0.029 J-0.029 F30000.000
G3 X138.450 Y3.751 Z12.500 I1.117 J-1.291 F30000.000
G1 X138.450 Y-3.751 Z12.500 F30000.000
G3 X139.032 Y-4.974 Z12.500 I1.590 J0.007 F30000.000
G2 X138.989 Y-5.040 Z12.500 I-0.032 J-0.026 F30000.000
G3 X137.751 Y-4.450 Z12.500 I-1.296 J-1.125 F30000.000
G1 X62.249 Y-4.450 Z12.500 F30000.000
G3 X61.019 Y-5.037 Z12.500 I0.024 J-1.634 F30000.000
G2 X60.963 Y-4.981 Z12.500 I-0.019 J0.037 F30000.000
G3 X61.550 Y-3.751 Z12.500 I-1.085 J1.273 F30000.000
G1 X61.550 Y3.751 Z12.500 F30000.000
G3 X60.968 Y4.974 Z12.500 I-1.590 J-0.007 F30000.000
G2 X61.011 Y5.040 Z12.500 I0.032 J0.026 F30000.000
G3 X62.249 Y4.450 Z12.500 I1.296 J1.127 F30000.000
G1 X137.751 Y4.450 Z12.500 F30000.000
G3 X138.974 Y5.032 Z12.500 I-0.007 J1.591 F30000.000
G2 X139.029 Y5.029 Z12.500 I0.026 J-0.032 F30000.000
G1 X139.029 Y5.029 Z12.000 F24000.000
G2 X139.039 Y4.987 Z12.000 I-0.029 J-0.029 F30000.000
G3 X138.450 Y3.751 Z12.000 I1.117 J-1.291 F30000.000
G1 X138.450 Y-3.751 Z12.000 F30000.000
G3 X139.032 Y-4.974 Z12.000 I1.590 J0.007 F30000.000
G2 X138.989 Y-5.040 Z12.000 I-0.032 J-0.026 F30000.000
G3 X137.751 Y-4.450 Z12.000 I-1.296 J-1.125 F30000.000
G1 X62.249 Y-4.450 Z12.000 F30000.000
G3 X61.019 Y-5.037 Z12.000 I0.024 J-1.634 F30000.000
G2 X60.963 Y-4.981 Z12.000 I-0.019 J0.037 F30000.000
G3 X61.550 Y-3.751 Z12.000 I-1.085 J1.273 F30000.000
G1 X61.550 Y3.751 Z12.000 F30000.000
G3 X60.968 Y4.974 Z12.000 I-1.590 J-0.007 F30000.000
G2 X61.011 Y5.040 Z12.000 I0.032 J0.026 F30000.000
G3 X62.249 Y4.450 Z12.000 I1.296 J1.127 F30000.000
G1 X137.751 Y4.450 Z12.000 F30000.000
G3 X138.974 Y5.032 Z12.000 I-0.007 J1.591 F30000.000
G2 X139.029 Y5.029 Z12.000 I0.026 J-0.032 F30000.000
G1 X139.029 Y5.029 Z11.500 F24000.000
G2 X139.039 Y4.987 Z11.500 I-0.029 J-0.029 F30000.000
G3 X138.450 Y3.751 Z11.500 I1.117 J-1.291 F30000.000
G1 X138.450 Y-3.751 Z11.500 F30000.000
G3 X139.032 Y-4.974 Z11.500 I1.590 J0.007 F30000.000
G2 X138.989 Y-5.040 Z11.500 I-0.032 J-0.026 F30000.000
G3 X137.751 Y-4.450 Z11.500 I-1.296 J-1.125 F30000.000
G1 X62.249 Y-4.450 Z11.500 F30000.000
G3 X61.019 Y-5.037 Z11.500 I0.024 J-1.634 F30000.000
G2 X60.963 Y-4.981 Z11.500 I-0.019 J0.037 F30000.000
G3 X61.550 Y-3.751 Z11.500 I-1.085 J1.273 F30000.000
G1 X61.550 Y3.751 Z11.500 F30000.000
G3 X60.968 Y4.974 Z11.500 I-1.590 J-0.007 F30000.000
G2 X61.011 Y5.040 Z11.500 I0.032 J0.026 F30000.000
G3 X62.249 Y4.450 Z11.500 I1.296 J1.127 F30000.000
G1 X137.751 Y4.450 Z11.500 F30000.000
G3 X138.974 Y5.032 Z11.500 I-0.007 J1.591 F30000.000
G2 X139.029 Y5.029 Z11.500 I0.026 J-0.032 F30000.000
G1 X139.029 Y5.029 Z11.000 F24000.000
G2 X139.039 Y4.987 Z11.000 I-0.029 J-0.029 F30000.000
G3 X138.450 Y3.751 Z11.000 I1.117 J-1.291 F30000.000
G1 X138.450 Y-3.751 Z11.000 F30000.000
G3 X139.032 Y-4.974 Z11.000 I1.590 J0.007 F30000.000
G2 X138.989 Y-5.040 Z11.000 I-0.032 J-0.026 F30000.000
G3 X137.751 Y-4.450 Z11.000 I-1.296 J-1.125 F30000.000
G1 X62.249 Y-4.450 Z11.000 F30000.000
G3 X61.019 Y-5.037 Z11.000 I0.024 J-1.634 F30000.000
G2 X60.963 Y-4.981 Z11.000 I-0.019 J0.037 F30000.000
G3 X61.550 Y-3.751 Z11.000 I-1.085 J1.273 F30000.000
G1 X61.550 Y3.751 Z11.000 F30000.000
G3 X60.968 Y4.974 Z11.000 I-1.590 J-0.007 F30000.000
G2 X61.011 Y5.040 Z11.000 I0.032 J0.026 F30000.000
G3 X62.249 Y4.450 Z11.000 I1.296 J1.127 F30000.000
G1 X137.751 Y4.450 Z11.000 F30000.000
G3 X138.974 Y5.032 Z11.000 I-0.007 J1.591 F30000.000
G2 X139.029 Y5.029 Z11.000 I0.026 J-0.032 F30000.000
G1 X139.029 Y5.029 Z10.500 F24000.000
G2 X139.039 Y4.987 Z10.500 I-0.029 J-0.029 F30000.000
G3 X138.450 Y3.751 Z10.500 I1.117 J-1.291 F30000.000
G1 X138.450 Y-3.751 Z10.500 F30000.000
G3 X139.032 Y-4.974 Z10.500 I1.590 J0.007 F30000.000
G2 X138.989 Y-5.040 Z10.500 I-0.032 J-0.026 F30000.000
G3 X137.751 Y-4.450 Z10.500 I-1.296 J-1.125 F30000.000
G1 X62.249 Y-4.450 Z10.500 F30000.000
G3 X61.019 Y-5.037 Z10.500 I0.024 J-1.634 F30000.000
G2 X60.963 Y-4.981 Z10.500 I-0.019 J0.037 F30000.000
G3 X61.550 Y-3.751 Z10.500 I-1.085 J1.273 F30000.000
G1 X61.550 Y3.751 Z10.500 F30000.000
G3 X60.968 Y4.974 Z10.500 I-1.590 J-0.007 F30000.000
G2 X61.011 Y5.040 Z10.500 I0.032 J0.026 F30000.000
G3 X62.249 Y4.450 Z10.500 I1.296 J1.127 F30000.000
G1 X137.751 Y4.450 Z10.500 F30000.000
G3 X138.974 Y5.032 Z10.500 I-0.007 J1.591 F30000.000
G2 X139.029 Y5.029 Z10.500 I0.026 J-0.032 F30000.000
G1 X139.029 Y5.029 Z10.000 F24000.000
G2 X139.039 Y4.987 Z10.000 I-0.029 J-0.029 F30000.000
G3 X138.450 Y3.751 Z10.000 I1.117 J-1.291 F30000.000
G1 X138.450 Y-3.751 Z10.000 F30000.000
G3 X139.032 Y-4.974 Z10.000 I1.590 J0.007 F30000.000
G2 X138.989 Y-5.040 Z10.000 I-0.032 J-0.026 F30000.000
G3 X137.751 Y-4.450 Z10.000 I-1.296 J-1.125 F30000.000
G1 X62.249 Y-4.450 Z10.000 F30000.000
G3 X61.019 Y-5.037 Z10.000 I0.024 J-1.634 F30000.000
G2 X60.963 Y-4.981 Z10.000 I-0.019 J0.037 F30000.000
G3 X61.550 Y-3.751 Z10.000 I-1.085 J1.273 F30000.000
G1 X61.550 Y3.751 Z10.000 F30000.000
G3 X60.968 Y4.974 Z10.000 I-1.590 J-0.007 F30000.000
G2 X61.011 Y5.040 Z10.000 I0.032 J0.026 F30000.000
G3 X62.249 Y4.450 Z10.000 I1.296 J1.127 F30000.000
G1 X137.751 Y4.450 Z10.000 F30000.000
G3 X138.974 Y5.032 Z10.000 I-0.007 J1.591 F30000.000
G2 X139.029 Y5.029 Z10.000 I0.026 J-0.032 F30000.000
G1 X139.029 Y5.029 Z9.500 F24000.000
G2 X139.039 Y4.987 Z9.500 I-0.029 J-0.029 F30000.000
G3 X138.450 Y3.751 Z9.500 I1.117 J-1.291 F30000.000
G1 X138.450 Y-3.751 Z9.500 F30000.000
G3 X139.032 Y-4.974 Z9.500 I1.590 J0.007 F30000.000
G2 X138.989 Y-5.040 Z9.500 I-0.032 J-0.026 F30000.000
G3 X137.751 Y-4.450 Z9.500 I-1.296 J-1.125 F30000.000
G1 X62.249 Y-4.450 Z9.500 F30000.000
G3 X61.019 Y-5.037 Z9.500 I0.024 J-1.634 F30000.000
G2 X60.963 Y-4.981 Z9.500 I-0.019 J0.037 F30000.000
G3 X61.550 Y-3.751 Z9.500 I-1.085 J1.273 F30000.000
G1 X61.550 Y3.751 Z9.500 F30000.000
G3 X60.968 Y4.974 Z9.500 I-1.590 J-0.007 F30000.000
G2 X61.011 Y5.040 Z9.500 I0.032 J0.026 F30000.000
G3 X62.249 Y4.450 Z9.500 I1.296 J1.127 F30000.000
G1 X137.751 Y4.450 Z9.500 F30000.000
G3 X138.974 Y5.032 Z9.500 I-0.007 J1.591 F30000.000
G2 X139.029 Y5.029 Z9.500 I0.026 J-0.032 F30000.000
G1 X139.029 Y5.029 Z9.000 F24000.000
G2 X139.039 Y4.987 Z9.000 I-0.029 J-0.029 F30000.000
G3 X138.450 Y3.751 Z9.000 I1.117 J-1.291 F30000.000
G1 X138.450 Y-3.751 Z9.000 F30000.000
G3 X139.032 Y-4.974 Z9.000 I1.590 J0.007 F30000.000
G2 X138.989 Y-5.040 Z9.000 I-0.032 J-0.026 F30000.000
G3 X137.751 Y-4.450 Z9.000 I-1.296 J-1.125 F30000.000
G1 X62.249 Y-4.450 Z9.000 F30000.000
G3 X61.019 Y-5.037 Z9.000 I0.024 J-1.634 F30000.000
G2 X60.963 Y-4.981 Z9.000 I-0.019 J0.037 F30000.000
G3 X61.550 Y-3.751 Z9.000 I-1.085 J1.273 F30000.000
G1 X61.550 Y3.751 Z9.000 F30000.000
G3 X60.968 Y4.974 Z9.000 I-1.590 J-0.007 F30000.000
G2 X61.011 Y5.040 Z9.000 I0.032 J0.026 F30000.000
G3 X62.249 Y4.450 Z9.000 I1.296 J1.127 F30000.000
G1 X137.751 Y4.450 Z9.000 F30000.000
G3 X138.974 Y5.032 Z9.000 I-0.007 J1.591 F30000.000
G2 X139.029 Y5.029 Z9.000 I0.026 J-0.032 F30000.000
G1 X139.029 Y5.029 Z8.500 F24000.000
G2 X139.039 Y4.987 Z8.500 I-0.029 J-0.029 F30000.000
G3 X138.450 Y3.751 Z8.500 I1.117 J-1.291 F30000.000
G1 X138.450 Y-3.751 Z8.500 F30000.000
G3 X139.032 Y-4.974 Z8.500 I1.590 J0.007 F30000.000
G2 X138.989 Y-5.040 Z8.500 I-0.032 J-0.026 F30000.000
G3 X137.751 Y-4.450 Z8.500 I-1.296 J-1.125 F30000.000
G1 X62.249 Y-4.450 Z8.500 F30000.000
G3 X61.019 Y-5.037 Z8.500 I0.024 J-1.634 F30000.000
G2 X60.963 Y-4.981 Z8.500 I-0.019 J0.037 F30000.000
G3 X61.550 Y-3.751 Z8.500 I-1.085 J1.273 F30000.000
G1 X61.550 Y3.751 Z8.500 F30000.000
G3 X60.968 Y4.974 Z8.500 I-1.590 J-0.007 F30000.000
G2 X61.011 Y5.040 Z8.500 I0.032 J0.026 F30000.000
G3 X62.249 Y4.450 Z8.500 I1.296 J1.127 F30000.000
G1 X137.751 Y4.450 Z8.500 F30000.000
G3 X138.974 Y5.032 Z8.500 I-0.007 J1.591 F30000.000
G2 X139.029 Y5.029 Z8.500 I0.026 J-0.032 F30000.000
G1 X139.029 Y5.029 Z8.000 F24000.000
G2 X139.039 Y4.987 Z8.000 I-0.029 J-0.029 F30000.000
G3 X138.450 Y3.751 Z8.000 I1.117 J-1.291 F30000.000
G1 X138.450 Y-3.751 Z8.000 F30000.000
G3 X139.032 Y-4.974 Z8.000 I1.590 J0.007 F30000.000
G2 X138.989 Y-5.040 Z8.000 I-0.032 J-0.026 F30000.000
G3 X137.751 Y-4.450 Z8.000 I-1.296 J-1.125 F30000.000
G1 X62.249 Y-4.450 Z8.000 F30000.000
G3 X61.019 Y-5.037 Z8.000 I0.024 J-1.634 F30000.000
G2 X60.963 Y-4.981 Z8.000 I-0.019 J0.037 F30000.000
G3 X61.550 Y-3.751 Z8.000 I-1.085 J1.273 F30000.000
G1 X61.550 Y3.751 Z8.000 F30000.000
G3 X60.968 Y4.974 Z8.000 I-1.590 J-0.007 F30000.000
G2 X61.011 Y5.040 Z8.000 I0.032 J0.026 F30000.000
G3 X62.249 Y4.450 Z8.000 I1.296 J1.127 F30000.000
G1 X137.751 Y4.450 Z8.000 F30000.000
G3 X138.974 Y5.032 Z8.000 I-0.007 J1.591 F30000.000
G2 X139.029 Y5.029 Z8.000 I0.026 J-0.032 F30000.000
G1 X139.029 Y5.029 Z7.500 F24000.000
G2 X139.039 Y4.987 Z7.500 I-0.029 J-0.029 F30000.000
G3 X138.450 Y3.751 Z7.500 I1.117 J-1.291 F30000.000
G1 X138.450 Y-3.751 Z7.500 F30000.000
G3 X139.032 Y-4.974 Z7.500 I1.590 J0.007 F30000.000
G2 X138.989 Y-5.040 Z7.500 I-0.032 J-0.026 F30000.000
G3 X137.751 Y-4.450 Z7.500 I-1.296 J-1.125 F30000.000
G1 X62.249 Y-4.450 Z7.500 F30000.000
G3 X61.019 Y-5.037 Z7.500 I0.024 J-1.634 F30000.000
G2 X60.963 Y-4.981 Z7.500 I-0.019 J0.037 F30000.000
G3 X61.550 Y-3.751 Z7.500 I-1.085 J1.273 F30000.000
G1 X61.550 Y3.751 Z7.500 F30000.000
G3 X60.968 Y4.974 Z7.500 I-1.590 J-0.007 F30000.000
G2 X61.011 Y5.040 Z7.500 I0.032 J0.026 F30000.000
G3 X62.249 Y4.450 Z7.500 I1.296 J1.127 F30000.000
G1 X137.751 Y4.450 Z7.500 F30000.000
G3 X138.974 Y5.032 Z7.500 I-0.007 J1.591 F30000.000
G2 X139.029 Y5.029 Z7.500 I0.026 J-0.032 F30000.000
G1 X139.029 Y5.029 Z7.000 F24000.000
G2 X139.039 Y4.987 Z7.000 I-0.029 J-0.029 F30000.000
G3 X138.450 Y3.751 Z7.000 I1.117 J-1.291 F30000.000
G1 X138.450 Y-3.751 Z7.000 F30000.000
G3 X139.032 Y-4.974 Z7.000 I1.590 J0.007 F30000.000
G2 X138.989 Y-5.040 Z7.000 I-0.032 J-0.026 F30000.000
G3 X137.751 Y-4.450 Z7.000 I-1.296 J-1.125 F30000.000
G1 X62.249 Y-4.450 Z7.000 F30000.000
G3 X61.019 Y-5.037 Z7.000 I0.024 J-1.634 F30000.000
G2 X60.963 Y-4.981 Z7.000 I-0.019 J0.037 F30000.000
G3 X61.550 Y-3.751 Z7.000 I-1.085 J1.273 F30000.000
G1 X61.550 Y3.751 Z7.000 F30000.000
G3 X60.968 Y4.974 Z7.000 I-1.590 J-0.007 F30000.000
G2 X61.011 Y5.040 Z7.000 I0.032 J0.026 F30000.000
G3 X62.249 Y4.450 Z7.000 I1.296 J1.127 F30000.000
G1 X137.751 Y4.450 Z7.000 F30000.000
G3 X138.974 Y5.032 Z7.000 I-0.007 J1.591 F30000.000
G2 X139.029 Y5.029 Z7.000 I0.026 J-0.032 F30000.000
G1 X139.029 Y5.029 Z6.500 F24000.000
G2 X139.039 Y4.987 Z6.500 I-0.029 J-0.029 F30000.000
G3 X138.450 Y3.751 Z6.500 I1.117 J-1.291 F30000.000
G1 X138.450 Y-3.751 Z6.500 F30000.000
G3 X139.032 Y-4.974 Z6.500 I1.590 J0.007 F30000.000
G2 X138.989 Y-5.040 Z6.500 I-0.032 J-0.026 F30000.000
G3 X137.751 Y-4.450 Z6.500 I-1.296 J-1.125 F30000.000
G1 X62.249 Y-4.450 Z6.500 F30000.000
G3 X61.019 Y-5.037 Z6.500 I0.024 J-1.634 F30000.000
G2 X60.963 Y-4.981 Z6.500 I-0.019 J0.037 F30000.000
G3 X61.550 Y-3.751 Z6.500 I-1.085 J1.273 F30000.000
G1 X61.550 Y3.751 Z6.500 F30000.000
G3 X60.968 Y4.974 Z6.500 I-1.590 J-0.007 F30000.000
G2 X61.011 Y5.040 Z6.500 I0.032 J0.026 F30000.000
G3 X62.249 Y4.450 Z6.500 I1.296 J1.127 F30000.000
G1 X137.751 Y4.450 Z6.500 F30000.000
G3 X138.974 Y5.032 Z6.500 I-0.007 J1.591 F30000.000
G2 X139.029 Y5.029 Z6.500 I0.026 J-0.032 F30000.000
G1 X139.029 Y5.029 Z6.000 F24000.000
G2 X139.039 Y4.987 Z6.000 I-0.029 J-0.029 F30000.000
G3 X138.450 Y3.751 Z6.000 I1.117 J-1.291 F30000.000
G1 X138.450 Y-3.751 Z6.000 F30000.000
G3 X139.032 Y-4.974 Z6.000 I1.590 J0.007 F30000.000
G2 X138.989 Y-5.040 Z6.000 I-0.032 J-0.026 F30000.000
G3 X137.751 Y-4.450 Z6.000 I-1.296 J-1.125 F30000.000
G1 X62.249 Y-4.450 Z6.000 F30000.000
G3 X61.019 Y-5.037 Z6.000 I0.024 J-1.634 F30000.000
G2 X60.963 Y-4.981 Z6.000 I-0.019 J0.037 F30000.000
G3 X61.550 Y-3.751 Z6.000 I-1.085 J1.273 F30000.000
G1 X61.550 Y3.751 Z6.000 F30000.000
G3 X60.968 Y4.974 Z6.000 I-1.590 J-0.007 F30000.000
G2 X61.011 Y5.040 Z6.000 I0.032 J0.026 F30000.000
G3 X62.249 Y4.450 Z6.000 I1.296 J1.127 F30000.000
G1 X137.751 Y4.450 Z6.000 F30000.000
G3 X138.974 Y5.032 Z6.000 I-0.007 J1.591 F30000.000
G2 X139.029 Y5.029 Z6.000 I0.026 J-0.032 F30000.000
G1 X139.029 Y5.029 Z5.500 F24000.000
G2 X139.039 Y4.987 Z5.500 I-0.029 J-0.029 F30000.000
G3 X138.450 Y3.751 Z5.500 I1.117 J-1.291 F30000.000
G1 X138.450 Y-3.751 Z5.500 F30000.000
G3 X139.032 Y-4.974 Z5.500 I1.590 J0.007 F30000.000
G2 X138.989 Y-5.040 Z5.500 I-0.032 J-0.026 F30000.000
G3 X137.751 Y-4.450 Z5.500 I-1.296 J-1.125 F30000.000
G1 X62.249 Y-4.450 Z5.500 F30000.000
G3 X61.019 Y-5.037 Z5.500 I0.024 J-1.634 F30000.000
G2 X60.963 Y-4.981 Z5.500 I-0.019 J0.037 F30000.000
G3 X61.550 Y-3.751 Z5.500 I-1.085 J1.273 F30000.000
G1 X61.550 Y3.751 Z5.500 F30000.000
G3 X60.968 Y4.974 Z5.500 I-1.590 J-0.007 F30000.000
G2 X61.011 Y5.040 Z5.500 I0.032 J0.026 F30000.000
G3 X62.249 Y4.450 Z5.500 I1.296 J1.127 F30000.000
G1 X137.751 Y4.450 Z5.500 F30000.000
G3 X138.974 Y5.032 Z5.500 I-0.007 J1.591 F30000.000
G2 X139.029 Y5.029 Z5.500 I0.026 J-0.032 F30000.000
G1 X139.029 Y5.029 Z5.000 F24000.000
G2 X139.039 Y4.987 Z5.000 I-0.029 J-0.029 F30000.000
G3 X138.450 Y3.751 Z5.000 I1.117 J-1.291 F30000.000
G1 X138.450 Y-3.751 Z5.000 F30000.000
G3 X139.032 Y-4.974 Z5.000 I1.590 J0.007 F30000.000
G2 X138.989 Y-5.040 Z5.000 I-0.032 J-0.026 F30000.000
G3 X137.751 Y-4.450 Z5.000 I-1.296 J-1.125 F30000.000
G1 X62.249 Y-4.450 Z5.000 F30000.000
G3 X61.019 Y-5.037 Z5.000 I0.024 J-1.634 F30000.000
G2 X60.963 Y-4.981 Z5.000 I-0.019 J0.037 F30000.000
G3 X61.550 Y-3.751 Z5.000 I-1.085 J1.273 F30000.000
G1 X61.550 Y3.751 Z5.000 F30000.000
G3 X60.968 Y4.974 Z5.000 I-1.590 J-0.007 F30000.000
G2 X61.011 Y5.040 Z5.000 I0.032 J0.026 F30000.000
G3 X62.249 Y4.450 Z5.000 I1.296 J1.127 F30000.000
G1 X137.751 Y4.450 Z5.000 F30000.000
G3 X138.974 Y5.032 Z5.000 I-0.007 J1.591 F30000.000
G2 X139.029 Y5.029 Z5.000 I0.026 J-0.032 F30000.000
G1 X139.029 Y5.029 Z4.500 F24000.000
G2 X139.039 Y4.987 Z4.500 I-0.029 J-0.029 F30000.000
G3 X138.450 Y3.751 Z4.500 I1.117 J-1.291 F30000.000
G1 X138.450 Y-3.751 Z4.500 F30000.000
G3 X139.032 Y-4.974 Z4.500 I1.590 J0.007 F30000.000
G2 X138.989 Y-5.040 Z4.500 I-0.032 J-0.026 F30000.000
G3 X137.751 Y-4.450 Z4.500 I-1.296 J-1.125 F30000.000
G1 X62.249 Y-4.450 Z4.500 F30000.000
G3 X61.019 Y-5.037 Z4.500 I0.024 J-1.634 F30000.000
G2 X60.963 Y-4.981 Z4.500 I-0.019 J0.037 F30000.000
G3 X61.550 Y-3.751 Z4.500 I-1.085 J1.273 F30000.000
G1 X61.550 Y3.751 Z4.500 F30000.000
G3 X60.968 Y4.974 Z4.500 I-1.590 J-0.007 F30000.000
G2 X61.011 Y5.040 Z4.500 I0.032 J0.026 F30000.000
G3 X62.249 Y4.450 Z4.500 I1.296 J1.127 F30000.000
G1 X137.751 Y4.450 Z4.500 F30000.000
G3 X138.974 Y5.032 Z4.500 I-0.007 J1.591 F30000.000
G2 X139.029 Y5.029 Z4.500 I0.026 J-0.032 F30000.000
G1 X139.029 Y5.029 Z4.000 F24000.000
G2 X139.039 Y4.987 Z4.000 I-0.029 J-0.029 F30000.000
G3 X138.450 Y3.751 Z4.000 I1.117 J-1.291 F30000.000
G1 X138.450 Y-3.751 Z4.000 F30000.000
G3 X139.032 Y-4.974 Z4.000 I1.590 J0.007 F30000.000
G2 X138.989 Y-5.040 Z4.000 I-0.032 J-0.026 F30000.000
G3 X137.751 Y-4.450 Z4.000 I-1.296 J-1.125 F30000.000
G1 X62.249 Y-4.450 Z4.000 F30000.000
G3 X61.019 Y-5.037 Z4.000 I0.024 J-1.634 F30000.000
G2 X60.963 Y-4.981 Z4.000 I-0.019 J0.037 F30000.000
G3 X61.550 Y-3.751 Z4.000 I-1.085 J1.273 F30000.000
G1 X61.550 Y3.751 Z4.000 F30000.000
G3 X60.968 Y4.974 Z4.000 I-1.590 J-0.007 F30000.000
G2 X61.011 Y5.040 Z4.000 I0.032 J0.026 F30000.000
G3 X62.249 Y4.450 Z4.000 I1.296 J1.127 F30000.000
G1 X137.751 Y4.450 Z4.000 F30000.000
G3 X138.974 Y5.032 Z4.000 I-0.007 J1.591 F30000.000
G2 X139.029 Y5.029 Z4.000 I0.026 J-0.032 F30000.000
G1 X139.029 Y5.029 Z3.500 F24000.000
G2 X139.039 Y4.987 Z3.500 I-0.029 J-0.029 F30000.000
G3 X138.450 Y3.751 Z3.500 I1.117 J-1.291 F30000.000
G1 X138.450 Y-3.751 Z3.500 F30000.000
G3 X139.032 Y-4.974 Z3.500 I1.590 J0.007 F30000.000
G2 X138.989 Y-5.040 Z3.500 I-0.032 J-0.026 F30000.000
G3 X137.751 Y-4.450 Z3.500 I-1.296 J-1.125 F30000.000
G1 X62.249 Y-4.450 Z3.500 F30000.000
G3 X61.019 Y-5.037 Z3.500 I0.024 J-1.634 F30000.000
G2 X60.963 Y-4.981 Z3.500 I-0.019 J0.037 F30000.000
G3 X61.550 Y-3.751 Z3.500 I-1.085 J1.273 F30000.000
G1 X61.550 Y3.751 Z3.500 F30000.000
G3 X60.968 Y4.974 Z3.500 I-1.590 J-0.007 F30000.000
G2 X61.011 Y5.040 Z3.500 I0.032 J0.026 F30000.000
G3 X62.249 Y4.450 Z3.500 I1.296 J1.127 F30000.000
G1 X137.751 Y4.450 Z3.500 F30000.000
G3 X138.974 Y5.032 Z3.500 I-0.007 J1.591 F30000.000
G2 X139.029 Y5.029 Z3.500 I0.026 J-0.032 F30000.000
G1 X139.029 Y5.029 Z3.000 F24000.000
G2 X139.039 Y4.987 Z3.000 I-0.029 J-0.029 F30000.000
G3 X138.450 Y3.751 Z3.000 I1.117 J-1.291 F30000.000
G1 X138.450 Y-3.751 Z3.000 F30000.000
G3 X139.032 Y-4.974 Z3.000 I1.590 J0.007 F30000.000
G2 X138.989 Y-5.040 Z3.000 I-0.032 J-0.026 F30000.000
G3 X137.751 Y-4.450 Z3.000 I-1.296 J-1.125 F30000.000
G1 X62.249 Y-4.450 Z3.000 F30000.000
G3 X61.019 Y-5.037 Z3.000 I0.024 J-1.634 F30000.000
G2 X60.963 Y-4.981 Z3.000 I-0.019 J0.037 F30000.000
G3 X61.550 Y-3.751 Z3.000 I-1.085 J1.273 F30000.000
G1 X61.550 Y3.751 Z3.000 F30000.000
G3 X60.968 Y4.974 Z3.000 I-1.590 J-0.007 F30000.000
G2 X61.011 Y5.040 Z3.000 I0.032 J0.026 F30000.000
G3 X62.249 Y4.450 Z3.000 I1.296 J1.127 F30000.000
G1 X137.751 Y4.450 Z3.000 F30000.000
G3 X138.974 Y5.032 Z3.000 I-0.007 J1.591 F30000.000
G2 X139.029 Y5.029 Z3.000 I0.026 J-0.032 F30000.000
G1 X139.029 Y5.029 Z2.500 F24000.000
G2 X139.039 Y4.987 Z2.500 I-0.029 J-0.029 F30000.000
G3 X138.450 Y3.751 Z2.500 I1.117 J-1.291 F30000.000
G1 X138.450 Y-3.751 Z2.500 F30000.000
G3 X139.032 Y-4.974 Z2.500 I1.590 J0.007 F30000.000
G2 X138.989 Y-5.040 Z2.500 I-0.032 J-0.026 F30000.000
G3 X137.751 Y-4.450 Z2.500 I-1.296 J-1.125 F30000.000
G1 X62.249 Y-4.450 Z2.500 F30000.000
G3 X61.019 Y-5.037 Z2.500 I0.024 J-1.634 F30000.000
G2 X60.963 Y-4.981 Z2.500 I-0.019 J0.037 F30000.000
G3 X61.550 Y-3.751 Z2.500 I-1.085 J1.273 F30000.000
G1 X61.550 Y3.751 Z2.500 F30000.000
G3 X60.968 Y4.974 Z2.500 I-1.590 J-0.007 F30000.000
G2 X61.011 Y5.040 Z2.500 I0.032 J0.026 F30000.000
G3 X62.249 Y4.450 Z2.500 I1.296 J1.127 F30000.000
G1 X137.751 Y4.450 Z2.500 F30000.000
G3 X138.974 Y5.032 Z2.500 I-0.007 J1.591 F30000.000
G2 X139.029 Y5.029 Z2.500 I0.026 J-0.032 F30000.000
G1 X139.029 Y5.029 Z2.000 F24000.000
G2 X139.039 Y4.987 Z2.000 I-0.029 J-0.029 F30000.000
G3 X138.450 Y3.751 Z2.000 I1.117 J-1.291 F30000.000
G1 X138.450 Y-3.751 Z2.000 F30000.000
G3 X139.032 Y-4.974 Z2.000 I1.590 J0.007 F30000.000
G2 X138.989 Y-5.040 Z2.000 I-0.032 J-0.026 F30000.000
G3 X137.751 Y-4.450 Z2.000 I-1.296 J-1.125 F30000.000
G1 X62.249 Y-4.450 Z2.000 F30000.000
G3 X61.019 Y-5.037 Z2.000 I0.024 J-1.634 F30000.000
G2 X60.963 Y-4.981 Z2.000 I-0.019 J0.037 F30000.000
G3 X61.550 Y-3.751 Z2.000 I-1.085 J1.273 F30000.000
G1 X61.550 Y3.751 Z2.000 F30000.000
G3 X60.968 Y4.974 Z2.000 I-1.590 J-0.007 F30000.000
G2 X61.011 Y5.040 Z2.000 I0.032 J0.026 F30000.000
G3 X62.249 Y4.450 Z2.000 I1.296 J1.127 F30000.000
G1 X137.751 Y4.450 Z2.000 F30000.000
G3 X138.974 Y5.032 Z2.000 I-0.007 J1.591 F30000.000
G2 X139.029 Y5.029 Z2.000 I0.026 J-0.032 F30000.000
G1 X139.029 Y5.029 Z1.500 F24000.000
G2 X139.039 Y4.987 Z1.500 I-0.029 J-0.029 F30000.000
G3 X138.450 Y3.751 Z1.500 I1.117 J-1.291 F30000.000
G1 X138.450 Y-3.751 Z1.500 F30000.000
G3 X139.032 Y-4.974 Z1.500 I1.590 J0.007 F30000.000
G2 X138.989 Y-5.040 Z1.500 I-0.032 J-0.026 F30000.000
G3 X137.751 Y-4.450 Z1.500 I-1.296 J-1.125 F30000.000
G1 X62.249 Y-4.450 Z1.500 F30000.000
G3 X61.019 Y-5.037 Z1.500 I0.024 J-1.634 F30000.000
G2 X60.963 Y-4.981 Z1.500 I-0.019 J0.037 F30000.000
G3 X61.550 Y-3.751 Z1.500 I-1.085 J1.273 F30000.000
G1 X61.550 Y3.751 Z1.500 F30000.000
G3 X60.968 Y4.974 Z1.500 I-1.590 J-0.007 F30000.000
G2 X61.011 Y5.040 Z1.500 I0.032 J0.026 F30000.000
G3 X62.249 Y4.450 Z1.500 I1.296 J1.127 F30000.000
G1 X137.751 Y4.450 Z1.500 F30000.000
G3 X138.974 Y5.032 Z1.500 I-0.007 J1.591 F30000.000
G2 X139.029 Y5.029 Z1.500 I0.026 J-0.032 F30000.000
G1 X139.029 Y5.029 Z1.000 F24000.000
G2 X139.039 Y4.987 Z1.000 I-0.029 J-0.029 F30000.000
G3 X138.450 Y3.751 Z1.000 I1.117 J-1.291 F30000.000
G1 X138.450 Y-3.751 Z1.000 F30000.000
G3 X139.032 Y-4.974 Z1.000 I1.590 J0.007 F30000.000
G2 X138.989 Y-5.040 Z1.000 I-0.032 J-0.026 F30000.000
G3 X137.751 Y-4.450 Z1.000 I-1.296 J-1.125 F30000.000
G1 X62.249 Y-4.450 Z1.000 F30000.000
G3 X61.019 Y-5.037 Z1.000 I0.024 J-1.634 F30000.000
G2 X60.963 Y-4.981 Z1.000 I-0.019 J0.037 F30000.000
G3 X61.550 Y-3.751 Z1.000 I-1.085 J1.273 F30000.000
G1 X61.550 Y3.751 Z1.000 F30000.000
G3 X60.968 Y4.974 Z1.000 I-1.590 J-0.007 F30000.000
G2 X61.011 Y5.040 Z1.000 I0.032 J0.026 F30000.000
G3 X62.249 Y4.450 Z1.000 I1.296 J1.127 F30000.000
G1 X137.751 Y4.450 Z1.000 F30000.000
G3 X138.974 Y5.032 Z1.000 I-0.007 J1.591 F30000.000
G2 X139.029 Y5.029 Z1.000 I0.026 J-0.032 F30000.000
G1 X139.029 Y5.029 Z0.500 F24000.000
G2 X139.039 Y4.987 Z0.500 I-0.029 J-0.029 F30000.000
G3 X138.450 Y3.751 Z0.500 I1.117 J-1.291 F30000.000
G1 X138.450 Y-3.751 Z0.500 F30000.000
G3 X139.032 Y-4.974 Z0.500 I1.590 J0.007 F30000.000
G2 X138.989 Y-5.040 Z0.500 I-0.032 J-0.026 F30000.000
G3 X137.751 Y-4.450 Z0.500 I-1.296 J-1.125 F30000.000
G1 X62.249 Y-4.450 Z0.500 F30000.000
G3 X61.019 Y-5.037 Z0.500 I0.024 J-1.634 F30000.000
G2 X60.963 Y-4.981 Z0.500 I-0.019 J0.037 F30000.000
G3 X61.550 Y-3.751 Z0.500 I-1.085 J1.273 F30000.000
G1 X61.550 Y3.751 Z0.500 F30000.000
G3 X60.968 Y4.974 Z0.500 I-1.590 J-0.007 F30000.000
G2 X61.011 Y5.040 Z0.500 I0.032 J0.026 F30000.000
G3 X62.249 Y4.450 Z0.500 I1.296 J1.127 F30000.000
G1 X137.751 Y4.450 Z0.500 F30000.000
G3 X138.974 Y5.032 Z0.500 I-0.007 J1.591 F30000.000
G2 X139.029 Y5.029 Z0.500 I0.026 J-0.032 F30000.000
G1 X139.029 Y5.029 Z0.000 F24000.000
G2 X139.039 Y4.987 Z0.000 I-0.029 J-0.029 F30000.000
G3 X138.450 Y3.751 Z0.000 I1.117 J-1.291 F30000.000
G1 X138.450 Y-3.751 Z0.000 F30000.000
G3 X139.032 Y-4.974 Z0.000 I1.590 J0.007 F30000.000
G2 X138.989 Y-5.040 Z0.000 I-0.032 J-0.026 F30000.000
G3 X137.751 Y-4.450 Z0.000 I-1.296 J-1.125 F30000.000
G1 X62.249 Y-4.450 Z0.000 F30000.000
G3 X61.019 Y-5.037 Z0.000 I0.024 J-1.634 F30000.000
G2 X60.963 Y-4.981 Z0.000 I-0.019 J0.037 F30000.000
G3 X61.550 Y-3.751 Z0.000 I-1.085 J1.273 F30000.000
G1 X61.550 Y3.751 Z0.000 F30000.000
G3 X60.968 Y4.974 Z0.000 I-1.590 J-0.007 F30000.000
G2 X61.011 Y5.040 Z0.000 I0.032 J0.026 F30000.000
G3 X62.249 Y4.450 Z0.000 I1.296 J1.127 F30000.000
G1 X137.751 Y4.450 Z0.000 F30000.000
G3 X138.974 Y5.032 Z0.000 I-0.007 J1.591 F30000.000
G2 X139.029 Y5.029 Z0.000 I0.026 J-0.032 F30000.000
G1 X139.029 Y5.029 Z-0.250 F24000.000
G2 X139.039 Y4.987 Z-0.250 I-0.029 J-0.029 F30000.000
G3 X138.450 Y3.751 Z-0.250 I1.117 J-1.291 F30000.000
G1 X138.450 Y-3.751 Z-0.250 F30000.000
G3 X139.032 Y-4.974 Z-0.250 I1.590 J0.007 F30000.000
G2 X138.989 Y-5.040 Z-0.250 I-0.032 J-0.026 F30000.000
G3 X137.751 Y-4.450 Z-0.250 I-1.296 J-1.125 F30000.000
G1 X62.249 Y-4.450 Z-0.250 F30000.000
G3 X61.019 Y-5.037 Z-0.250 I0.024 J-1.634 F30000.000
G2 X60.963 Y-4.981 Z-0.250 I-0.019 J0.037 F30000.000
G3 X61.550 Y-3.751 Z-0.250 I-1.085 J1.273 F30000.000
G1 X61.550 Y3.751 Z-0.250 F30000.000
G3 X60.968 Y4.974 Z-0.250 I-1.590 J-0.007 F30000.000
G2 X61.011 Y5.040 Z-0.250 I0.032 J0.026 F30000.000
G3 X62.249 Y4.450 Z-0.250 I1.296 J1.127 F30000.000
G1 X137.751 Y4.450 Z-0.250 F30000.000
G3 X138.974 Y5.032 Z-0.250 I-0.007 J1.591 F30000.000
G2 X139.029 Y5.029 Z-0.250 I0.026 J-0.032 F30000.000
G0 Z20.000
G0 Z20.000
(finish operation: Profile)
(begin operation: DressupTag)
(machine: not set, mm/min)
G0 Z20.000
G0 X201.096 Y101.096 Z20.000
G0 X201.096 Y101.096 Z18.000
G1 X201.096 Y101.096 Z12.500 F24000.000
G3 X200.000 Y101.550 Z12.500 I-1.096 J-1.096 F30000.000
G1 X0.000 Y101.550 Z12.500 F30000.000
G3 X-1.550 Y100.000 Z12.500 I-0.000 J-1.550 F30000.000
G1 X-1.550 Y-100.000 Z12.500 F30000.000
G3 X0.000 Y-101.550 Z12.500 I1.550 J-0.000 F30000.000
G1 X200.000 Y-101.550 Z12.500 F30000.000
G3 X201.550 Y-100.000 Z12.500 I0.000 J1.550 F30000.000
G1 X201.550 Y100.000 Z12.500 F30000.000
G3 X201.096 Y101.096 Z12.500 I-1.550 J0.000 F30000.000
G1 X201.096 Y101.096 Z12.000 F24000.000
G3 X200.000 Y101.550 Z12.000 I-1.096 J-1.096 F30000.000
G1 X0.000 Y101.550 Z12.000 F30000.000
G3 X-1.550 Y100.000 Z12.000 I-0.000 J-1.550 F30000.000
G1 X-1.550 Y-100.000 Z12.000 F30000.000
G3 X0.000 Y-101.550 Z12.000 I1.550 J-0.000 F30000.000
G1 X200.000 Y-101.550 Z12.000 F30000.000
G3 X201.550 Y-100.000 Z12.000 I0.000 J1.550 F30000.000
G1 X201.550 Y100.000 Z12.000 F30000.000
G3 X201.096 Y101.096 Z12.000 I-1.550 J0.000 F30000.000
G1 X201.096 Y101.096 Z11.500 F24000.000
G3 X200.000 Y101.550 Z11.500 I-1.096 J-1.096 F30000.000
G1 X0.000 Y101.550 Z11.500 F30000.000
G3 X-1.550 Y100.000 Z11.500 I-0.000 J-1.550 F30000.000
G1 X-1.550 Y-100.000 Z11.500 F30000.000
G3 X0.000 Y-101.550 Z11.500 I1.550 J-0.000 F30000.000
G1 X200.000 Y-101.550 Z11.500 F30000.000
G3 X201.550 Y-100.000 Z11.500 I0.000 J1.550 F30000.000
G1 X201.550 Y100.000 Z11.500 F30000.000
G3 X201.096 Y101.096 Z11.500 I-1.550 J0.000 F30000.000
G1 X201.096 Y101.096 Z11.000 F24000.000
G3 X200.000 Y101.550 Z11.000 I-1.096 J-1.096 F30000.000
G1 X0.000 Y101.550 Z11.000 F30000.000
G3 X-1.550 Y100.000 Z11.000 I-0.000 J-1.550 F30000.000
G1 X-1.550 Y-100.000 Z11.000 F30000.000
G3 X0.000 Y-101.550 Z11.000 I1.550 J-0.000 F30000.000
G1 X200.000 Y-101.550 Z11.000 F30000.000
G3 X201.550 Y-100.000 Z11.000 I0.000 J1.550 F30000.000
G1 X201.550 Y100.000 Z11.000 F30000.000
G3 X201.096 Y101.096 Z11.000 I-1.550 J0.000 F30000.000
G1 X201.096 Y101.096 Z10.500 F24000.000
G3 X200.000 Y101.550 Z10.500 I-1.096 J-1.096 F30000.000
G1 X0.000 Y101.550 Z10.500 F30000.000
G3 X-1.550 Y100.000 Z10.500 I-0.000 J-1.550 F30000.000
G1 X-1.550 Y-100.000 Z10.500 F30000.000
G3 X0.000 Y-101.550 Z10.500 I1.550 J-0.000 F30000.000
G1 X200.000 Y-101.550 Z10.500 F30000.000
G3 X201.550 Y-100.000 Z10.500 I0.000 J1.550 F30000.000
G1 X201.550 Y100.000 Z10.500 F30000.000
G3 X201.096 Y101.096 Z10.500 I-1.550 J0.000 F30000.000
G1 X201.096 Y101.096 Z10.000 F24000.000
G3 X200.000 Y101.550 Z10.000 I-1.096 J-1.096 F30000.000
G1 X0.000 Y101.550 Z10.000 F30000.000
G3 X-1.550 Y100.000 Z10.000 I-0.000 J-1.550 F30000.000
G1 X-1.550 Y-100.000 Z10.000 F30000.000
G3 X0.000 Y-101.550 Z10.000 I1.550 J-0.000 F30000.000
G1 X200.000 Y-101.550 Z10.000 F30000.000
G3 X201.550 Y-100.000 Z10.000 I0.000 J1.550 F30000.000
G1 X201.550 Y100.000 Z10.000 F30000.000
G3 X201.096 Y101.096 Z10.000 I-1.550 J0.000 F30000.000
G1 X201.096 Y101.096 Z9.500 F24000.000
G3 X200.000 Y101.550 Z9.500 I-1.096 J-1.096 F30000.000
G1 X0.000 Y101.550 Z9.500 F30000.000
G3 X-1.550 Y100.000 Z9.500 I-0.000 J-1.550 F30000.000
G1 X-1.550 Y-100.000 Z9.500 F30000.000
G3 X0.000 Y-101.550 Z9.500 I1.550 J-0.000 F30000.000
G1 X200.000 Y-101.550 Z9.500 F30000.000
G3 X201.550 Y-100.000 Z9.500 I0.000 J1.550 F30000.000
G1 X201.550 Y100.000 Z9.500 F30000.000
G3 X201.096 Y101.096 Z9.500 I-1.550 J0.000 F30000.000
G1 X201.096 Y101.096 Z9.000 F24000.000
G3 X200.000 Y101.550 Z9.000 I-1.096 J-1.096 F30000.000
G1 X0.000 Y101.550 Z9.000 F30000.000
G3 X-1.550 Y100.000 Z9.000 I-0.000 J-1.550 F30000.000
G1 X-1.550 Y-100.000 Z9.000 F30000.000
G3 X0.000 Y-101.550 Z9.000 I1.550 J-0.000 F30000.000
G1 X200.000 Y-101.550 Z9.000 F30000.000
G3 X201.550 Y-100.000 Z9.000 I0.000 J1.550 F30000.000
G1 X201.550 Y100.000 Z9.000 F30000.000
G3 X201.096 Y101.096 Z9.000 I-1.550 J0.000 F30000.000
G1 X201.096 Y101.096 Z8.500 F24000.000
G3 X200.000 Y101.550 Z8.500 I-1.096 J-1.096 F30000.000
G1 X0.000 Y101.550 Z8.500 F30000.000
G3 X-1.550 Y100.000 Z8.500 I-0.000 J-1.550 F30000.000
G1 X-1.550 Y-100.000 Z8.500 F30000.000
G3 X0.000 Y-101.550 Z8.500 I1.550 J-0.000 F30000.000
G1 X200.000 Y-101.550 Z8.500 F30000.000
G3 X201.550 Y-100.000 Z8.500 I0.000 J1.550 F30000.000
G1 X201.550 Y100.000 Z8.500 F30000.000
G3 X201.096 Y101.096 Z8.500 I-1.550 J0.000 F30000.000
G1 X201.096 Y101.096 Z8.000 F24000.000
G3 X200.000 Y101.550 Z8.000 I-1.096 J-1.096 F30000.000
G1 X0.000 Y101.550 Z8.000 F30000.000
G3 X-1.550 Y100.000 Z8.000 I-0.000 J-1.550 F30000.000
G1 X-1.550 Y-100.000 Z8.000 F30000.000
G3 X0.000 Y-101.550 Z8.000 I1.550 J-0.000 F30000.000
G1 X200.000 Y-101.550 Z8.000 F30000.000
G3 X201.550 Y-100.000 Z8.000 I0.000 J1.550 F30000.000
G1 X201.550 Y100.000 Z8.000 F30000.000
G3 X201.096 Y101.096 Z8.000 I-1.550 J0.000 F30000.000
G1 X201.096 Y101.096 Z7.500 F24000.000
G3 X200.000 Y101.550 Z7.500 I-1.096 J-1.096 F30000.000
G1 X0.000 Y101.550 Z7.500 F30000.000
G3 X-1.550 Y100.000 Z7.500 I-0.000 J-1.550 F30000.000
G1 X-1.550 Y-100.000 Z7.500 F30000.000
G3 X0.000 Y-101.550 Z7.500 I1.550 J-0.000 F30000.000
G1 X200.000 Y-101.550 Z7.500 F30000.000
G3 X201.550 Y-100.000 Z7.500 I0.000 J1.550 F30000.000
G1 X201.550 Y100.000 Z7.500 F30000.000
G3 X201.096 Y101.096 Z7.500 I-1.550 J0.000 F30000.000
G1 X201.096 Y101.096 Z7.000 F24000.000
G3 X200.000 Y101.550 Z7.000 I-1.096 J-1.096 F30000.000
G1 X0.000 Y101.550 Z7.000 F30000.000
G3 X-1.550 Y100.000 Z7.000 I-0.000 J-1.550 F30000.000
G1 X-1.550 Y-100.000 Z7.000 F30000.000
G3 X0.000 Y-101.550 Z7.000 I1.550 J-0.000 F30000.000
G1 X200.000 Y-101.550 Z7.000 F30000.000
G3 X201.550 Y-100.000 Z7.000 I0.000 J1.550 F30000.000
G1 X201.550 Y100.000 Z7.000 F30000.000
G3 X201.096 Y101.096 Z7.000 I-1.550 J0.000 F30000.000
G1 X201.096 Y101.096 Z6.500 F24000.000
G3 X200.000 Y101.550 Z6.500 I-1.096 J-1.096 F30000.000
G1 X0.000 Y101.550 Z6.500 F30000.000
G3 X-1.550 Y100.000 Z6.500 I-0.000 J-1.550 F30000.000
G1 X-1.550 Y-100.000 Z6.500 F30000.000
G3 X0.000 Y-101.550 Z6.500 I1.550 J-0.000 F30000.000
G1 X200.000 Y-101.550 Z6.500 F30000.000
G3 X201.550 Y-100.000 Z6.500 I0.000 J1.550 F30000.000
G1 X201.550 Y100.000 Z6.500 F30000.000
G3 X201.096 Y101.096 Z6.500 I-1.550 J0.000 F30000.000
G1 X201.096 Y101.096 Z6.000 F24000.000
G3 X200.000 Y101.550 Z6.000 I-1.096 J-1.096 F30000.000
G1 X105.234 Y101.550 Z6.000 F30000.000
G1 X104.854 Y101.550 Z6.380 F27000.000
G1 X95.146 Y101.550 Z6.380 F30000.000
G1 X94.766 Y101.550 Z6.000 F27000.000
G1 X0.000 Y101.550 Z6.000 F30000.000
G3 X-1.550 Y100.000 Z6.000 I-0.000 J-1.550 F30000.000
G1 X-1.550 Y5.234 Z6.000 F30000.000
G1 X-1.550 Y4.854 Z6.380 F27000.000
G1 X-1.550 Y-4.854 Z6.380 F30000.000
G1 X-1.550 Y-5.234 Z6.000 F27000.000
G1 X-1.550 Y-100.000 Z6.000 F30000.000
G3 X0.000 Y-101.550 Z6.000 I1.550 J-0.000 F30000.000
G1 X94.766 Y-101.550 Z6.000 F30000.000
G1 X95.146 Y-101.550 Z6.380 F27000.000
G1 X104.854 Y-101.550 Z6.380 F30000.000
G1 X105.234 Y-101.550 Z6.000 F27000.000
G1 X200.000 Y-101.550 Z6.000 F30000.000
G3 X201.550 Y-100.000 Z6.000 I0.000 J1.550 F30000.000
G1 X201.550 Y-5.234 Z6.000 F30000.000
G1 X201.550 Y-4.854 Z6.380 F27000.000
G1 X201.550 Y4.854 Z6.380 F30000.000
G1 X201.550 Y5.234 Z6.000 F27000.000
G1 X201.550 Y100.000 Z6.000 F30000.000
G3 X201.096 Y101.096 Z6.000 I-1.550 J0.000 F30000.000
G1 X201.096 Y101.096 Z5.500 F24000.000
G3 X200.000 Y101.550 Z5.500 I-1.096 J-1.096 F30000.000
G1 X105.734 Y101.550 Z5.500 F30000.000
G1 X104.854 Y101.550 Z6.380 F27000.000
G1 X95.146 Y101.550 Z6.380 F30000.000
G1 X94.266 Y101.550 Z5.500 F27000.000
G1 X0.000 Y101.550 Z5.500 F30000.000
G3 X-1.550 Y100.000 Z5.500 I-0.000 J-1.550 F30000.000
G1 X-1.550 Y5.734 Z5.500 F30000.000
G1 X-1.550 Y4.854 Z6.380 F27000.000
G1 X-1.550 Y-4.854 Z6.380 F30000.000
G1 X-1.550 Y-5.734 Z5.500 F27000.000
G1 X-1.550 Y-100.000 Z5.500 F30000.000
G3 X0.000 Y-101.550 Z5.500 I1.550 J-0.000 F30000.000
G1 X94.266 Y-101.550 Z5.500 F30000.000
G1 X95.146 Y-101.550 Z6.380 F27000.000
G1 X104.854 Y-101.550 Z6.380 F30000.000
G1 X105.734 Y-101.550 Z5.500 F27000.000
G1 X200.000 Y-101.550 Z5.500 F30000.000
G3 X201.550 Y-100.000 Z5.500 I0.000 J1.550 F30000.000
G1 X201.550 Y-5.734 Z5.500 F30000.000
G1 X201.550 Y-4.854 Z6.380 F27000.000
G1 X201.550 Y4.854 Z6.380 F30000.000
G1 X201.550 Y5.734 Z5.500 F27000.000
G1 X201.550 Y100.000 Z5.500 F30000.000
G3 X201.096 Y101.096 Z5.500 I-1.550 J0.000 F30000.000
G1 X201.096 Y101.096 Z5.000 F24000.000
G3 X200.000 Y101.550 Z5.000 I-1.096 J-1.096 F30000.000
G1 X106.234 Y101.550 Z5.000 F30000.000
G1 X104.854 Y101.550 Z6.380 F27000.000
G1 X95.146 Y101.550 Z6.380 F30000.000
G1 X93.766 Y101.550 Z5.000 F27000.000
G1 X0.000 Y101.550 Z5.000 F30000.000
G3 X-1.550 Y100.000 Z5.000 I-0.000 J-1.550 F30000.000
G1 X-1.550 Y6.234 Z5.000 F30000.000
G1 X-1.550 Y4.854 Z6.380 F27000.000
G1 X-1.550 Y-4.854 Z6.380 F30000.000
G1 X-1.550 Y-6.234 Z5.000 F27000.000
G1 X-1.550 Y-100.000 Z5.000 F30000.000
G3 X0.000 Y-101.550 Z5.000 I1.550 J-0.000 F30000.000
G1 X93.766 Y-101.550 Z5.000 F30000.000
G1 X95.146 Y-101.550 Z6.380 F27000.000
G1 X104.854 Y-101.550 Z6.380 F30000.000
G1 X106.234 Y-101.550 Z5.000 F27000.000
G1 X200.000 Y-101.550 Z5.000 F30000.000
G3 X201.550 Y-100.000 Z5.000 I0.000 J1.550 F30000.000
G1 X201.550 Y-6.234 Z5.000 F30000.000
G1 X201.550 Y-4.854 Z6.380 F27000.000
G1 X201.550 Y4.854 Z6.380 F30000.000
G1 X201.550 Y6.234 Z5.000 F27000.000
G1 X201.550 Y100.000 Z5.000 F30000.000
G3 X201.096 Y101.096 Z5.000 I-1.550 J0.000 F30000.000
G1 X201.096 Y101.096 Z4.500 F24000.000
G3 X200.000 Y101.550 Z4.500 I-1.096 J-1.096 F30000.000
G1 X106.734 Y101.550 Z4.500 F30000.000
G1 X104.854 Y101.550 Z6.380 F27000.000
G1 X95.146 Y101.550 Z6.380 F30000.000
G1 X93.266 Y101.550 Z4.500 F27000.000
G1 X0.000 Y101.550 Z4.500 F30000.000
G3 X-1.550 Y100.000 Z4.500 I-0.000 J-1.550 F30000.000
G1 X-1.550 Y6.734 Z4.500 F30000.000
G1 X-1.550 Y4.854 Z6.380 F27000.000
G1 X-1.550 Y-4.854 Z6.380 F30000.000
G1 X-1.550 Y-6.734 Z4.500 F27000.000
G1 X-1.550 Y-100.000 Z4.500 F30000.000
G3 X0.000 Y-101.550 Z4.500 I1.550 J-0.000 F30000.000
G1 X93.266 Y-101.550 Z4.500 F30000.000
G1 X95.146 Y-101.550 Z6.380 F27000.000
G1 X104.854 Y-101.550 Z6.380 F30000.000
G1 X106.734 Y-101.550 Z4.500 F27000.000
G1 X200.000 Y-101.550 Z4.500 F30000.000
G3 X201.550 Y-100.000 Z4.500 I0.000 J1.550 F30000.000
G1 X201.550 Y-6.734 Z4.500 F30000.000
G1 X201.550 Y-4.854 Z6.380 F27000.000
G1 X201.550 Y4.854 Z6.380 F30000.000
G1 X201.550 Y6.734 Z4.500 F27000.000
G1 X201.550 Y100.000 Z4.500 F30000.000
G3 X201.096 Y101.096 Z4.500 I-1.550 J0.000 F30000.000
G1 X201.096 Y101.096 Z4.000 F24000.000
G3 X200.000 Y101.550 Z4.000 I-1.096 J-1.096 F30000.000
G1 X107.234 Y101.550 Z4.000 F30000.000
G1 X104.854 Y101.550 Z6.380 F27000.000
G1 X95.146 Y101.550 Z6.380 F30000.000
G1 X92.766 Y101.550 Z4.000 F27000.000
G1 X0.000 Y101.550 Z4.000 F30000.000
G3 X-1.550 Y100.000 Z4.000 I-0.000 J-1.550 F30000.000
G1 X-1.550 Y7.234 Z4.000 F30000.000
G1 X-1.550 Y4.854 Z6.380 F27000.000
G1 X-1.550 Y-4.854 Z6.380 F30000.000
G1 X-1.550 Y-7.234 Z4.000 F27000.000
G1 X-1.550 Y-100.000 Z4.000 F30000.000
G3 X0.000 Y-101.550 Z4.000 I1.550 J-0.000 F30000.000
G1 X92.766 Y-101.550 Z4.000 F30000.000
G1 X95.146 Y-101.550 Z6.380 F27000.000
G1 X104.854 Y-101.550 Z6.380 F30000.000
G1 X107.234 Y-101.550 Z4.000 F27000.000
G1 X200.000 Y-101.550 Z4.000 F30000.000
G3 X201.550 Y-100.000 Z4.000 I0.000 J1.550 F30000.000
G1 X201.550 Y-7.234 Z4.000 F30000.000
G1 X201.550 Y-4.854 Z6.380 F27000.000
G1 X201.550 Y4.854 Z6.380 F30000.000
G1 X201.550 Y7.234 Z4.000 F27000.000
G1 X201.550 Y100.000 Z4.000 F30000.000
G3 X201.096 Y101.096 Z4.000 I-1.550 J0.000 F30000.000
G1 X201.096 Y101.096 Z3.500 F24000.000
G3 X200.000 Y101.550 Z3.500 I-1.096 J-1.096 F30000.000
G1 X107.734 Y101.550 Z3.500 F30000.000
G1 X104.854 Y101.550 Z6.380 F27000.000
G1 X95.146 Y101.550 Z6.380 F30000.000
G1 X92.266 Y101.550 Z3.500 F27000.000
G1 X0.000 Y101.550 Z3.500 F30000.000
G3 X-1.550 Y100.000 Z3.500 I-0.000 J-1.550 F30000.000
G1 X-1.550 Y7.734 Z3.500 F30000.000
G1 X-1.550 Y4.854 Z6.380 F27000.000
G1 X-1.550 Y-4.854 Z6.380 F30000.000
G1 X-1.550 Y-7.734 Z3.500 F27000.000
G1 X-1.550 Y-100.000 Z3.500 F30000.000
G3 X0.000 Y-101.550 Z3.500 I1.550 J-0.000 F30000.000
G1 X92.266 Y-101.550 Z3.500 F30000.000
G1 X95.146 Y-101.550 Z6.380 F27000.000
G1 X104.854 Y-101.550 Z6.380 F30000.000
G1 X107.734 Y-101.550 Z3.500 F27000.000
G1 X200.000 Y-101.550 Z3.500 F30000.000
G3 X201.550 Y-100.000 Z3.500 I0.000 J1.550 F30000.000
G1 X201.550 Y-7.734 Z3.500 F30000.000
G1 X201.550 Y-4.854 Z6.380 F27000.000
G1 X201.550 Y4.854 Z6.380 F30000.000
G1 X201.550 Y7.734 Z3.500 F27000.000
G1 X201.550 Y100.000 Z3.500 F30000.000
G3 X201.096 Y101.096 Z3.500 I-1.550 J0.000 F30000.000
G1 X201.096 Y101.096 Z3.000 F24000.000
G3 X200.000 Y101.550 Z3.000 I-1.096 J-1.096 F30000.000
G1 X108.234 Y101.550 Z3.000 F30000.000
G1 X104.854 Y101.550 Z6.380 F27000.000
G1 X95.146 Y101.550 Z6.380 F30000.000
G1 X91.766 Y101.550 Z3.000 F27000.000
G1 X0.000 Y101.550 Z3.000 F30000.000
G3 X-1.550 Y100.000 Z3.000 I-0.000 J-1.550 F30000.000
G1 X-1.550 Y8.234 Z3.000 F30000.000
G1 X-1.550 Y4.854 Z6.380 F27000.000
G1 X-1.550 Y-4.854 Z6.380 F30000.000
G1 X-1.550 Y-8.234 Z3.000 F27000.000
G1 X-1.550 Y-100.000 Z3.000 F30000.000
G3 X0.000 Y-101.550 Z3.000 I1.550 J-0.000 F30000.000
G1 X91.766 Y-101.550 Z3.000 F30000.000
G1 X95.146 Y-101.550 Z6.380 F27000.000
G1 X104.854 Y-101.550 Z6.380 F30000.000
G1 X108.234 Y-101.550 Z3.000 F27000.000
G1 X200.000 Y-101.550 Z3.000 F30000.000
G3 X201.550 Y-100.000 Z3.000 I0.000 J1.550 F30000.000
G1 X201.550 Y-8.234 Z3.000 F30000.000
G1 X201.550 Y-4.854 Z6.380 F27000.000
G1 X201.550 Y4.854 Z6.380 F30000.000
G1 X201.550 Y8.234 Z3.000 F27000.000
G1 X201.550 Y100.000 Z3.000 F30000.000
G3 X201.096 Y101.096 Z3.000 I-1.550 J0.000 F30000.000
G1 X201.096 Y101.096 Z2.500 F24000.000
G3 X200.000 Y101.550 Z2.500 I-1.096 J-1.096 F30000.000
G1 X108.734 Y101.550 Z2.500 F30000.000
G1 X104.854 Y101.550 Z6.380 F27000.000
G1 X95.146 Y101.550 Z6.380 F30000.000
G1 X91.266 Y101.550 Z2.500 F27000.000
G1 X0.000 Y101.550 Z2.500 F30000.000
G3 X-1.550 Y100.000 Z2.500 I-0.000 J-1.550 F30000.000
G1 X-1.550 Y8.734 Z2.500 F30000.000
G1 X-1.550 Y4.854 Z6.380 F27000.000
G1 X-1.550 Y-4.854 Z6.380 F30000.000
G1 X-1.550 Y-8.734 Z2.500 F27000.000
G1 X-1.550 Y-100.000 Z2.500 F30000.000
G3 X0.000 Y-101.550 Z2.500 I1.550 J-0.000 F30000.000
G1 X91.266 Y-101.550 Z2.500 F30000.000
G1 X95.146 Y-101.550 Z6.380 F27000.000
G1 X104.854 Y-101.550 Z6.380 F30000.000
G1 X108.734 Y-101.550 Z2.500 F27000.000
G1 X200.000 Y-101.550 Z2.500 F30000.000
G3 X201.550 Y-100.000 Z2.500 I0.000 J1.550 F30000.000
G1 X201.550 Y-8.734 Z2.500 F30000.000
G1 X201.550 Y-4.854 Z6.380 F27000.000
G1 X201.550 Y4.854 Z6.380 F30000.000
G1 X201.550 Y8.734 Z2.500 F27000.000
G1 X201.550 Y100.000 Z2.500 F30000.000
G3 X201.096 Y101.096 Z2.500 I-1.550 J0.000 F30000.000
G1 X201.096 Y101.096 Z2.000 F24000.000
G3 X200.000 Y101.550 Z2.000 I-1.096 J-1.096 F30000.000
G1 X109.234 Y101.550 Z2.000 F30000.000
G1 X104.854 Y101.550 Z6.380 F27000.000
G1 X95.146 Y101.550 Z6.380 F30000.000
G1 X90.766 Y101.550 Z2.000 F27000.000
G1 X0.000 Y101.550 Z2.000 F30000.000
G3 X-1.550 Y100.000 Z2.000 I-0.000 J-1.550 F30000.000
G1 X-1.550 Y9.234 Z2.000 F30000.000
G1 X-1.550 Y4.854 Z6.380 F27000.000
G1 X-1.550 Y-4.854 Z6.380 F30000.000
G1 X-1.550 Y-9.234 Z2.000 F27000.000
G1 X-1.550 Y-100.000 Z2.000 F30000.000
G3 X0.000 Y-101.550 Z2.000 I1.550 J-0.000 F30000.000
G1 X90.766 Y-101.550 Z2.000 F30000.000
G1 X95.146 Y-101.550 Z6.380 F27000.000
G1 X104.854 Y-101.550 Z6.380 F30000.000
G1 X109.234 Y-101.550 Z2.000 F27000.000
G1 X200.000 Y-101.550 Z2.000 F30000.000
G3 X201.550 Y-100.000 Z2.000 I0.000 J1.550 F30000.000
G1 X201.550 Y-9.234 Z2.000 F30000.000
G1 X201.550 Y-4.854 Z6.380 F27000.000
G1 X201.550 Y4.854 Z6.380 F30000.000
G1 X201.550 Y9.234 Z2.000 F27000.000
G1 X201.550 Y100.000 Z2.000 F30000.000
G3 X201.096 Y101.096 Z2.000 I-1.550 J0.000 F30000.000
G1 X201.096 Y101.096 Z1.500 F24000.000
G3 X200.000 Y101.550 Z1.500 I-1.096 J-1.096 F30000.000
G1 X109.734 Y101.550 Z1.500 F30000.000
G1 X104.854 Y101.550 Z6.380 F27000.000
G1 X95.146 Y101.550 Z6.380 F30000.000
G1 X90.266 Y101.550 Z1.500 F27000.000
G1 X0.000 Y101.550 Z1.500 F30000.000
G3 X-1.550 Y100.000 Z1.500 I-0.000 J-1.550 F30000.000
G1 X-1.550 Y9.734 Z1.500 F30000.000
G1 X-1.550 Y4.854 Z6.380 F27000.000
G1 X-1.550 Y-4.854 Z6.380 F30000.000
G1 X-1.550 Y-9.734 Z1.500 F27000.000
G1 X-1.550 Y-100.000 Z1.500 F30000.000
G3 X0.000 Y-101.550 Z1.500 I1.550 J-0.000 F30000.000
G1 X90.266 Y-101.550 Z1.500 F30000.000
G1 X95.146 Y-101.550 Z6.380 F27000.000
G1 X104.854 Y-101.550 Z6.380 F30000.000
G1 X109.734 Y-101.550 Z1.500 F27000.000
G1 X200.000 Y-101.550 Z1.500 F30000.000
G3 X201.550 Y-100.000 Z1.500 I0.000 J1.550 F30000.000
G1 X201.550 Y-9.734 Z1.500 F30000.000
G1 X201.550 Y-4.854 Z6.380 F27000.000
G1 X201.550 Y4.854 Z6.380 F30000.000
G1 X201.550 Y9.734 Z1.500 F27000.000
G1 X201.550 Y100.000 Z1.500 F30000.000
G3 X201.096 Y101.096 Z1.500 I-1.550 J0.000 F30000.000
G1 X201.096 Y101.096 Z1.000 F24000.000
G3 X200.000 Y101.550 Z1.000 I-1.096 J-1.096 F30000.000
G1 X110.234 Y101.550 Z1.000 F30000.000
G1 X104.854 Y101.550 Z6.380 F27000.000
G1 X95.146 Y101.550 Z6.380 F30000.000
G1 X89.766 Y101.550 Z1.000 F27000.000
G1 X0.000 Y101.550 Z1.000 F30000.000
G3 X-1.550 Y100.000 Z1.000 I-0.000 J-1.550 F30000.000
G1 X-1.550 Y10.234 Z1.000 F30000.000
G1 X-1.550 Y4.854 Z6.380 F27000.000
G1 X-1.550 Y-4.854 Z6.380 F30000.000
G1 X-1.550 Y-10.234 Z1.000 F27000.000
G1 X-1.550 Y-100.000 Z1.000 F30000.000
G3 X0.000 Y-101.550 Z1.000 I1.550 J-0.000 F30000.000
G1 X89.766 Y-101.550 Z1.000 F30000.000
G1 X95.146 Y-101.550 Z6.380 F27000.000
G1 X104.854 Y-101.550 Z6.380 F30000.000
G1 X110.234 Y-101.550 Z1.000 F27000.000
G1 X200.000 Y-101.550 Z1.000 F30000.000
G3 X201.550 Y-100.000 Z1.000 I0.000 J1.550 F30000.000
G1 X201.550 Y-10.234 Z1.000 F30000.000
G1 X201.550 Y-4.854 Z6.380 F27000.000
G1 X201.550 Y4.854 Z6.380 F30000.000
G1 X201.550 Y10.234 Z1.000 F27000.000
G1 X201.550 Y100.000 Z1.000 F30000.000
G3 X201.096 Y101.096 Z1.000 I-1.550 J0.000 F30000.000
G1 X201.096 Y101.096 Z0.500 F24000.000
G3 X200.000 Y101.550 Z0.500 I-1.096 J-1.096 F30000.000
G1 X110.734 Y101.550 Z0.500 F30000.000
G1 X104.854 Y101.550 Z6.380 F27000.000
G1 X95.146 Y101.550 Z6.380 F30000.000
G1 X89.266 Y101.550 Z0.500 F27000.000
G1 X0.000 Y101.550 Z0.500 F30000.000
G3 X-1.550 Y100.000 Z0.500 I-0.000 J-1.550 F30000.000
G1 X-1.550 Y10.734 Z0.500 F30000.000
G1 X-1.550 Y4.854 Z6.380 F27000.000
G1 X-1.550 Y-4.854 Z6.380 F30000.000
G1 X-1.550 Y-10.734 Z0.500 F27000.000
G1 X-1.550 Y-100.000 Z0.500 F30000.000
G3 X0.000 Y-101.550 Z0.500 I1.550 J-0.000 F30000.000
G1 X89.266 Y-101.550 Z0.500 F30000.000
G1 X95.146 Y-101.550 Z6.380 F27000.000
G1 X104.854 Y-101.550 Z6.380 F30000.000
G1 X110.734 Y-101.550 Z0.500 F27000.000
G1 X200.000 Y-101.550 Z0.500 F30000.000
G3 X201.550 Y-100.000 Z0.500 I0.000 J1.550 F30000.000
G1 X201.550 Y-10.734 Z0.500 F30000.000
G1 X201.550 Y-4.854 Z6.380 F27000.000
G1 X201.550 Y4.854 Z6.380 F30000.000
G1 X201.550 Y10.734 Z0.500 F27000.000
G1 X201.550 Y100.000 Z0.500 F30000.000
G3 X201.096 Y101.096 Z0.500 I-1.550 J0.000 F30000.000
G1 X201.096 Y101.096 Z0.000 F24000.000
G3 X200.000 Y101.550 Z0.000 I-1.096 J-1.096 F30000.000
G1 X111.234 Y101.550 Z0.000 F30000.000
G1 X104.854 Y101.550 Z6.380 F27000.000
G1 X95.146 Y101.550 Z6.380 F30000.000
G1 X88.766 Y101.550 Z-0.000 F27000.000
G1 X0.000 Y101.550 Z0.000 F30000.000
G3 X-1.550 Y100.000 Z0.000 I-0.000 J-1.550 F30000.000
G1 X-1.550 Y11.234 Z0.000 F30000.000
G1 X-1.550 Y4.854 Z6.380 F27000.000
G1 X-1.550 Y-4.854 Z6.380 F30000.000
G1 X-1.550 Y-11.234 Z0.000 F27000.000
G1 X-1.550 Y-100.000 Z0.000 F30000.000
G3 X0.000 Y-101.550 Z0.000 I1.550 J-0.000 F30000.000
G1 X88.766 Y-101.550 Z0.000 F30000.000
G1 X95.146 Y-101.550 Z6.380 F27000.000
G1 X104.854 Y-101.550 Z6.380 F30000.000
G1 X111.234 Y-101.550 Z-0.000 F27000.000
G1 X200.000 Y-101.550 Z0.000 F30000.000
G3 X201.550 Y-100.000 Z0.000 I0.000 J1.550 F30000.000
G1 X201.550 Y-11.234 Z0.000 F30000.000
G1 X201.550 Y-4.854 Z6.380 F27000.000
G1 X201.550 Y4.854 Z6.380 F30000.000
G1 X201.550 Y11.234 Z0.000 F27000.000
G1 X201.550 Y100.000 Z0.000 F30000.000
G3 X201.096 Y101.096 Z0.000 I-1.550 J0.000 F30000.000
G1 X201.096 Y101.096 Z-0.250 F24000.000
G3 X200.000 Y101.550 Z-0.250 I-1.096 J-1.096 F30000.000
G1 X111.484 Y101.550 Z-0.250 F30000.000
G1 X104.854 Y101.550 Z6.380 F27000.000
G1 X95.146 Y101.550 Z6.380 F30000.000
G1 X88.516 Y101.550 Z-0.250 F27000.000
G1 X0.000 Y101.550 Z-0.250 F30000.000
G3 X-1.550 Y100.000 Z-0.250 I-0.000 J-1.550 F30000.000
G1 X-1.550 Y11.484 Z-0.250 F30000.000
G1 X-1.550 Y4.854 Z6.380 F27000.000
G1 X-1.550 Y-4.854 Z6.380 F30000.000
G1 X-1.550 Y-11.484 Z-0.250 F27000.000
G1 X-1.550 Y-100.000 Z-0.250 F30000.000
G3 X0.000 Y-101.550 Z-0.250 I1.550 J-0.000 F30000.000
G1 X88.516 Y-101.550 Z-0.250 F30000.000
G1 X95.146 Y-101.550 Z6.380 F27000.000
G1 X104.854 Y-101.550 Z6.380 F30000.000
G1 X111.484 Y-101.550 Z-0.250 F27000.000
G1 X200.000 Y-101.550 Z-0.250 F30000.000
G3 X201.550 Y-100.000 Z-0.250 I0.000 J1.550 F30000.000
G1 X201.550 Y-11.484 Z-0.250 F30000.000
G1 X201.550 Y-4.854 Z6.380 F27000.000
G1 X201.550 Y4.854 Z6.380 F30000.000
G1 X201.550 Y11.484 Z-0.250 F27000.000
G1 X201.550 Y100.000 Z-0.250 F30000.000
G3 X201.096 Y101.096 Z-0.250 I-1.550 J0.000 F30000.000
G0 X201.096 Y101.096 Z20.000
(finish operation: DressupTag)
(begin postamble)
M05 M09
G17 G90 G80 G40
M30
